;_project: : hilbert_TPMS
;_project_by: : WenqianYang, JonasWard
;_project_gcode_generator_by: : JonasWard
;library_path : /Users/jonas/Documents/HilbertAndCo/src/spacemapping_curve
;path_length : 114963.299011
;pattern_edge_easing : True
;pattern_edge_easing_end : 10.0
;pattern_edge_easing_zero : 0.0
;pattern_periodic : False
;pattern_random_dots : True
;pattern_random_seed : 100
;pattern_split : True
;pattern_type : ellipsoid_bump_map
;pattern_type_ellipsoid_bump_map_direction : False
;pattern_type_ellipsoid_bump_map_radius : 6.5
;pattern_type_ellipsoid_bump_map_spacing : 30.0
;pattern_type_ellipsoid_bump_map_val : 1.0
;pattern_y_scale_factor : 0.5
;shell_count : 1
;shell_direction : outside
;shell_spacing : 1.6
;shell_split_distance : 1.6
;shell_split_type : detached
/Users/jonas/Documents/HilbertAndCo/src/spacemapping_curve/gcode/GCodeDefinitions/startGcode.txt
/Users/jonas/Documents/HilbertAndCo/src/spacemapping_curve/gcode/GCodeDefinitions/endGcode.txt
;Sliced by ideaMaker 3.3.0.2343, 2020-02-08 22:55:15 UTC+0100
;Dimension: 250.000 210.000 210.000 0.400
;Plate Shape: 0
;Extruder Offset #1: 25.000 0.000
;Filament Diameter #1: 1.750
;Filament Diameter #2: 1.750
;Filament Compensation #1: 94.00
;Filament Compensation #2: 94.00
;Filament Density #1: 1240.00
;Filament Density #2: 1240.00
;Model Gap: 0.200
M221 T0 S94.00
M140 S60.00
M104 T0 S205.00
M109 T0 S205.00
T0
M190 S60.00
M115 U3.1.0 ; tell printer latest fw version
M83  ; extruder relative mode
M104 S205 ; set extruder temp
M140 S60 ; set bed temp
M190 S60 ; wait for bed temp
M109 S205 ; wait for extruder temp
G28 W ; home all without mesh bed level
G80 ; mesh bed leveling
G1 Y-3.0 F1000.0 ; go outside print area
G92 E0.0
G1 X60.0 E9.0  F1000.0 ; intro line
G1 X100.0 E12.5  F1000.0 ; intro line
G92 E0.0
M83
M1001
M106 S0
;LAYER:-2
;Z:0.500
;HEIGHT:0.500
G0 F6000 X93.481 Y70.719
G0 F1500 Z0.500
;TYPE:RAFT
;WIDTH:0.800
G1 F1500.0 X-131.25 Y-131.25 Z1.4
G1 X-131.25 Y-93.75 Z1.4 E30.0
G1 F1500.0 X-93.75 Y-93.75 Z1.4 E30.0
G1 F1500.0 X-93.75 Y-131.25 Z1.4 E30.0
G1 F1500.0 X-70.3125 Y-145.3125 Z1.4 E21.8660696057
G1 F1500.0 X-60.9375 Y-145.3125 Z1.4 E7.5
G1 F1500.0 X-60.9375 Y-135.9375 Z1.4 E7.5
G1 F1500.0 X-70.3125 Y-135.9375 Z1.4 E7.5
G1 F1500.0 X-70.3125 Y-126.5625 Z1.4 E7.5
G1 F1500.0 X-70.3125 Y-117.1875 Z1.4 E7.5
G1 F1500.0 X-60.9375 Y-117.1875 Z1.4 E7.5
G1 F1500.0 X-60.9375 Y-126.5625 Z1.4 E7.5
G1 F1500.0 X-53.90625 Y-128.90625 Z1.4 E5.92927061282
G1 F1500.0 X-49.21875 Y-128.90625 Z1.4 E3.75
G1 F1500.0 X-49.21875 Y-124.21875 Z1.4 E3.75
G1 F1500.0 X-53.90625 Y-124.21875 Z1.4 E3.75
G1 F1500.0 X-53.90625 Y-119.53125 Z1.4 E3.75
G1 F1500.0 X-53.90625 Y-114.84375 Z1.4 E3.75
G1 F1500.0 X-49.21875 Y-114.84375 Z1.4 E3.75
G1 F1500.0 X-49.21875 Y-119.53125 Z1.4 E3.75
G1 F1500.0 X-44.53125 Y-119.53125 Z1.4 E3.75
G1 F1500.0 X-44.53125 Y-114.84375 Z1.4 E3.75
G1 F1500.0 X-39.84375 Y-114.84375 Z1.4 E3.75
G1 F1500.0 X-39.84375 Y-119.53125 Z1.4 E3.75
G1 F1500.0 X-39.84375 Y-124.21875 Z1.4 E3.75
G1 F1500.0 X-44.53125 Y-124.21875 Z1.4 E3.75
G1 F1500.0 X-44.53125 Y-128.90625 Z1.4 E3.75
G1 F1500.0 X-39.84375 Y-128.90625 Z1.4 E3.75
G1 F1500.0 X-39.84375 Y-133.59375 Z1.4 E3.75
G1 F1500.0 X-39.84375 Y-138.28125 Z1.4 E3.75
G1 F1500.0 X-44.53125 Y-138.28125 Z1.4 E3.75
G1 F1500.0 X-44.53125 Y-133.59375 Z1.4 E3.75
G1 F1500.0 X-49.21875 Y-133.59375 Z1.4 E3.75
G1 F1500.0 X-53.90625 Y-133.59375 Z1.4 E3.75
G1 F1500.0 X-53.90625 Y-138.28125 Z1.4 E3.75
G1 F1500.0 X-49.21875 Y-138.28125 Z1.4 E3.75
G1 F1500.0 X-49.21875 Y-142.96875 Z1.4 E3.75
G1 F1500.0 X-53.90625 Y-142.96875 Z1.4 E3.75
G1 F1500.0 X-53.90625 Y-147.65625 Z1.4 E3.75
G1 F1500.0 X-49.21875 Y-147.65625 Z1.4 E3.75
G1 F1500.0 X-44.53125 Y-147.65625 Z1.4 E3.75
G1 F1500.0 X-44.53125 Y-142.96875 Z1.4 E3.75
G1 F1500.0 X-39.84375 Y-142.96875 Z1.4 E3.75
G1 F1500.0 X-39.84375 Y-147.65625 Z1.4 E3.75
G1 F1500.0 X-28.125 Y-140.625 Z1.4 E10.9330348028
G1 F1500.0 X-9.375 Y-140.625 Z1.4 E15.0
G1 F1500.0 X-9.375 Y-121.875 Z1.4 E15.0
G1 F1500.0 X-28.125 Y-121.875 Z1.4 E15.0
G1 F1500.0 X-28.125 Y-103.125 Z1.4 E15.0
G1 F1500.0 X-9.375 Y-103.125 Z1.4 E15.0
G1 F1500.0 X-9.375 Y-84.375 Z1.4 E15.0
G1 F1500.0 X-28.125 Y-84.375 Z1.4 E15.0
G1 F1500.0 X-42.1875 Y-79.6875 Z1.4 E11.8585412256
G1 F1500.0 X-51.5625 Y-79.6875 Z1.4 E7.5
G1 F1500.0 X-51.5625 Y-89.0625 Z1.4 E7.5
G1 F1500.0 X-42.1875 Y-89.0625 Z1.4 E7.5
G1 F1500.0 X-42.1875 Y-98.4375 Z1.4 E7.5
G1 F1500.0 X-42.1875 Y-107.8125 Z1.4 E7.5
G1 F1500.0 X-51.5625 Y-107.8125 Z1.4 E7.5
G1 F1500.0 X-51.5625 Y-98.4375 Z1.4 E7.5
G1 F1500.0 X-60.9375 Y-98.4375 Z1.4 E7.5
G1 F1500.0 X-60.9375 Y-107.8125 Z1.4 E7.5
G1 F1500.0 X-70.3125 Y-107.8125 Z1.4 E7.5
G1 F1500.0 X-70.3125 Y-98.4375 Z1.4 E7.5
G1 F1500.0 X-72.65625 Y-91.40625 Z1.4 E5.92927061282
G1 F1500.0 X-72.65625 Y-86.71875 Z1.4 E3.75
G1 F1500.0 X-67.96875 Y-86.71875 Z1.4 E3.75
G1 F1500.0 X-67.96875 Y-91.40625 Z1.4 E3.75
G1 F1500.0 X-63.28125 Y-91.40625 Z1.4 E3.75
G1 F1500.0 X-58.59375 Y-91.40625 Z1.4 E3.75
G1 F1500.0 X-58.59375 Y-86.71875 Z1.4 E3.75
G1 F1500.0 X-63.28125 Y-86.71875 Z1.4 E3.75
G1 F1500.0 X-63.28125 Y-82.03125 Z1.4 E3.75
G1 F1500.0 X-58.59375 Y-82.03125 Z1.4 E3.75
G1 F1500.0 X-58.59375 Y-77.34375 Z1.4 E3.75
G1 F1500.0 X-63.28125 Y-77.34375 Z1.4 E3.75
G1 F1500.0 X-67.96875 Y-77.34375 Z1.4 E3.75
G1 F1500.0 X-67.96875 Y-82.03125 Z1.4 E3.75
G1 F1500.0 X-72.65625 Y-82.03125 Z1.4 E3.75
G1 F1500.0 X-72.65625 Y-77.34375 Z1.4 E3.75
G1 F1500.0 X-70.3125 Y-70.3125 Z1.4 E5.92927061282
G1 F1500.0 X-60.9375 Y-70.3125 Z1.4 E7.5
G1 F1500.0 X-60.9375 Y-60.9375 Z1.4 E7.5
G1 F1500.0 X-70.3125 Y-60.9375 Z1.4 E7.5
G1 F1500.0 X-70.3125 Y-51.5625 Z1.4 E7.5
G1 F1500.0 X-70.3125 Y-42.1875 Z1.4 E7.5
G1 F1500.0 X-60.9375 Y-42.1875 Z1.4 E7.5
G1 F1500.0 X-60.9375 Y-51.5625 Z1.4 E7.5
G1 F1500.0 X-51.5625 Y-51.5625 Z1.4 E7.5
G1 F1500.0 X-51.5625 Y-42.1875 Z1.4 E7.5
G1 F1500.0 X-42.1875 Y-42.1875 Z1.4 E7.5
G1 F1500.0 X-42.1875 Y-51.5625 Z1.4 E7.5
G1 F1500.0 X-42.1875 Y-60.9375 Z1.4 E7.5
G1 F1500.0 X-51.5625 Y-60.9375 Z1.4 E7.5
G1 F1500.0 X-51.5625 Y-70.3125 Z1.4 E7.5
G1 F1500.0 X-42.1875 Y-70.3125 Z1.4 E7.5
G1 F1500.0 X-28.125 Y-65.625 Z1.4 E11.8585412256
G1 F1500.0 X-9.375 Y-65.625 Z1.4 E15.0
G1 F1500.0 X-9.375 Y-46.875 Z1.4 E15.0
G1 F1500.0 X-28.125 Y-46.875 Z1.4 E15.0
G1 F1500.0 X-28.125 Y-28.125 Z1.4 E15.0
G1 F1500.0 X-9.375 Y-28.125 Z1.4 E15.0
G1 F1500.0 X-9.375 Y-9.375 Z1.4 E15.0
G1 F1500.0 X-28.125 Y-9.375 Z1.4 E15.0
G1 F1500.0 X-46.875 Y-9.375 Z1.4 E15.0
G1 F1500.0 X-46.875 Y-28.125 Z1.4 E15.0
G1 F1500.0 X-65.625 Y-28.125 Z1.4 E15.0
G1 F1500.0 X-65.625 Y-9.375 Z1.4 E15.0
G1 F1500.0 X-84.375 Y-9.375 Z1.4 E15.0
G1 F1500.0 X-103.125 Y-9.375 Z1.4 E15.0
G1 F1500.0 X-103.125 Y-28.125 Z1.4 E15.0
G1 F1500.0 X-84.375 Y-28.125 Z1.4 E15.0
G1 F1500.0 X-79.6875 Y-42.1875 Z1.4 E11.8585412256
G1 F1500.0 X-89.0625 Y-42.1875 Z1.4 E7.5
G1 F1500.0 X-89.0625 Y-51.5625 Z1.4 E7.5
G1 F1500.0 X-79.6875 Y-51.5625 Z1.4 E7.5
G1 F1500.0 X-77.34375 Y-58.59375 Z1.4 E5.92927061282
G1 F1500.0 X-82.03125 Y-58.59375 Z1.4 E3.75
G1 F1500.0 X-82.03125 Y-63.28125 Z1.4 E3.75
G1 F1500.0 X-77.34375 Y-63.28125 Z1.4 E3.75
G1 F1500.0 X-77.34375 Y-67.96875 Z1.4 E3.75
G1 F1500.0 X-77.34375 Y-72.65625 Z1.4 E3.75
G1 F1500.0 X-82.03125 Y-72.65625 Z1.4 E3.75
G1 F1500.0 X-82.03125 Y-67.96875 Z1.4 E3.75
G1 F1500.0 X-86.71875 Y-67.96875 Z1.4 E3.75
G1 F1500.0 X-86.71875 Y-72.65625 Z1.4 E3.75
G1 F1500.0 X-91.40625 Y-72.65625 Z1.4 E3.75
G1 F1500.0 X-91.40625 Y-67.96875 Z1.4 E3.75
G1 F1500.0 X-91.40625 Y-63.28125 Z1.4 E3.75
G1 F1500.0 X-86.71875 Y-63.28125 Z1.4 E3.75
G1 F1500.0 X-86.71875 Y-58.59375 Z1.4 E3.75
G1 F1500.0 X-91.40625 Y-58.59375 Z1.4 E3.75
G1 F1500.0 X-98.4375 Y-60.9375 Z1.4 E5.92927061282
G1 F1500.0 X-98.4375 Y-70.3125 Z1.4 E7.5
G1 F1500.0 X-107.8125 Y-70.3125 Z1.4 E7.5
G1 F1500.0 X-107.8125 Y-60.9375 Z1.4 E7.5
G1 F1500.0 X-107.8125 Y-51.5625 Z1.4 E7.5
G1 F1500.0 X-98.4375 Y-51.5625 Z1.4 E7.5
G1 F1500.0 X-98.4375 Y-42.1875 Z1.4 E7.5
G1 F1500.0 X-107.8125 Y-42.1875 Z1.4 E7.5
G1 F1500.0 X-114.84375 Y-39.84375 Z1.4 E5.92927061282
G1 F1500.0 X-114.84375 Y-44.53125 Z1.4 E3.75
G1 F1500.0 X-119.53125 Y-44.53125 Z1.4 E3.75
G1 F1500.0 X-119.53125 Y-39.84375 Z1.4 E3.75
G1 F1500.0 X-124.21875 Y-39.84375 Z1.4 E3.75
G1 F1500.0 X-128.90625 Y-39.84375 Z1.4 E3.75
G1 F1500.0 X-128.90625 Y-44.53125 Z1.4 E3.75
G1 F1500.0 X-124.21875 Y-44.53125 Z1.4 E3.75
G1 F1500.0 X-124.21875 Y-49.21875 Z1.4 E3.75
G1 F1500.0 X-128.90625 Y-49.21875 Z1.4 E3.75
G1 F1500.0 X-128.90625 Y-53.90625 Z1.4 E3.75
G1 F1500.0 X-124.21875 Y-53.90625 Z1.4 E3.75
G1 F1500.0 X-119.53125 Y-53.90625 Z1.4 E3.75
G1 F1500.0 X-119.53125 Y-49.21875 Z1.4 E3.75
G1 F1500.0 X-114.84375 Y-49.21875 Z1.4 E3.75
G1 F1500.0 X-114.84375 Y-53.90625 Z1.4 E3.75
G1 F1500.0 X-117.1875 Y-60.9375 Z1.4 E5.92927061282
G1 F1500.0 X-117.1875 Y-70.3125 Z1.4 E7.5
G1 F1500.0 X-126.5625 Y-70.3125 Z1.4 E7.5
G1 F1500.0 X-126.5625 Y-60.9375 Z1.4 E7.5
G1 F1500.0 X-135.9375 Y-60.9375 Z1.4 E7.5
G1 F1500.0 X-135.9375 Y-70.3125 Z1.4 E7.5
G1 F1500.0 X-145.3125 Y-70.3125 Z1.4 E7.5
G1 F1500.0 X-145.3125 Y-60.9375 Z1.4 E7.5
G1 F1500.0 X-147.65625 Y-53.90625 Z1.4 E5.92927061282
G1 F1500.0 X-147.65625 Y-49.21875 Z1.4 E3.75
G1 F1500.0 X-142.96875 Y-49.21875 Z1.4 E3.75
G1 F1500.0 X-142.96875 Y-53.90625 Z1.4 E3.75
G1 F1500.0 X-138.28125 Y-53.90625 Z1.4 E3.75
G1 F1500.0 X-133.59375 Y-53.90625 Z1.4 E3.75
G1 F1500.0 X-133.59375 Y-49.21875 Z1.4 E3.75
G1 F1500.0 X-138.28125 Y-49.21875 Z1.4 E3.75
G1 F1500.0 X-138.28125 Y-44.53125 Z1.4 E3.75
G1 F1500.0 X-133.59375 Y-44.53125 Z1.4 E3.75
G1 F1500.0 X-133.59375 Y-39.84375 Z1.4 E3.75
G1 F1500.0 X-138.28125 Y-39.84375 Z1.4 E3.75
G1 F1500.0 X-142.96875 Y-39.84375 Z1.4 E3.75
G1 F1500.0 X-142.96875 Y-44.53125 Z1.4 E3.75
G1 F1500.0 X-147.65625 Y-44.53125 Z1.4 E3.75
G1 F1500.0 X-147.65625 Y-39.84375 Z1.4 E3.75
G1 F1500.0 X-140.625 Y-28.125 Z1.4 E10.9330348028
G1 F1500.0 X-121.875 Y-28.125 Z1.4 E15.0
G1 F1500.0 X-121.875 Y-9.375 Z1.4 E15.0
G1 F1500.0 X-140.625 Y-9.375 Z1.4 E15.0
G1 F1500.0 X-140.625 Y9.375 Z1.4 E15.0
G1 F1500.0 X-140.625 Y28.125 Z1.4 E15.0
G1 F1500.0 X-121.875 Y28.125 Z1.4 E15.0
G1 F1500.0 X-121.875 Y9.375 Z1.4 E15.0
G1 F1500.0 X-103.125 Y9.375 Z1.4 E15.0
G1 F1500.0 X-84.375 Y9.375 Z1.4 E15.0
G1 F1500.0 X-84.375 Y28.125 Z1.4 E15.0
G1 F1500.0 X-103.125 Y28.125 Z1.4 E15.0
G1 F1500.0 X-107.8125 Y42.1875 Z1.4 E11.8585412256
G1 F1500.0 X-107.8125 Y51.5625 Z1.4 E7.5
G1 F1500.0 X-98.4375 Y51.5625 Z1.4 E7.5
G1 F1500.0 X-98.4375 Y42.1875 Z1.4 E7.5
G1 F1500.0 X-89.0625 Y42.1875 Z1.4 E7.5
G1 F1500.0 X-79.6875 Y42.1875 Z1.4 E7.5
G1 F1500.0 X-79.6875 Y51.5625 Z1.4 E7.5
G1 F1500.0 X-89.0625 Y51.5625 Z1.4 E7.5
G1 F1500.0 X-91.40625 Y58.59375 Z1.4 E5.92927061282
G1 F1500.0 X-91.40625 Y63.28125 Z1.4 E3.75
G1 F1500.0 X-86.71875 Y63.28125 Z1.4 E3.75
G1 F1500.0 X-86.71875 Y58.59375 Z1.4 E3.75
G1 F1500.0 X-82.03125 Y58.59375 Z1.4 E3.75
G1 F1500.0 X-77.34375 Y58.59375 Z1.4 E3.75
G1 F1500.0 X-77.34375 Y63.28125 Z1.4 E3.75
G1 F1500.0 X-82.03125 Y63.28125 Z1.4 E3.75
G1 F1500.0 X-82.03125 Y67.96875 Z1.4 E3.75
G1 F1500.0 X-77.34375 Y67.96875 Z1.4 E3.75
G1 F1500.0 X-77.34375 Y72.65625 Z1.4 E3.75
G1 F1500.0 X-82.03125 Y72.65625 Z1.4 E3.75
G1 F1500.0 X-86.71875 Y72.65625 Z1.4 E3.75
G1 F1500.0 X-86.71875 Y67.96875 Z1.4 E3.75
G1 F1500.0 X-91.40625 Y67.96875 Z1.4 E3.75
G1 F1500.0 X-91.40625 Y72.65625 Z1.4 E3.75
G1 F1500.0 X-98.4375 Y70.3125 Z1.4 E5.92927061282
G1 F1500.0 X-98.4375 Y60.9375 Z1.4 E7.5
G1 F1500.0 X-107.8125 Y60.9375 Z1.4 E7.5
G1 F1500.0 X-107.8125 Y70.3125 Z1.4 E7.5
G1 F1500.0 X-117.1875 Y70.3125 Z1.4 E7.5
G1 F1500.0 X-126.5625 Y70.3125 Z1.4 E7.5
G1 F1500.0 X-126.5625 Y60.9375 Z1.4 E7.5
G1 F1500.0 X-117.1875 Y60.9375 Z1.4 E7.5
G1 F1500.0 X-114.84375 Y53.90625 Z1.4 E5.92927061282
G1 F1500.0 X-119.53125 Y53.90625 Z1.4 E3.75
G1 F1500.0 X-119.53125 Y49.21875 Z1.4 E3.75
G1 F1500.0 X-114.84375 Y49.21875 Z1.4 E3.75
G1 F1500.0 X-114.84375 Y44.53125 Z1.4 E3.75
G1 F1500.0 X-114.84375 Y39.84375 Z1.4 E3.75
G1 F1500.0 X-119.53125 Y39.84375 Z1.4 E3.75
G1 F1500.0 X-119.53125 Y44.53125 Z1.4 E3.75
G1 F1500.0 X-124.21875 Y44.53125 Z1.4 E3.75
G1 F1500.0 X-124.21875 Y39.84375 Z1.4 E3.75
G1 F1500.0 X-128.90625 Y39.84375 Z1.4 E3.75
G1 F1500.0 X-128.90625 Y44.53125 Z1.4 E3.75
G1 F1500.0 X-128.90625 Y49.21875 Z1.4 E3.75
G1 F1500.0 X-124.21875 Y49.21875 Z1.4 E3.75
G1 F1500.0 X-124.21875 Y53.90625 Z1.4 E3.75
G1 F1500.0 X-128.90625 Y53.90625 Z1.4 E3.75
G1 F1500.0 X-133.59375 Y53.90625 Z1.4 E3.75
G1 F1500.0 X-138.28125 Y53.90625 Z1.4 E3.75
G1 F1500.0 X-138.28125 Y49.21875 Z1.4 E3.75
G1 F1500.0 X-133.59375 Y49.21875 Z1.4 E3.75
G1 F1500.0 X-133.59375 Y44.53125 Z1.4 E3.75
G1 F1500.0 X-133.59375 Y39.84375 Z1.4 E3.75
G1 F1500.0 X-138.28125 Y39.84375 Z1.4 E3.75
G1 F1500.0 X-138.28125 Y44.53125 Z1.4 E3.75
G1 F1500.0 X-142.96875 Y44.53125 Z1.4 E3.75
G1 F1500.0 X-142.96875 Y39.84375 Z1.4 E3.75
G1 F1500.0 X-147.65625 Y39.84375 Z1.4 E3.75
G1 F1500.0 X-147.65625 Y44.53125 Z1.4 E3.75
G1 F1500.0 X-147.65625 Y49.21875 Z1.4 E3.75
G1 F1500.0 X-142.96875 Y49.21875 Z1.4 E3.75
G1 F1500.0 X-142.96875 Y53.90625 Z1.4 E3.75
G1 F1500.0 X-147.65625 Y53.90625 Z1.4 E3.75
G1 F1500.0 X-145.3125 Y60.9375 Z1.4 E5.92927061282
G1 F1500.0 X-135.9375 Y60.9375 Z1.4 E7.5
G1 F1500.0 X-135.9375 Y70.3125 Z1.4 E7.5
G1 F1500.0 X-145.3125 Y70.3125 Z1.4 E7.5
G1 F1500.0 X-131.25 Y93.75 Z1.4 E21.8660696057
G1 F1500.0 X-131.25 Y131.25 Z1.4 E30.0
G1 F1500.0 X-93.75 Y131.25 Z1.4 E30.0
G1 F1500.0 X-93.75 Y93.75 Z1.4 E30.0
G1 F1500.0 X-72.65625 Y77.34375 Z1.4 E21.3782892206
G1 F1500.0 X-67.96875 Y77.34375 Z1.4 E3.75
G1 F1500.0 X-67.96875 Y82.03125 Z1.4 E3.75
G1 F1500.0 X-72.65625 Y82.03125 Z1.4 E3.75
G1 F1500.0 X-72.65625 Y86.71875 Z1.4 E3.75
G1 F1500.0 X-72.65625 Y91.40625 Z1.4 E3.75
G1 F1500.0 X-67.96875 Y91.40625 Z1.4 E3.75
G1 F1500.0 X-67.96875 Y86.71875 Z1.4 E3.75
G1 F1500.0 X-63.28125 Y86.71875 Z1.4 E3.75
G1 F1500.0 X-63.28125 Y91.40625 Z1.4 E3.75
G1 F1500.0 X-58.59375 Y91.40625 Z1.4 E3.75
G1 F1500.0 X-58.59375 Y86.71875 Z1.4 E3.75
G1 F1500.0 X-58.59375 Y82.03125 Z1.4 E3.75
G1 F1500.0 X-63.28125 Y82.03125 Z1.4 E3.75
G1 F1500.0 X-63.28125 Y77.34375 Z1.4 E3.75
G1 F1500.0 X-58.59375 Y77.34375 Z1.4 E3.75
G1 F1500.0 X-51.5625 Y79.6875 Z1.4 E5.92927061282
G1 F1500.0 X-42.1875 Y79.6875 Z1.4 E7.5
G1 F1500.0 X-42.1875 Y89.0625 Z1.4 E7.5
G1 F1500.0 X-51.5625 Y89.0625 Z1.4 E7.5
G1 F1500.0 X-51.5625 Y98.4375 Z1.4 E7.5
G1 F1500.0 X-42.1875 Y98.4375 Z1.4 E7.5
G1 F1500.0 X-42.1875 Y107.8125 Z1.4 E7.5
G1 F1500.0 X-51.5625 Y107.8125 Z1.4 E7.5
G1 F1500.0 X-60.9375 Y107.8125 Z1.4 E7.5
G1 F1500.0 X-60.9375 Y98.4375 Z1.4 E7.5
G1 F1500.0 X-70.3125 Y98.4375 Z1.4 E7.5
G1 F1500.0 X-70.3125 Y107.8125 Z1.4 E7.5
G1 F1500.0 X-70.3125 Y117.1875 Z1.4 E7.5
G1 F1500.0 X-60.9375 Y117.1875 Z1.4 E7.5
G1 F1500.0 X-60.9375 Y126.5625 Z1.4 E7.5
G1 F1500.0 X-70.3125 Y126.5625 Z1.4 E7.5
G1 F1500.0 X-70.3125 Y135.9375 Z1.4 E7.5
G1 F1500.0 X-70.3125 Y145.3125 Z1.4 E7.5
G1 F1500.0 X-60.9375 Y145.3125 Z1.4 E7.5
G1 F1500.0 X-60.9375 Y135.9375 Z1.4 E7.5
G1 F1500.0 X-53.90625 Y133.59375 Z1.4 E5.92927061282
G1 F1500.0 X-49.21875 Y133.59375 Z1.4 E3.75
G1 F1500.0 X-49.21875 Y138.28125 Z1.4 E3.75
G1 F1500.0 X-53.90625 Y138.28125 Z1.4 E3.75
G1 F1500.0 X-53.90625 Y142.96875 Z1.4 E3.75
G1 F1500.0 X-53.90625 Y147.65625 Z1.4 E3.75
G1 F1500.0 X-49.21875 Y147.65625 Z1.4 E3.75
G1 F1500.0 X-49.21875 Y142.96875 Z1.4 E3.75
G1 F1500.0 X-44.53125 Y142.96875 Z1.4 E3.75
G1 F1500.0 X-44.53125 Y147.65625 Z1.4 E3.75
G1 F1500.0 X-39.84375 Y147.65625 Z1.4 E3.75
G1 F1500.0 X-39.84375 Y142.96875 Z1.4 E3.75
G1 F1500.0 X-39.84375 Y138.28125 Z1.4 E3.75
G1 F1500.0 X-44.53125 Y138.28125 Z1.4 E3.75
G1 F1500.0 X-44.53125 Y133.59375 Z1.4 E3.75
G1 F1500.0 X-39.84375 Y133.59375 Z1.4 E3.75
G1 F1500.0 X-39.84375 Y128.90625 Z1.4 E3.75
G1 F1500.0 X-39.84375 Y124.21875 Z1.4 E3.75
G1 F1500.0 X-44.53125 Y124.21875 Z1.4 E3.75
G1 F1500.0 X-44.53125 Y128.90625 Z1.4 E3.75
G1 F1500.0 X-49.21875 Y128.90625 Z1.4 E3.75
G1 F1500.0 X-53.90625 Y128.90625 Z1.4 E3.75
G1 F1500.0 X-53.90625 Y124.21875 Z1.4 E3.75
G1 F1500.0 X-49.21875 Y124.21875 Z1.4 E3.75
G1 F1500.0 X-49.21875 Y119.53125 Z1.4 E3.75
