;_project: : CCLegos
;_project_by: : MarieGriesmar
;_project_gcode_generator_by: : JonasWard
;brick_length : 350.0
;brick_width : 250.0
;feed_rate : 25.0
;feed_rate_variable : False
;height_body : 150.0
;height_pin : 260.0
;layer_body_count : 47
;layer_height : 3.2
;layer_pin_count : 34
;layer_total_count : 81
;library_path : /Users/jonas/Dropbox/Clay_Printing_Brick/PatternBrickLibrary
;path_length : 9694.82178726
;pattern_edge_easing : False
;pattern_periodic : True
;pattern_random_dots : True
;pattern_random_seed : 100
;pattern_split : None
;pattern_y_scale_factor : 0.5
;pin_spacing : 220.0
;print_extrusion_nozzle : 3.5
;print_extrusion_rate : 0.64
;print_spacing_cross : 1.6
;print_spacing_link : 2.2
;print_spacing_paths : 1.6
;print_spacing_start_reextrusion_rate : 40
;print_spacing_start_stop_retraction : 130
;shell_count : 1
;shell_direction : outside
;shell_spacing : 1.6
;shell_split_distance : 1.6
;shell_split_type : detached
;start_height : 1.4
/Users/jonas/Documents/HilbertAndCo/src/spacemapping_curve/gcode/GCodeDefinitions/startGcode.txt
/Users/jonas/Documents/HilbertAndCo/src/spacemapping_curve/gcode/GCodeDefinitions/endGcode.txt
;Sliced by ideaMaker 3.3.0.2343, 2020-02-08 22:55:15 UTC+0100
;Dimension: 250.000 210.000 210.000 0.400
;Plate Shape: 0
;Extruder Offset #1: 25.000 0.000
;Filament Diameter #1: 1.750
;Filament Diameter #2: 1.750
;Filament Compensation #1: 94.00
;Filament Compensation #2: 94.00
;Filament Density #1: 1240.00
;Filament Density #2: 1240.00
;Model Gap: 0.200
M221 T0 S94.00
M140 S60.00
M104 T0 S205.00
M109 T0 S205.00
T0
M190 S60.00
M115 U3.1.0 ; tell printer latest fw version
M83  ; extruder relative mode
M104 S205 ; set extruder temp
M140 S60 ; set bed temp
M190 S60 ; wait for bed temp
M109 S205 ; wait for extruder temp
G28 W ; home all without mesh bed level
G80 ; mesh bed leveling
G1 Y-3.0 F1000.0 ; go outside print area
G92 E0.0
G1 X60.0 E9.0  F1000.0 ; intro line
G1 X100.0 E12.5  F1000.0 ; intro line
G92 E0.0
M83
M1001
M106 S0
;LAYER:-2
;Z:0.500
;HEIGHT:0.500
G0 F6000 X93.481 Y70.719
G0 F1500 Z0.500
;TYPE:RAFT
;WIDTH:0.800
G1 F1500.0 X18.9336933187 Y-14.0906032422 Z-1.5
G1 X19.6112528537 Y-13.7726495066 Z-1.5 E0.598762190649
G1 F1500.0 X21.1905821307 Y-12.8872610194 Z-1.5 E1.44846263077
G1 F1500.0 X23.3876628730 Y-10.1987094374 Z-1.5 E2.77767942248
G1 F1500.0 X24.9306207947 Y-6.51817478378 Z-1.5 E3.19269711533
G1 F1500.0 X24.8613668430 Y-3.35269349358 Z-1.5 E2.53299101092
G1 F1500.0 X24.3733866055 Y-1.57715808367 Z-1.5 E1.47309756993
G1 F1500.0 X24.2266918789 Y-1.21728466189 Z-1.5 E0.310898797709
G1 F1500.0 X24.3217445700 Y-1.36546691171 Z-1.5 E0.140838615701
G1 F1500.0 X24.6079434285 Y-1.85485145155 Z-1.5 E0.453542158168
G1 F1500.0 X25.0940073756 Y-2.76782386846 Z-1.5 E0.827440117856
G1 F1500.0 X25.8130319595 Y-4.87027684092 Z-1.5 E1.77760375403
G1 F1500.0 X26.1898682803 Y-8.14192111087 Z-1.5 E2.63462019629
G1 F1500.0 X24.6081980221 Y-12.6085908241 Z-1.5 E3.79075246420
G1 F1500.0 X22.0413867899 Y-16.2482493613 Z-1.5 E3.56297710747
G1 F1500.0 X19.0487678887 Y-17.6788508183 Z-1.5 E2.65358787059
G1 F1500.0 X16.2472993061 Y-18.4747701485 Z-1.5 E2.32987056110
G1 F1500.0 X15.4010431424 Y-18.5116933786 Z-1.5 E0.677649027496
G1 F1500.0 X14.7105010274 Y-18.5324790323 Z-1.5 E0.552683898629
G1 F1500.0 X14.1849316987 Y-18.5188126903 Z-1.5 E0.42059758495
G1 F1500.0 X14.4028455852 Y-18.5023950550 Z-1.5 E0.174825171037
G1 F1500.0 X15.1425897475 Y-18.4109764024 Z-1.5 E0.596297265862
G1 F1500.0 X16.5140983487 Y-18.0132903425 Z-1.5 E1.14240169342
G1 F1500.0 X18.2985933708 Y-17.1908681794 Z-1.5 E1.57191362577
G1 F1500.0 X20.0069274880 Y-15.6356240762 Z-1.5 E1.84818867896
G1 F1500.0 X21.3535435839 Y-14.0868209417 Z-1.5 E1.64188497700
G1 F1500.0 X21.8514096862 Y-12.8206780419 Z-1.5 E1.08840830534
G1 F1500.0 X22.2053965349 Y-12.0245811562 Z-1.5 E0.697000173542
G1 F1500.0 X22.1411944478 Y-12.1836495299 Z-1.5 E0.137228931091
G1 F1500.0 X22.0106141432 Y-12.6571915254 Z-1.5 E0.392972864103
G1 F1500.0 X21.5295651053 Y-14.1039227853 Z-1.5 E1.21968901356
G1 F1500.0 X21.2676976794 Y-14.7069693497 Z-1.5 E0.525959516332
G1 F1500.0 X17.8124339725 Y-18.8806625212 Z-1.5 E4.33468334062
G1 F1500.0 X16.9110233560 Y-19.4568027894 Z-1.5 E0.855842493264
G1 F1500.0 X16.0318958354 Y-19.9771146473 Z-1.5 E0.817249876851
G1 F1500.0 X15.4864567995 Y-20.2417946112 Z-1.5 E0.48501330308
G1 F1500.0 X15.2242037020 Y-20.3590791650 Z-1.5 E0.229827557884
G1 F1500.0 X15.1844901455 Y-20.3872015931 Z-1.5 E0.0389299887097
G1 F1500.0 X15.3087027775 Y-20.3148973474 Z-1.5 E0.114979460796
G1 F1500.0 X15.4721163189 Y-20.2310286934 Z-1.5 E0.146943116432
G1 F1500.0 X15.7320912674 Y-20.0653671541 Z-1.5 E0.246616423658
G1 F1500.0 X15.8876549985 Y-19.9594963225 Z-1.5 E0.150537612434
G1 F1500.0 X16.1106167994 Y-19.7912471947 Z-1.5 E0.223456102011
G1 F1500.0 X16.1615703377 Y-19.7470092139 Z-1.5 E0.0539822905285
G1 F1500.0 X16.2630593242 Y-19.6610746212 Z-1.5 E0.106387273235
G1 F1500.0 X16.1801003388 Y-19.7359761317 Z-1.5 E0.0894156300785
G1 F1500.0 X16.1226401769 Y-19.7949643483 Z-1.5 E0.0658788216443
G1 F1500.0 X15.8904078382 Y-20.0191508410 Z-1.5 E0.258229594134
G1 F1500.0 X15.6475538787 Y-20.2526289129 Z-1.5 E0.269506281257
G1 F1500.0 X15.2444271825 Y-20.6233969721 Z-1.5 E0.438163503323
G1 F1500.0 X14.8002266148 Y-21.0064312594 Z-1.5 E0.469232162294
G1 F1500.0 X14.2205724808 Y-21.4663673019 Z-1.5 E0.591967608972
G1 F1500.0 X13.6066620018 Y-21.9065915650 Z-1.5 E0.604348761826
G1 F1500.0 X12.9229391581 Y-22.3415416080 Z-1.5 E0.648275727519
G1 F1500.0 X12.2646770114 Y-22.7168432998 Z-1.5 E0.606186988226
G1 F1500.0 X11.6477995560 Y-23.0266740437 Z-1.5 E0.552250890687
G1 F1500.0 X11.1225386744 Y-23.2680447067 Z-1.5 E0.462451755384
G1 F1500.0 X10.7470868079 Y-23.4302585088 Z-1.5 E0.327196500416
G1 F1500.0 X10.4695924305 Y-23.5401886506 Z-1.5 E0.238780589573
G1 F1500.0 X10.4024673519 Y-23.5741725171 Z-1.5 E0.0601899890676
G1 F1500.0 X10.3476741998 Y-23.5880429574 Z-1.5 E0.0452171906464
G1 F1500.0 X10.5029202268 Y-23.5195757922 Z-1.5 E0.135738764665
G1 F1500.0 X10.5030054305 Y-23.5133363122 Z-1.5 E0.00499204938239
G1 F1500.0 X10.6503199952 Y-23.4323751450 Z-1.5 E0.134476862727
G1 F1500.0 X10.4380789088 Y-23.5651505150 Z-1.5 E0.200280727201
G1 F1500.0 X10.2758749164 Y-23.6653459944 Z-1.5 E0.152523874518
G1 F1500.0 X9.52100590817 Y-24.1040872492 Z-1.5 E0.6984880166
G1 F1500.0 X8.68586071602 Y-24.5233677630 Z-1.5 E0.747588610382
G1 F1500.0 X7.02470629871 Y-25.1154250041 Z-1.5 E1.41080760416
G1 F1500.0 X5.25771424577 Y-25.4941189960 Z-1.5 E1.44569320222
G1 F1500.0 X3.02543047105 Y-25.5409486596 Z-1.5 E1.78621994046
G1 F1500.0 X1.14805050694 Y-25.2761029366 Z-1.5 E1.51677527124
G1 F1500.0 X-0.456225581173 Y-24.7904389176 Z-1.5 E1.34094207035
G1 F1500.0 X-1.52041112408 Y-24.3262849809 Z-1.5 E0.92880301348
G1 F1500.0 X-2.22450617530 Y-23.9620137594 Z-1.5 E0.634195358651
G1 F1500.0 X-2.62404317682 Y-23.7461115920 Z-1.5 E0.363312371571
G1 F1500.0 X-2.65198418919 Y-23.7084094112 Z-1.5 E0.0375416962061
G1 F1500.0 X-2.56090962493 Y-23.7776016636 Z-1.5 E0.0915017606291
G1 F1500.0 X-1.99866188661 Y-23.9728738750 Z-1.5 E0.476153760567
G1 F1500.0 X-1.35687126104 Y-24.2096800402 Z-1.5 E0.547268046621
G1 F1500.0 X-0.20804275539 Y-24.3760678768 Z-1.5 E0.928652132089
G1 F1500.0 X1.00577390833 Y-24.4602534282 Z-1.5 E0.973386040646
G1 F1500.0 X2.49485333242 Y-24.2435644939 Z-1.5 E1.20381038388
G1 F1500.0 X3.82915760637 Y-23.8711081670 Z-1.5 E1.10825025647
G1 F1500.0 X5.03742698273 Y-23.2734027147 Z-1.5 E1.07841860328
G1 F1500.0 X5.88735854422 Y-22.7061050357 Z-1.5 E0.817492875856
G1 F1500.0 X6.40860415925 Y-22.2573875982 Z-1.5 E0.550225745627
G1 F1500.0 X6.70267487851 Y-21.9594374565 Z-1.5 E0.334904762442
G1 F1500.0 X6.49295447308 Y-22.2193448681 Z-1.5 E0.267174263491
G1 F1500.0 X6.33252075502 Y-22.4084279962 Z-1.5 E0.198379687992
G1 F1500.0 X6.18654158000 Y-22.5777618961 Z-1.5 E0.178856615992
G1 F1500.0 X4.86013438031 Y-23.8876554774 Z-1.5 E1.49134618464
G1 F1500.0 X3.59220539745 Y-25.0003616815 Z-1.5 E1.34955020707
G1 F1500.0 X0.928209351148 Y-26.1032787387 Z-1.5 E2.30662364088
G1 F1500.0 X-1.69354364337 Y-26.9530728247 Z-1.5 E2.20482942693
G1 F1500.0 X-4.60566801664 Y-26.5695339522 Z-1.5 E2.34981809435
G1 F1500.0 X-7.60153755154 Y-25.8979853875 Z-1.5 E2.45617090544
G1 F1500.0 X-9.72683293876 Y-24.3361093898 Z-1.5 E2.10998951507
G1 F1500.0 X-11.8047844546 Y-22.3775066876 Z-1.5 E2.28441776179
G1 F1500.0 X-12.7726576469 Y-20.8389931600 Z-1.5 E1.45410918780
G1 F1500.0 X-13.3275175981 Y-19.7210927893 Z-1.5 E0.998421411412
G1 F1500.0 X-13.7395064651 Y-18.6521307836 Z-1.5 E0.916485319868
G1 F1500.0 X-13.8423400471 Y-18.3523438228 Z-1.5 E0.253546956546
G1 F1500.0 X-13.5328111886 Y-19.0552279567 Z-1.5 E0.614415739381
G1 F1500.0 X-12.9505659632 Y-20.0338093424 Z-1.5 E0.910957660775
G1 F1500.0 X-10.5687082556 Y-22.1656789198 Z-1.5 E2.55726279094
G1 F1500.0 X-7.35582268122 Y-23.8002437384 Z-1.5 E2.88382366843
G1 F1500.0 X-3.94412550231 Y-23.9108628883 Z-1.5 E2.73079203010
G1 F1500.0 X-2.00088447311 Y-23.5902448631 Z-1.5 E1.57561043218
G1 F1500.0 X-1.07137177086 Y-23.1557079872 Z-1.5 E0.820854641514
G1 F1500.0 X-0.790173970427 Y-23.0093443511 Z-1.5 E0.253606961362
G1 F1500.0 X-1.40619955179 Y-23.3920086766 Z-1.5 E0.580162461604
G1 F1500.0 X-2.20259762834 Y-23.8222505346 Z-1.5 E0.72414714648
G1 F1500.0 X-5.07217197503 Y-24.6732616689 Z-1.5 E2.39448391190
G1 F1500.0 X-8.22120565390 Y-25.0268721492 Z-1.5 E2.53506020220
G1 F1500.0 X-11.9566557074 Y-23.6831247723 Z-1.5 E3.17583315586
G1 F1500.0 X-14.5898861509 Y-22.3170662635 Z-1.5 E2.37318599934
G1 F1500.0 X-15.8656611827 Y-20.8029913302 Z-1.5 E1.58392420735
G1 F1500.0 X-16.4210357116 Y-20.1451411137 Z-1.5 E0.688747396206
G1 F1500.0 X-16.5615881913 Y-20.0411926076 Z-1.5 E0.139852016589
G1 F1500.0 X-16.0286142758 Y-20.4968823304 Z-1.5 E0.560978754976
G1 F1500.0 X-15.4462139472 Y-21.3237431291 Z-1.5 E0.809103770112
G1 F1500.0 X-14.4739483685 Y-21.8958093956 Z-1.5 E0.902462469086
G1 F1500.0 X-13.7574534367 Y-22.4870513997 Z-1.5 E0.743153107088
G1 F1500.0 X-13.5752586897 Y-22.5470191196 Z-1.5 E0.153447952384
G1 F1500.0 X-13.7260302522 Y-22.5137252788 Z-1.5 E0.123523067061
G1 F1500.0 X-14.5562130983 Y-22.1278247610 Z-1.5 E0.732392361525
G1 F1500.0 X-15.4489940651 Y-21.6258655994 Z-1.5 E0.81937375288
G1 F1500.0 X-16.5633514168 Y-20.8332240765 Z-1.5 E1.09400486758
G1 F1500.0 X-17.3898408475 Y-20.1592713735 Z-1.5 E0.853153031999
G1 F1500.0 X-18.1449038246 Y-19.3573105527 Z-1.5 E0.88118511384
G1 F1500.0 X-18.3639064686 Y-19.0770617094 Z-1.5 E0.284536476078
G1 F1500.0 X-18.6777975162 Y-18.7014070977 Z-1.5 E0.391627559458
G1 F1500.0 X-18.3000468917 Y-18.8695066514 Z-1.5 E0.330771698229
G1 F1500.0 X-18.3977508902 Y-18.8434275860 Z-1.5 E0.0808996968427
G1 F1500.0 X-18.1497147114 Y-18.8389072396 Z-1.5 E0.19846189284
G1 F1500.0 X-18.4288673247 Y-18.5751704072 Z-1.5 E0.307228434454
G1 F1500.0 X-19.1970402625 Y-17.9215234464 Z-1.5 E0.806907781235
G1 F1500.0 X-19.7831661974 Y-16.9357367929 Z-1.5 E0.917498839308
G1 F1500.0 X-21.1935007489 Y-15.2064039590 Z-1.5 E1.78520777011
G1 F1500.0 X-21.5833657474 Y-13.8299794084 Z-1.5 E1.14445844259
G1 F1500.0 X-22.3073629644 Y-11.5676292491 Z-1.5 E1.90029895979
G1 F1500.0 X-22.3577306651 Y-10.6055186556 Z-1.5 E0.770742478133
G1 F1500.0 X-22.3763865047 Y-8.93522135882 Z-1.5 E1.33632118296
G1 F1500.0 X-22.3622237470 Y-8.73179717097 Z-1.5 E0.163133288147
G1 F1500.0 X-22.3099514409 Y-8.00321841268 Z-1.5 E0.584361203929
G1 F1500.0 X-22.2972363839 Y-8.67572520790 Z-1.5 E0.538101588796
G1 F1500.0 X-22.3545566562 Y-9.11531161151 Z-1.5 E0.35464625291
G1 F1500.0 X-21.9152989710 Y-10.7788713498 Z-1.5 E1.37645999679
G1 F1500.0 X-21.3443022020 Y-12.6327549751 Z-1.5 E1.55186015997
G1 F1500.0 X-19.8316355055 Y-14.5144353588 Z-1.5 E1.93144614854
G1 F1500.0 X-18.1744411146 Y-16.0400872440 Z-1.5 E1.80202675659
G1 F1500.0 X-16.5764241567 Y-16.8405481425 Z-1.5 E1.42982982991
G1 F1500.0 X-15.8443036083 Y-17.1017079825 Z-1.5 E0.621844975851
G1 F1500.0 X-15.3141672659 Y-17.2184488881 Z-1.5 E0.434270316261
G1 F1500.0 X-16.0500249513 Y-17.1090134895 Z-1.5 E0.595160557681
G1 F1500.0 X-16.9365600975 Y-16.9282807195 Z-1.5 E0.723816064787
G1 F1500.0 X-19.1524057543 Y-16.0608333181 Z-1.5 E1.90367005026
G1 F1500.0 X-21.6843656826 Y-14.5679300041 Z-1.5 E2.35145318589
G1 F1500.0 X-23.9505162428 Y-11.3932916934 Z-1.5 E3.12038631102
G1 F1500.0 X-25.4541124492 Y-7.79975307245 Z-1.5 E3.11633850503
G1 F1500.0 X-25.3769466269 Y-4.82320321469 Z-1.5 E2.38203994860
G1 F1500.0 X-25.1163730318 Y-3.03448471896 Z-1.5 E1.44607882616
G1 F1500.0 X-24.8879347741 Y-2.29328294424 Z-1.5 E0.620484511806
G1 F1500.0 X-24.9341362834 Y-3.00603612401 Z-1.5 E0.57139922281
G1 F1500.0 X-25.2688481153 Y-4.68057567905 Z-1.5 E1.36613082404
G1 F1500.0 X-24.4948359179 Y-7.46073692563 Z-1.5 E2.30871620620
G1 F1500.0 X-23.4213643876 Y-10.3018348357 Z-1.5 E2.42970661092
G1 F1500.0 X-22.2879568715 Y-11.4904809346 Z-1.5 E1.31392350365
G1 F1500.0 X-21.6754903082 Y-12.0728454363 Z-1.5 E0.676112986518
G1 F1500.0 X-22.2322522984 Y-11.6709556266 Z-1.5 E0.549326472157
G1 F1500.0 X-23.1860957143 Y-10.8961573268 Z-1.5 E0.983098666066
G1 F1500.0 X-24.5747643026 Y-9.31013028537 Z-1.5 E1.68644140829
G1 F1500.0 X-26.0195372460 Y-6.97075699370 Z-1.5 E2.19964160801
G1 F1500.0 X-26.7929834401 Y-4.27723544238 Z-1.5 E2.24189596369
G1 F1500.0 X-26.7653531132 Y-0.898601924748 Z-1.5 E2.70299719647
G1 F1500.0 X-25.9839669865 Y2.07168199396 Z-1.5 E2.45707479241
G1 F1500.0 X-24.8040878165 Y4.09613564652 Z-1.5 E1.87454996361
G1 F1500.0 X-23.5906182430 Y5.58245522741 Z-1.5 E1.53501099462
G1 F1500.0 X-23.2055615857 Y5.93877630612 Z-1.5 E0.419701486652
G1 F1500.0 X-23.3829099922 Y5.77258452399 Z-1.5 E0.194438129189
G1 F1500.0 X-24.1106267029 Y4.26856182769 Z-1.5 E1.33665992848
G1 F1500.0 X-25.2422227858 Y1.69493137724 Z-1.5 E2.24913613860
G1 F1500.0 X-24.9487723442 Y-1.50221116830 Z-1.5 E2.56846520623
G1 F1500.0 X-24.1366161337 Y-4.72852986202 Z-1.5 E2.66157607728
G1 F1500.0 X-23.3018649861 Y-5.88671222016 Z-1.5 E1.14212317464
G1 F1500.0 X-22.7357163286 Y-6.54779165524 Z-1.5 E0.696298934359
G1 F1500.0 X-23.2366621721 Y-6.09514229027 Z-1.5 E0.540126317538
G1 F1500.0 X-24.1418010056 Y-5.15196300473 Z-1.5 E1.04578803894
G1 F1500.0 X-25.6312881625 Y-2.62574335402 Z-1.5 E2.34610931909
G1 F1500.0 X-26.7960689304 Y0.837859561086 Z-1.5 E2.92336894868
G1 F1500.0 X-26.3366242921 Y4.76487741006 Z-1.5 E3.16304244036
G1 F1500.0 X-25.1485463791 Y8.05670914599 Z-1.5 E2.79973545094
G1 F1500.0 X-24.0575522046 Y9.48857767952 Z-1.5 E1.44011461458
G1 F1500.0 X-23.2441396663 Y10.3538472327 Z-1.5 E0.950058981638
G1 F1500.0 X-23.5359117559 Y9.95729730737 Z-1.5 E0.393859098133
G1 F1500.0 X-24.1368381723 Y9.2732764046 Z-1.5 E0.728394246334
G1 F1500.0 X-24.8979764536 Y6.92795987501 Z-1.5 E1.97258670497
G1 F1500.0 X-25.6604271510 Y5.05290504642 Z-1.5 E1.61931574216
G1 F1500.0 X-25.3958642062 Y3.52146706125 Z-1.5 E1.24329777071
G1 F1500.0 X-25.5209798283 Y2.99585135932 Z-1.5 E0.432241254861
G1 F1500.0 X-25.6947959650 Y3.95945515827 Z-1.5 E0.783323925118
G1 F1500.0 X-25.5094505379 Y5.97641901098 Z-1.5 E1.62036955993
G1 F1500.0 X-24.8462257131 Y9.56884369102 Z-1.5 E2.92250656800
G1 F1500.0 X-23.2057447496 Y12.0732464088 Z-1.5 E2.39508974552
G1 F1500.0 X-20.8437753449 Y14.2905181539 Z-1.5 E2.59170287932
G1 F1500.0 X-19.9095991414 Y14.9026353858 Z-1.5 E0.893486719652
G1 F1500.0 X-19.3334647600 Y15.2200866326 Z-1.5 E0.526243210407
G1 F1500.0 X-20.1498844577 Y14.4237061128 Z-1.5 E0.912407998189
G1 F1500.0 X-21.7255082443 Y13.3552574720 Z-1.5 E1.52298082774
G1 F1500.0 X-22.8659745736 Y10.3274478104 Z-1.5 E2.58837954498
G1 F1500.0 X-24.0492269529 Y6.86969171468 Z-1.5 E2.92368681336
G1 F1500.0 X-23.6396312538 Y4.90596669108 Z-1.5 E1.60478975171
G1 F1500.0 X-23.3781143531 Y3.71849560033 Z-1.5 E0.972741669545
G1 F1500.0 X-23.5279746080 Y4.03352615332 Z-1.5 E0.27908690581
G1 F1500.0 X-23.9527677889 Y5.04256125222 Z-1.5 E0.875845128732
G1 F1500.0 X-24.5331292145 Y7.69810401272 Z-1.5 E2.17457699606
