;_project: : CCLegos
;_project_by: : MarieGriesmar
;_project_gcode_generator_by: : JonasWard
;brick_length : 350.0
;brick_width : 250.0
;feed_rate : 25.0
;feed_rate_variable : False
;height_body : 150.0
;height_pin : 260.0
;layer_body_count : 47
;layer_height : 3.2
;layer_pin_count : 34
;layer_total_count : 81
;library_path : /Users/jonas/Dropbox/Clay_Printing_Brick/PatternBrickLibrary
;path_length : 9694.82178726
;pattern_edge_easing : False
;pattern_periodic : True
;pattern_random_dots : True
;pattern_random_seed : 100
;pattern_split : None
;pattern_y_scale_factor : 0.5
;pin_spacing : 220.0
;print_extrusion_nozzle : 3.5
;print_extrusion_rate : 0.64
;print_spacing_cross : 1.6
;print_spacing_link : 2.2
;print_spacing_paths : 1.6
;print_spacing_start_reextrusion_rate : 40
;print_spacing_start_stop_retraction : 130
;shell_count : 1
;shell_direction : outside
;shell_spacing : 1.6
;shell_split_distance : 1.6
;shell_split_type : detached
;start_height : 1.4
/Users/jonas/Documents/HilbertAndCo/src/spacemapping_curve/gcode/GCodeDefinitions/startGcode.txt
/Users/jonas/Documents/HilbertAndCo/src/spacemapping_curve/gcode/GCodeDefinitions/endGcode.txt
;Sliced by ideaMaker 3.3.0.2343, 2020-02-08 22:55:15 UTC+0100
;Dimension: 250.000 210.000 210.000 0.400
;Plate Shape: 0
;Extruder Offset #1: 25.000 0.000
;Filament Diameter #1: 1.750
;Filament Diameter #2: 1.750
;Filament Compensation #1: 94.00
;Filament Compensation #2: 94.00
;Filament Density #1: 1240.00
;Filament Density #2: 1240.00
;Model Gap: 0.200
M221 T0 S94.00
M140 S60.00
M104 T0 S205.00
M109 T0 S205.00
T0
M190 S60.00
M115 U3.1.0 ; tell printer latest fw version
M83  ; extruder relative mode
M104 S205 ; set extruder temp
M140 S60 ; set bed temp
M190 S60 ; wait for bed temp
M109 S205 ; wait for extruder temp
G28 W ; home all without mesh bed level
G80 ; mesh bed leveling
G1 Y-3.0 F1000.0 ; go outside print area
G92 E0.0
G1 X60.0 E9.0  F1000.0 ; intro line
G1 X100.0 E12.5  F1000.0 ; intro line
G92 E0.0
M83
M1001
M106 S0
;LAYER:-2
;Z:0.500
;HEIGHT:0.500
G0 F6000 X93.481 Y70.719
G0 F1500 Z0.500
;TYPE:RAFT
;WIDTH:0.800
G1 F1500.0 X22.1911475511 Y-0.719306333492 Z1.0
G1 X23.0580615567 Y-2.02935126093 Z1.0 E1.00538227309
G1 F1500.0 X23.6150509253 Y-3.03375613684 Z1.0 E0.735043917863
G1 F1500.0 X24.4488891868 Y-4.84505877101 Z1.0 E1.27617082906
G1 F1500.0 X25.3646500536 Y-7.75376298242 Z1.0 E1.95165144740
G1 F1500.0 X25.2518086519 Y-10.7715185116 Z1.0 E1.93271328187
G1 F1500.0 X24.6962820100 Y-14.2054847324 Z1.0 E2.22631098164
G1 F1500.0 X23.5373181802 Y-16.0574384122 Z1.0 E1.39821027051
G1 F1500.0 X20.6448861947 Y-19.1060704322 Z1.0 E2.68954774365
G1 F1500.0 X18.9842120722 Y-20.2181934792 Z1.0 E1.27914470829
G1 F1500.0 X16.0834395922 Y-20.9984212996 Z1.0 E1.92247695505
G1 F1500.0 X13.3113843519 Y-21.3281161310 Z1.0 E1.78661922878
G1 F1500.0 X10.6647740971 Y-20.9588016648 Z1.0 E1.71024226964
G1 F1500.0 X9.07607420053 Y-20.5537868661 Z1.0 E1.04928860721
G1 F1500.0 X8.76668066470 Y-20.4615410664 Z1.0 E0.206625511621
G1 F1500.0 X8.47335909632 Y-20.3564971797 Z1.0 E0.199400584611
G1 F1500.0 X11.0624971787 Y-20.2141148199 Z1.0 E1.65955205471
G1 F1500.0 X12.3104131085 Y-20.2205688730 Z1.0 E0.798676876462
G1 F1500.0 X14.6537195813 Y-18.4404488678 Z1.0 E1.88337466879
G1 F1500.0 X17.9424070489 Y-15.0235386696 Z1.0 E3.03516182997
G1 F1500.0 X18.6543989362 Y-13.6062918966 Z1.0 E1.01506519277
G1 F1500.0 X18.4740669498 Y-14.1231456044 Z1.0 E0.350342208541
G1 F1500.0 X18.6465997459 Y-12.8002613115 Z1.0 E0.853816230397
G1 F1500.0 X18.7546295691 Y-13.2892719450 Z1.0 E0.320512768333
G1 F1500.0 X18.6895885993 Y-14.7264569967 Z1.0 E0.920739865383
G1 F1500.0 X18.4748678572 Y-16.3599469905 Z1.0 E1.05442686350
G1 F1500.0 X17.1798037185 Y-20.1834390697 Z1.0 E2.58359389924
G1 F1500.0 X15.6609161338 Y-22.6537688092 Z1.0 E1.85595018050
G1 F1500.0 X14.5491076272 Y-23.7964532773 Z1.0 E1.02036272997
G1 F1500.0 X14.0160046146 Y-24.2737085934 Z1.0 E0.457933957583
G1 F1500.0 X10.7823283929 Y-25.5916521638 Z1.0 E2.23484088504
G1 F1500.0 X6.87045068909 Y-26.8034252293 Z1.0 E2.62096848354
G1 F1500.0 X4.15238748962 Y-26.3080226303 Z1.0 E1.76821834425
G1 F1500.0 X1.82028892620 Y-25.8085380584 Z1.0 E1.52639242559
G1 F1500.0 X-0.501160398887 Y-24.5015031928 Z1.0 E1.70502860029
G1 F1500.0 X-1.73685245505 Y-23.6562785434 Z1.0 E0.958150659376
G1 F1500.0 X-2.74880515114 Y-22.8655901748 Z1.0 E0.821904624139
G1 F1500.0 X-3.34691233266 Y-22.2965212584 Z1.0 E0.528367050959
G1 F1500.0 X-3.33935665864 Y-22.3421388482 Z1.0 E0.029593012524
G1 F1500.0 X-3.24770952355 Y-22.2948500333 Z1.0 E0.0660020596464
G1 F1500.0 X-2.34773921586 Y-22.8074570372 Z1.0 E0.662859742361
G1 F1500.0 X-1.48130701810 Y-22.9573028421 Z1.0 E0.562748371121
G1 F1500.0 X-0.0452804313987 Y-23.2809217912 Z1.0 E0.942105560945
G1 F1500.0 X0.792973578513 Y-23.1539433039 Z1.0 E0.542602750115
G1 F1500.0 X1.85564970351 Y-23.0953379515 Z1.0 E0.681146180256
G1 F1500.0 X1.90760963198 Y-23.0142523857 Z1.0 E0.0616353665432
G1 F1500.0 X2.11880343454 Y-22.9953516876 Z1.0 E0.135704237278
G1 F1500.0 X1.43122602337 Y-23.2195003778 Z1.0 E0.46284228832
G1 F1500.0 X0.797983486151 Y-23.4404463946 Z1.0 E0.429235959048
G1 F1500.0 X-0.468500801085 Y-23.7970077605 Z1.0 E0.842060639248
G1 F1500.0 X-1.86870895379 Y-24.0672548404 Z1.0 E0.91267149569
G1 F1500.0 X-3.55023364458 Y-24.2023668918 Z1.0 E1.07964425352
G1 F1500.0 X-5.51417815542 Y-24.1236995475 Z1.0 E1.25793242918
G1 F1500.0 X-7.31180178469 Y-23.7648977018 Z1.0 E1.17317245526
G1 F1500.0 X-9.36479661832 Y-23.0661988048 Z1.0 E1.38792494986
G1 F1500.0 X-10.8987515752 Y-22.2412326653 Z1.0 E1.11470050283
G1 F1500.0 X-12.5017922463 Y-21.1183308444 Z1.0 E1.25261062457
G1 F1500.0 X-13.5361971246 Y-20.1613297715 Z1.0 E0.901887969491
G1 F1500.0 X-14.5196250698 Y-19.0885748832 Z1.0 E0.931399802389
G1 F1500.0 X-15.0776725450 Y-18.3801208503 Z1.0 E0.577180692594
G1 F1500.0 X-15.5667810689 Y-17.6846649130 Z1.0 E0.544145339198
G1 F1500.0 X-15.7468814604 Y-17.4557691038 Z1.0 E0.186403164298
G1 F1500.0 X-15.8675315584 Y-17.2313966872 Z1.0 E0.163042342618
G1 F1500.0 X-15.6617634740 Y-17.5166257963 Z1.0 E0.22509096545
G1 F1500.0 X-15.5018801279 Y-17.6333846292 Z1.0 E0.126705953835
G1 F1500.0 X-14.9346210043 Y-18.1421604622 Z1.0 E0.487676540268
G1 F1500.0 X-14.7486955985 Y-18.2829073144 Z1.0 E0.149242089685
G1 F1500.0 X-14.2567017566 Y-18.5668131710 Z1.0 E0.363540549213
G1 F1500.0 X-14.4931339670 Y-18.4801840019 Z1.0 E0.161153986433
G1 F1500.0 X-14.6121287343 Y-18.4154512226 Z1.0 E0.0866959963319
G1 F1500.0 X-15.5434021904 Y-17.9691231318 Z1.0 E0.660931013336
G1 F1500.0 X-16.4707448196 Y-17.4423721706 Z1.0 E0.682562603517
G1 F1500.0 X-17.9039571691 Y-16.4304422473 Z1.0 E1.12284891308
G1 F1500.0 X-19.2406958537 Y-15.1320562603 Z1.0 E1.19264759551
G1 F1500.0 X-20.4346297920 Y-13.6875503413 Z1.0 E1.19939408259
G1 F1500.0 X-21.1518864500 Y-12.3604988671 Z1.0 E0.965429494903
G1 F1500.0 X-21.5566566755 Y-11.3920028870 Z1.0 E0.671793766125
G1 F1500.0 X-21.5640309939 Y-11.4505598997 Z1.0 E0.0377724958566
G1 F1500.0 X-21.2540121566 Y-11.4063375894 Z1.0 E0.200420465251
G1 F1500.0 X-20.4864249869 Y-12.7339758171 Z1.0 E0.981479871751
G1 F1500.0 X-20.1167412418 Y-12.7694887825 Z1.0 E0.237686765182
G1 F1500.0 X-19.1675130418 Y-13.6343073867 Z1.0 E0.821832119919
G1 F1500.0 X-20.3256843134 Y-12.8711694456 Z1.0 E0.887673358034
G1 F1500.0 X-20.9710825684 Y-12.3887235940 Z1.0 E0.515703766538
G1 F1500.0 X-21.0771118463 Y-12.3148578053 Z1.0 E0.0827021722126
G1 F1500.0 X-22.7419080832 Y-10.9694379451 Z1.0 E1.36991414876
G1 F1500.0 X-24.2549307764 Y-9.33277567322 Z1.0 E1.42648248326
G1 F1500.0 X-25.9174662297 Y-5.83437448086 Z1.0 E2.47894357154
G1 F1500.0 X-26.3769123451 Y-1.54448284247 Z1.0 E2.76123184584
G1 F1500.0 X-25.1659826035 Y3.01232549310 Z1.0 E3.01757475595
G1 F1500.0 X-23.5845644365 Y5.34515734818 Z1.0 E1.80373164215
G1 F1500.0 X-21.3834768082 Y7.44216774439 Z1.0 E1.94566729877
G1 F1500.0 X-21.0292176039 Y7.72377009954 Z1.0 E0.289630562967
G1 F1500.0 X-20.7585994445 Y7.93738296977 Z1.0 E0.220651216214
G1 F1500.0 X-20.0204038439 Y8.41656125101 Z1.0 E0.563252568428
G1 F1500.0 X-21.2016147249 Y7.14457082784 Z1.0 E1.11095203003
G1 F1500.0 X-22.1193766192 Y5.04594904058 Z1.0 E1.46593537482
G1 F1500.0 X-22.6768584564 Y1.01522977333 Z1.0 E2.60421684363
G1 F1500.0 X-22.1576033097 Y-1.46702649967 Z1.0 E1.62303067661
G1 F1500.0 X-21.1691650708 Y-3.26329897476 Z1.0 E1.31217246972
G1 F1500.0 X-21.5808467718 Y-2.86442168793 Z1.0 E0.366862890367
G1 F1500.0 X-21.6623653471 Y-2.76884540281 Z1.0 E0.0803960867165
G1 F1500.0 X-21.6587868822 Y-2.77404197487 Z1.0 E0.00403807908793
G1 F1500.0 X-23.5242348827 Y-0.56314516564 Z1.0 E1.85135539605
G1 F1500.0 X-24.5608529229 Y1.13113892040 Z1.0 E1.27119781909
G1 F1500.0 X-25.7219880832 Y5.31032875974 Z1.0 E2.77599677776
G1 F1500.0 X-25.6717514370 Y9.18650274411 Z1.0 E2.48095968860
G1 F1500.0 X-23.4409239404 Y13.5963944495 Z1.0 E3.16290409851
G1 F1500.0 X-20.6193992250 Y16.4330909318 Z1.0 E2.56062781522
G1 F1500.0 X-17.0735191273 Y17.9785986589 Z1.0 E2.47555605364
G1 F1500.0 X-15.0808509358 Y18.4086639292 Z1.0 E1.30467145930
G1 F1500.0 X-12.6596623090 Y18.5244680130 Z1.0 E1.55133213870
G1 F1500.0 X-12.7464621276 Y18.5206663068 Z1.0 E0.0556051413452
G1 F1500.0 X-12.5525826808 Y18.5312187691 Z1.0 E0.124266501711
G1 F1500.0 X-11.7569817693 Y18.5339268015 Z1.0 E0.50918753299
G1 F1500.0 X-14.1424037941 Y17.7736660172 Z1.0 E1.60233234122
G1 F1500.0 X-16.7928477765 Y16.1041895205 Z1.0 E2.00474369423
G1 F1500.0 X-19.0632403291 Y12.2715598992 Z1.0 E2.8509634672
G1 F1500.0 X-19.8387422556 Y9.82043643199 Z1.0 E1.64536139706
G1 F1500.0 X-19.7147979448 Y8.37765182125 Z1.0 E0.926783119431
G1 F1500.0 X-19.9180408563 Y9.04985819577 Z1.0 E0.449446392452
G1 F1500.0 X-19.9866994198 Y9.32218226653 Z1.0 E0.179741351278
G1 F1500.0 X-20.0644722947 Y9.67814804339 Z1.0 E0.233192195819
G1 F1500.0 X-20.5020414565 Y12.9080134471 Z1.0 E2.08599724182
G1 F1500.0 X-20.4248709792 Y15.1545633705 Z1.0 E1.43863997516
G1 F1500.0 X-18.9260339087 Y19.2119733346 Z1.0 E2.76825622348
G1 F1500.0 X-16.6261741874 Y22.3681480817 Z1.0 E2.49934493998
G1 F1500.0 X-12.5687417164 Y24.5517777973 Z1.0 E2.94893478527
G1 F1500.0 X-8.76275043545 Y25.2448551442 Z1.0 E2.47589240956
G1 F1500.0 X-4.98733598403 Y24.6073946314 Z1.0 E2.45046549291
G1 F1500.0 X-3.26013561883 Y23.9354080060 Z1.0 E1.18612343661
G1 F1500.0 X-1.90368545552 Y23.1708598454 Z1.0 E0.996529722183
G1 F1500.0 X-0.748611112271 Y22.4504320333 Z1.0 E0.871249696057
G1 F1500.0 X-0.686372130975 Y22.4007453912 Z1.0 E0.0509692929839
G1 F1500.0 X-0.0989183360892 Y22.0544731931 Z1.0 E0.436424815884
G1 F1500.0 X-1.85228203587 Y22.6017632486 Z1.0 E1.17554789346
G1 F1500.0 X-3.65770217437 Y23.0496426652 Z1.0 E1.19049252945
G1 F1500.0 X-7.14302380340 Y21.9653057009 Z1.0 E2.3360660602
G1 F1500.0 X-9.56418084839 Y21.2144369600 Z1.0 E1.62234701958
G1 F1500.0 X-10.5585512774 Y19.9640137554 Z1.0 E1.02246499763
G1 F1500.0 X-10.8857758349 Y19.9555839948 Z1.0 E0.209493197234
G1 F1500.0 X-10.7362150958 Y20.1663804744 Z1.0 E0.165416874839
G1 F1500.0 X-9.93190996063 Y21.5431297330 Z1.0 E1.02046294556
G1 F1500.0 X-8.95601306644 Y22.8092058448 Z1.0 E1.02306426625
G1 F1500.0 X-6.87935063551 Y24.7842558124 Z1.0 E1.83417225013
G1 F1500.0 X-4.52256099149 Y26.0802616211 Z1.0 E1.72136069502
G1 F1500.0 X-0.902216765675 Y27.1878142699 Z1.0 E2.42302049086
G1 F1500.0 X1.40459747716 Y27.1971047443 Z1.0 E1.47637308865
G1 F1500.0 X4.64471970016 Y26.5713034356 Z1.0 E2.11200187132
G1 F1500.0 X5.93022443893 Y26.0888255537 Z1.0 E0.878761564037
G1 F1500.0 X7.88249583233 Y25.0155265430 Z1.0 E1.42582669135
G1 F1500.0 X8.63436418144 Y24.5292770337 Z1.0 E0.573057229294
G1 F1500.0 X9.79708274161 Y23.6408788193 Z1.0 E0.936494274979
G1 F1500.0 X10.3787500315 Y23.1483690303 Z1.0 E0.487788640195
G1 F1500.0 X10.9855721149 Y22.5995077467 Z1.0 E0.523659932241
G1 F1500.0 X11.4074217428 Y22.2104876603 Z1.0 E0.367258375444
G1 F1500.0 X11.3136540441 Y22.1855681110 Z1.0 E0.0620943991768
G1 F1500.0 X11.3556275674 Y22.2277818462 Z1.0 E0.0380989591828
G1 F1500.0 X10.0781698356 Y22.6157615314 Z1.0 E0.854448296464
G1 F1500.0 X9.28223093068 Y23.2821769446 Z1.0 E0.664376797041
G1 F1500.0 X7.56420508616 Y23.1193838981 Z1.0 E1.10446170119
G1 F1500.0 X6.27649054377 Y23.6512611763 Z1.0 E0.891670036289
G1 F1500.0 X5.92614709288 Y23.3467304257 Z1.0 E0.297086532774
G1 F1500.0 X5.82567303892 Y23.5749722181 Z1.0 E0.159601874318
G1 F1500.0 X7.14947821728 Y23.8484720436 Z1.0 E0.865128106156
G1 F1500.0 X8.41707064862 Y24.0035759824 Z1.0 E0.817309770188
G1 F1500.0 X11.6968027266 Y24.0880646097 Z1.0 E2.09972489354
G1 F1500.0 X13.6656909323 Y23.6243933433 Z1.0 E1.29455908996
G1 F1500.0 X16.7760330460 Y22.1922317887 Z1.0 E2.19150380671
G1 F1500.0 X17.7235453580 Y21.6248866420 Z1.0 E0.706804623451
G1 F1500.0 X18.9648363836 Y20.6158092170 Z1.0 E1.02380811397
G1 F1500.0 X18.7059965439 Y20.7364609646 Z1.0 E0.182770046314
G1 F1500.0 X19.1555891964 Y20.6205570946 Z1.0 E0.297147017126
G1 F1500.0 X18.9052120801 Y20.7216598332 Z1.0 E0.172812401412
G1 F1500.0 X19.8058794986 Y20.2992626693 Z1.0 E0.636670109418
G1 F1500.0 X20.7943151706 Y19.6629492427 Z1.0 E0.752347114358
G1 F1500.0 X22.8133671515 Y17.3776643978 Z1.0 E1.95164300724
G1 F1500.0 X24.6131683128 Y14.3089923400 Z1.0 E2.27682034394
G1 F1500.0 X25.0461739655 Y9.74867175813 Z1.0 E2.93173219307
G1 F1500.0 X24.5645484361 Y6.55344740282 Z1.0 E2.06804409579
G1 F1500.0 X23.3687877674 Y4.03797612891 Z1.0 E1.78253951990
G1 F1500.0 X22.5640587541 Y2.74596896718 Z1.0 E0.974161424344
G1 F1500.0 X22.4118373450 Y2.54591120762 Z1.0 E0.16088645899
G1 F1500.0 X22.4854414892 Y2.87309087155 Z1.0 E0.214628274938
G1 F1500.0 X23.0445956373 Y5.61753988166 Z1.0 E1.79253177600
G1 F1500.0 X23.3095055695 Y6.62053846314 Z1.0 E0.663931270204
G1 F1500.0 X22.5988293693 Y8.72042206493 Z1.0 E1.41880534618
G1 F1500.0 X20.5089080762 Y12.4237445861 Z1.0 E2.72149558564
G1 F1500.0 X19.1924206458 Y13.8524176292 Z1.0 E1.24335477125
G1 F1500.0 X18.8488618079 Y13.8806381912 Z1.0 E0.220618197866
G1 F1500.0 X17.7002187483 Y14.4883103595 Z1.0 E0.831666725253
G1 F1500.0 X18.6939724167 Y14.1667413482 Z1.0 E0.668471646138
G1 F1500.0 X19.8682263465 Y13.8099792246 Z1.0 E0.78544233157
G1 F1500.0 X21.8121055189 Y12.9917376706 Z1.0 E1.34980619777
G1 F1500.0 X24.7312375179 Y11.2176054512 Z1.0 E2.18622320926
G1 F1500.0 X26.7921017911 Y8.60080283956 Z1.0 E2.13176856907
G1 F1500.0 X28.3935229210 Y5.98442444587 Z1.0 E1.96324478219
G1 F1500.0 X28.8630431852 Y3.39169527863 Z1.0 E1.68633549030
G1 F1500.0 X28.7166394010 Y-0.340206915435 Z1.0 E2.39025460798
G1 F1500.0 X28.2143178193 Y-2.19234124836 Z1.0 E1.22818794068
G1 F1500.0 X26.7506916282 Y-4.62529915440 Z1.0 E1.81713636901
G1 F1500.0 X25.1852330759 Y-6.64799556257 Z1.0 E1.63694450832
G1 F1500.0 X22.9013593467 Y-8.36351765869 Z1.0 E1.82810432522
G1 F1500.0 X21.2467177186 Y-9.31425605909 Z1.0 E1.22133439182
G1 F1500.0 X20.4242160292 Y-9.73446249815 Z1.0 E0.591119771265
G1 F1500.0 X18.9134480635 Y-10.4118306571 Z1.0 E1.05962963500
G1 F1500.0 X19.1034204340 Y-10.3205218886 Z1.0 E0.134897050796
G1 F1500.0 X19.6874555967 Y-9.99468674841 Z1.0 E0.428018683926
G1 F1500.0 X19.6784054242 Y-9.98972192833 Z1.0 E0.00660643265922
G1 F1500.0 X19.9632443718 Y-9.79772602736 Z1.0 E0.21984316927
G1 F1500.0 X22.6922123962 Y-5.34448818421 Z1.0 E3.34265044636
G1 F1500.0 X22.7098294822 Y-4.64668675399 Z1.0 E0.446735219334
G1 F1500.0 X22.7949318081 Y-2.88940369694 Z1.0 E1.12597922113
G1 F1500.0 X22.6109229846 Y-1.89161704224 Z1.0 E0.649351662616
G1 F1500.0 X22.3135294473 Y-0.875254455364 Z1.0 E0.677746348961
G1 F1500.0 X22.5336381959 Y-1.33167764923 Z1.0 E0.324303853173
G1 F1500.0 X22.4448170694 Y-1.14816619730 Z1.0 E0.130480988656
G1 F1500.0 X22.1911475511 Y-0.719306333492 Z1.0 E0.318890240341
G1 F1500.0 X12.9982184058 Y-2.88959908007 Z1.0 E6.04520966325
G1 F1500.0 X12.8628349533 Y-3.42420831064 Z1.0 E0.352950401974
G1 F1500.0 X12.8631260910 Y-3.71733277113 Z1.0 E0.18759974725
G1 F1500.0 X12.9815898711 Y-4.42725613897 Z1.0 E0.460633238891
