;_project: : CCLegos
;_project_by: : MarieGriesmar
;_project_gcode_generator_by: : JonasWard
;brick_length : 350.0
;brick_width : 250.0
;feed_rate : 25.0
;feed_rate_variable : False
;height_body : 150.0
;height_pin : 260.0
;layer_body_count : 47
;layer_height : 3.2
;layer_pin_count : 34
;layer_total_count : 81
;library_path : /Users/jonas/Dropbox/Clay_Printing_Brick/PatternBrickLibrary
;path_length : 9694.82178726
;pattern_edge_easing : False
;pattern_periodic : True
;pattern_random_dots : True
;pattern_random_seed : 100
;pattern_split : None
;pattern_y_scale_factor : 0.5
;pin_spacing : 220.0
;print_extrusion_nozzle : 3.5
;print_extrusion_rate : 0.64
;print_spacing_cross : 1.6
;print_spacing_link : 2.2
;print_spacing_paths : 1.6
;print_spacing_start_reextrusion_rate : 40
;print_spacing_start_stop_retraction : 130
;shell_count : 1
;shell_direction : outside
;shell_spacing : 1.6
;shell_split_distance : 1.6
;shell_split_type : detached
;start_height : 1.4
/Users/jonas/Documents/HilbertAndCo/src/spacemapping_curve/gcode/GCodeDefinitions/startGcode.txt
/Users/jonas/Documents/HilbertAndCo/src/spacemapping_curve/gcode/GCodeDefinitions/endGcode.txt
;Sliced by ideaMaker 3.3.0.2343, 2020-02-08 22:55:15 UTC+0100
;Dimension: 250.000 210.000 210.000 0.400
;Plate Shape: 0
;Extruder Offset #1: 25.000 0.000
;Filament Diameter #1: 1.750
;Filament Diameter #2: 1.750
;Filament Compensation #1: 94.00
;Filament Compensation #2: 94.00
;Filament Density #1: 1240.00
;Filament Density #2: 1240.00
;Model Gap: 0.200
M221 T0 S94.00
M140 S60.00
M104 T0 S205.00
M109 T0 S205.00
T0
M190 S60.00
M115 U3.1.0 ; tell printer latest fw version
M83  ; extruder relative mode
M104 S205 ; set extruder temp
M140 S60 ; set bed temp
M190 S60 ; wait for bed temp
M109 S205 ; wait for extruder temp
G28 W ; home all without mesh bed level
G80 ; mesh bed leveling
G1 Y-3.0 F1000.0 ; go outside print area
G92 E0.0
G1 X60.0 E9.0  F1000.0 ; intro line
G1 X100.0 E12.5  F1000.0 ; intro line
G92 E0.0
M83
M1001
M106 S0
;LAYER:-2
;Z:0.500
;HEIGHT:0.500
G0 F6000 X93.481 Y70.719
G0 F1500 Z0.500
;TYPE:RAFT
;WIDTH:0.800
G1 F1500.0 X-13.9323260605 Y38.5317541775 Z3.5
G1 X-13.6958491350 Y39.1701868914 Z3.5 E0.435725643277
G1 F1500.0 X-13.2961529451 Y40.3445005255 Z3.5 E0.793901763383
G1 F1500.0 X-12.5860624175 Y41.9604255694 Z3.5 E1.12963939735
G1 F1500.0 X-9.90827023038 Y45.1646326933 Z3.5 E2.67252798924
G1 F1500.0 X-6.86122910270 Y47.6105150298 Z3.5 E2.50065617299
G1 F1500.0 X-1.29849289563 Y47.8565821987 Z3.5 E3.56363259369
G1 F1500.0 X2.96731058197 Y47.2810537460 Z3.5 E2.75484967320
G1 F1500.0 X5.19490217957 Y45.6847669174 Z3.5 E1.75391482895
G1 F1500.0 X6.80474038203 Y44.2264283515 Z3.5 E1.39018996409
G1 F1500.0 X6.98702102544 Y44.0144121152 Z3.5 E0.178945095741
G1 F1500.0 X7.06316361355 Y43.9130215502 Z3.5 E0.0811507391506
G1 F1500.0 X3.44688918416 Y45.0985733348 Z3.5 E2.43561615640
G1 F1500.0 X-0.594359759637 Y45.7126062766 Z3.5 E2.61608401905
G1 F1500.0 X-3.93032381547 Y43.9419904740 Z3.5 E2.41711118305
G1 F1500.0 X-5.23538278072 Y43.2652874776 Z3.5 E0.940844809422
G1 F1500.0 X-5.06461816538 Y43.4645178872 Z3.5 E0.167935451177
G1 F1500.0 X-4.175653969 Y44.5981866248 Z3.5 E0.922013718064
G1 F1500.0 X-2.24717013518 Y46.5314692654 Z3.5 E1.74763735659
G1 F1500.0 X-0.144956158622 Y47.8239087843 Z3.5 E1.57934877691
G1 F1500.0 X3.60776721291 Y49.0921487090 Z3.5 E2.53518898504
G1 F1500.0 X5.95915772932 Y49.2991913910 Z3.5 E1.51071237893
G1 F1500.0 X9.51172772030 Y48.5368361397 Z3.5 E2.32540625333
G1 F1500.0 X11.2675959635 Y47.9458926911 Z3.5 E1.18569175516
G1 F1500.0 X13.6501099653 Y46.2143156299 Z3.5 E1.88498548088
G1 F1500.0 X15.0117753391 Y45.1149098934 Z3.5 E1.12005953007
G1 F1500.0 X16.2366088831 Y43.6051258711 Z3.5 E1.24424707591
G1 F1500.0 X17.1663098525 Y42.2255084294 Z3.5 E1.06472770111
G1 F1500.0 X17.5001732263 Y41.7924327376 Z3.5 E0.349969010401
G1 F1500.0 X18.0457878284 Y40.7311432644 Z3.5 E0.763729631562
G1 F1500.0 X17.3355008748 Y41.7267511364 Z3.5 E0.782723556111
G1 F1500.0 X17.3699150805 Y41.7340348001 Z3.5 E0.0225129887247
G1 F1500.0 X14.5160796249 Y42.9718671975 Z3.5 E1.99086357063
G1 F1500.0 X12.6428062064 Y44.1676982671 Z3.5 E1.42235090095
G1 F1500.0 X11.3781429599 Y43.6077883934 Z3.5 E0.885162386555
G1 F1500.0 X10.5538271467 Y43.8480886461 Z3.5 E0.549521446278
G1 F1500.0 X11.6499035836 Y43.7616083560 Z3.5 E0.703668982839
G1 F1500.0 X12.2618534634 Y43.6459958767 Z3.5 E0.398576102822
G1 F1500.0 X15.0804092163 Y43.6113909633 Z3.5 E1.80401163294
G1 F1500.0 X16.2268990418 Y43.1431957856 Z3.5 E0.792578864161
G1 F1500.0 X19.3126770031 Y41.9532965639 Z3.5 E2.11663837655
G1 F1500.0 X20.1046716665 Y41.4102726866 Z3.5 E0.614576800655
G1 F1500.0 X21.7175846870 Y40.1211096914 Z3.5 E1.32147674230
G1 F1500.0 X21.9634403587 Y39.8979187720 Z3.5 E0.212513922883
G1 F1500.0 X22.5401300972 Y39.3797927360 Z3.5 E0.496165399496
G1 F1500.0 X22.3611649894 Y39.5090620828 Z3.5 E0.141292337525
G1 F1500.0 X22.2544083527 Y39.6115239611 Z3.5 E0.0947014381439
G1 F1500.0 X21.8316518140 Y39.8802179662 Z3.5 E0.320587977817
G1 F1500.0 X21.4460072106 Y40.0520213344 Z3.5 E0.270196871344
G1 F1500.0 X21.1812422507 Y40.1997991180 Z3.5 E0.194056989073
G1 F1500.0 X21.3066454820 Y40.0964336571 Z3.5 E0.104008150219
G1 F1500.0 X21.5881345899 Y40.0160871727 Z3.5 E0.187348099088
G1 F1500.0 X22.7233451047 Y39.5932041847 Z3.5 E0.775307351923
G1 F1500.0 X23.5761264548 Y39.1817039411 Z3.5 E0.605998721177
G1 F1500.0 X25.5433932205 Y38.1041837526 Z3.5 E1.43553987096
G1 F1500.0 X26.4900011050 Y37.3801528406 Z3.5 E0.762725151662
G1 F1500.0 X28.1523695692 Y35.7795152035 Z3.5 E1.47693222466
G1 F1500.0 X28.5892441561 Y35.2900282892 Z3.5 E0.419898944103
G1 F1500.0 X29.2867080239 Y34.4325160184 Z3.5 E0.707419518228
G1 F1500.0 X28.8632413408 Y34.7686530172 Z3.5 E0.346021735953
G1 F1500.0 X28.5286847504 Y35.3299818329 Z3.5 E0.418218405731
G1 F1500.0 X26.8081551053 Y36.1508789096 Z3.5 E1.22005123378
G1 F1500.0 X25.3483746408 Y37.0972712262 Z3.5 E1.11341928122
G1 F1500.0 X23.5503353467 Y37.1817059980 Z3.5 E1.15201325042
G1 F1500.0 X22.4727882100 Y37.3598488417 Z3.5 E0.698990966898
G1 F1500.0 X22.1976871587 Y37.2601335303 Z3.5 E0.187273811611
G1 F1500.0 X21.8289169255 Y37.2082849948 Z3.5 E0.238334277593
G1 F1500.0 X23.1385518825 Y37.5619275088 Z3.5 E0.868187009854
G1 F1500.0 X25.1916889339 Y38.0177225407 Z3.5 E1.34599788467
G1 F1500.0 X27.6491795811 Y38.1906881794 Z3.5 E1.57668483225
G1 F1500.0 X32.5340676728 Y36.5757601319 Z3.5 E3.29274397724
G1 F1500.0 X36.5649100102 Y33.5034877796 Z3.5 E3.24364144089
G1 F1500.0 X38.3054937433 Y28.2415643828 Z3.5 E3.54709395620
G1 F1500.0 X38.4409494375 Y24.5238656125 Z3.5 E2.38090600981
G1 F1500.0 X37.6552547783 Y22.0122511725 Z3.5 E1.68424888296
G1 F1500.0 X36.6768576134 Y19.8569726756 Z3.5 E1.51485261138
G1 F1500.0 X36.7148753198 Y19.9839025184 Z3.5 E0.0848006786569
G1 F1500.0 X36.6622727603 Y19.7940651404 Z3.5 E0.126073923697
G1 F1500.0 X36.5827522912 Y20.6823389020 Z3.5 E0.570768699637
G1 F1500.0 X36.8286250786 Y23.5698830873 Z3.5 E1.85471567701
G1 F1500.0 X33.9214431952 Y27.4969275959 Z3.5 E3.12706548174
G1 F1500.0 X30.6142149345 Y30.9848937664 Z3.5 E3.07624152352
G1 F1500.0 X29.3519865772 Y31.1496288296 Z3.5 E0.814677030583
G1 F1500.0 X28.2695653152 Y31.3108790041 Z3.5 E0.700394376052
G1 F1500.0 X28.9005948005 Y31.3180376936 Z3.5 E0.403884857422
G1 F1500.0 X30.8388253511 Y31.2242411361 Z3.5 E1.24191921035
G1 F1500.0 X31.9488610971 Y31.0946097877 Z3.5 E0.715250795518
G1 F1500.0 X33.7569213059 Y30.6753685056 Z3.5 E1.18785878801
G1 F1500.0 X36.7897473211 Y29.2669760579 Z3.5 E2.14008984817
G1 F1500.0 X38.9958364311 Y27.6552756144 Z3.5 E1.74854834191
G1 F1500.0 X40.7784535632 Y25.1471862048 Z3.5 E1.96931196086
G1 F1500.0 X41.7411249859 Y23.4875784240 Z3.5 E1.22790538338
G1 F1500.0 X42.1423952801 Y22.3721030461 Z3.5 E0.758691094958
G1 F1500.0 X42.0967153991 Y22.2620288473 Z3.5 E0.0762728058691
G1 F1500.0 X42.0981980375 Y22.5772160127 Z3.5 E0.201722017614
G1 F1500.0 X41.5114669723 Y23.2829084716 Z3.5 E0.587356557501
G1 F1500.0 X41.3704222299 Y23.8290883666 Z3.5 E0.361022460975
G1 F1500.0 X41.0875496947 Y24.0205862745 Z3.5 E0.218621901526
G1 F1500.0 X41.6367725422 Y23.5823664513 Z3.5 E0.44968020902
G1 F1500.0 X42.1692048210 Y23.0235160814 Z3.5 E0.494002840582
G1 F1500.0 X43.4199338244 Y21.2402540845 Z3.5 E1.39401731741
G1 F1500.0 X44.3389007660 Y19.8638020579 Z3.5 E1.05921844981
G1 F1500.0 X45.0778032143 Y16.8334581350 Z3.5 E1.99624208816
G1 F1500.0 X45.5730044096 Y14.7243604109 Z3.5 E1.38652974751
G1 F1500.0 X45.0964317251 Y11.9406607954 Z3.5 E1.80748793580
G1 F1500.0 X44.7261713601 Y9.91027287617 Z3.5 E1.32087811223
G1 F1500.0 X44.0810534585 Y8.44496617082 Z3.5 E1.02465995688
G1 F1500.0 X43.4111482785 Y7.17647106286 Z3.5 E0.918093950757
G1 F1500.0 X43.5364407366 Y7.43130433023 Z3.5 E0.181739936019
G1 F1500.0 X43.3747066566 Y6.99049838898 Z3.5 E0.300505585601
G1 F1500.0 X43.4399835965 Y9.48004732556 Z3.5 E1.59385893306
G1 F1500.0 X43.9121127509 Y9.71726440948 Z3.5 E0.338158632884
G1 F1500.0 X43.1905923252 Y10.9543887294 Z3.5 E0.916579281238
G1 F1500.0 X43.6920020096 Y11.0240444243 Z3.5 E0.323983896809
G1 F1500.0 X43.9486000208 Y10.0239058776 Z3.5 E0.660819649698
G1 F1500.0 X44.1594091772 Y9.23003294325 Z3.5 E0.525686952463
G1 F1500.0 X44.4746752804 Y6.58563656182 Z3.5 E1.70439881912
G1 F1500.0 X44.2732906354 Y5.32693900898 Z3.5 E0.815811819499
G1 F1500.0 X43.5562311134 Y2.84373777831 Z3.5 E1.65418182980
G1 F1500.0 X43.1267749316 Y2.01163043087 Z3.5 E0.599292681686
G1 F1500.0 X42.6077930217 Y1.10471857412 Z3.5 E0.668740694381
G1 F1500.0 X42.2337033293 Y1.68036367733 Z3.5 E0.439373113445
G1 F1500.0 X42.7899303967 Y2.54371530272 Z3.5 E0.657291086066
G1 F1500.0 X42.0623333307 Y0.119831550079 Z3.5 E1.61966917304
G1 F1500.0 X41.2064457737 Y-1.32796476657 Z3.5 E1.07639128003
G1 F1500.0 X41.3952165132 Y2.35662465926 Z3.5 E2.36122998762
G1 F1500.0 X42.4392965302 Y6.66059230184 Z3.5 E2.83442991259
G1 F1500.0 X40.7294654408 Y8.69880181009 Z3.5 E1.70266708927
G1 F1500.0 X39.2972986680 Y10.8768094880 Z3.5 E1.66827992480
G1 F1500.0 X40.3752355615 Y9.98115450033 Z3.5 E0.896947111588
G1 F1500.0 X40.9202042931 Y9.59449658340 Z3.5 E0.427649926676
G1 F1500.0 X43.0302054948 Y7.36122939963 Z3.5 E1.96633033671
G1 F1500.0 X44.8276045468 Y4.88687872127 Z3.5 E1.95729690572
G1 F1500.0 X44.8639644164 Y-0.00767622357681 Z3.5 E3.13260159687
G1 F1500.0 X44.4821950944 Y-5.35828032465 Z3.5 E3.43309220098
G1 F1500.0 X42.5876989311 Y-7.45225029983 Z3.5 E1.80722968026
G1 F1500.0 X40.2546531343 Y-9.75456879666 Z3.5 E2.09777250494
G1 F1500.0 X39.5552011095 Y-10.2648938228 Z3.5 E0.554132374739
G1 F1500.0 X39.0738132796 Y-10.4881899587 Z3.5 E0.339619608866
G1 F1500.0 X39.7895413299 Y-9.94612462412 Z3.5 E0.5746121837
G1 F1500.0 X40.8788185939 Y-8.48424279548 Z3.5 E1.16677168313
G1 F1500.0 X41.7606486407 Y-5.58112448594 Z3.5 E1.94181950080
G1 F1500.0 X42.1522089783 Y-2.72393833866 Z3.5 E1.84569078130
G1 F1500.0 X41.6176524227 Y-1.30378234062 Z3.5 E0.97115519261
G1 F1500.0 X41.4665967008 Y-0.506284219143 Z3.5 E0.519473884195
G1 F1500.0 X41.7461966844 Y-1.06328615456 Z3.5 E0.398873193989
G1 F1500.0 X42.6245857284 Y-2.64557571788 Z3.5 E1.15824221243
G1 F1500.0 X43.3660976290 Y-4.48081766449 Z3.5 E1.26680444756
G1 F1500.0 X43.7267992641 Y-8.71247752618 Z3.5 E2.71808315363
G1 F1500.0 X43.0138899192 Y-12.5964273515 Z3.5 E2.52725505820
G1 F1500.0 X39.3687212030 Y-16.7925641861 Z3.5 E3.55731893247
G1 F1500.0 X36.0027399709 Y-19.0027168726 Z3.5 E2.57711117815
G1 F1500.0 X32.5782997608 Y-19.5897874462 Z3.5 E2.22361482580
G1 F1500.0 X30.1054966147 Y-19.6118220258 Z3.5 E1.58265684265
G1 F1500.0 X29.4524744321 Y-19.5388405306 Z3.5 E0.420536139756
G1 F1500.0 X28.4068993605 Y-19.5735848845 Z3.5 E0.669537400277
G1 F1500.0 X30.2919943979 Y-18.9186669103 Z3.5 E1.27719706751
G1 F1500.0 X32.9031969313 Y-18.3040990519 Z3.5 E1.71683174001
G1 F1500.0 X34.6468368915 Y-14.9989783623 Z3.5 E2.39158872362
G1 F1500.0 X37.0898014434 Y-11.3045640317 Z3.5 E2.83461289078
G1 F1500.0 X36.8969789110 Y-10.3839181928 Z3.5 E0.601997924455
G1 F1500.0 X36.7642672690 Y-8.75474482033 Z3.5 E1.04612463802
G1 F1500.0 X36.7836913901 Y-8.83223038725 Z3.5 E0.051125183583
G1 F1500.0 X36.9016086606 Y-9.26925740059 Z3.5 E0.289699584597
G1 F1500.0 X36.9693353977 Y-9.40445227658 Z3.5 E0.0967746144046
G1 F1500.0 X37.3703249197 Y-10.5157383356 Z3.5 E0.756107739697
G1 F1500.0 X37.9693198538 Y-12.4189929072 Z3.5 E1.27698411025
G1 F1500.0 X38.3408871055 Y-14.3627242483 Z3.5 E1.26651355129
G1 F1500.0 X38.0714520474 Y-18.1864139530 Z3.5 E2.45322929752
G1 F1500.0 X36.7834546529 Y-21.8143897733 Z3.5 E2.46388744394
G1 F1500.0 X32.7222490177 Y-25.4781005074 Z3.5 E3.50052313662
G1 F1500.0 X28.7369741967 Y-27.2034846031 Z3.5 E2.77935175558
G1 F1500.0 X24.7990909045 Y-27.1034315828 Z3.5 E2.52105865705
G1 F1500.0 X22.3132734645 Y-26.5328909875 Z3.5 E1.63228921867
G1 F1500.0 X20.9435888245 Y-26.0336894532 Z3.5 E0.93300458763
G1 F1500.0 X19.2719536642 Y-25.3857505089 Z3.5 E1.14740219981
G1 F1500.0 X19.4965031731 Y-25.4284153960 Z3.5 E0.146282741443
G1 F1500.0 X20.4239621276 Y-25.7059879441 Z3.5 E0.619586982108
G1 F1500.0 X22.2554002717 Y-25.3719607376 Z3.5 E1.19145585005
G1 F1500.0 X25.7520007419 Y-24.6076264085 Z3.5 E2.29066557477
G1 F1500.0 X28.4420264886 Y-21.4897872990 Z3.5 E2.63546057089
G1 F1500.0 X30.3511803078 Y-18.6354961067 Z3.5 E2.19771252285
G1 F1500.0 X30.3458112317 Y-17.8153301672 Z3.5 E0.524917448448
G1 F1500.0 X30.4352463801 Y-16.9868032632 Z3.5 E0.533337569549
G1 F1500.0 X30.4593591875 Y-17.6061845349 Z3.5 E0.396704291485
G1 F1500.0 X30.5191968231 Y-18.4380905348 Z3.5 E0.533795350511
G1 F1500.0 X30.5333036941 Y-18.8423300618 Z3.5 E0.258870782772
G1 F1500.0 X30.5825394029 Y-20.3120523448 Z3.5 E0.941149920047
G1 F1500.0 X30.4428116105 Y-22.3015928436 Z3.5 E1.27644229612
G1 F1500.0 X30.1318694400 Y-24.0012435222 Z3.5 E1.10582989678
G1 F1500.0 X28.9616794260 Y-26.8113773245 Z3.5 E1.94818740120
G1 F1500.0 X28.0704407003 Y-28.5206838457 Z3.5 E1.23372932134
G1 F1500.0 X25.7699720381 Y-30.6477511694 Z3.5 E2.00521013169
G1 F1500.0 X24.4979600035 Y-31.8496727653 Z3.5 E1.12002379654
G1 F1500.0 X21.6840317782 Y-32.8004628590 Z3.5 E1.90093940060
G1 F1500.0 X19.9785402825 Y-33.5569515950 Z3.5 E1.19407200532
G1 F1500.0 X17.4740168580 Y-33.4598246151 Z3.5 E1.60409986514
G1 F1500.0 X15.2950519736 Y-33.5404542253 Z3.5 E1.39549194771
G1 F1500.0 X13.6923223157 Y-33.0793673702 Z3.5 E1.06735105505
G1 F1500.0 X11.8543140091 Y-32.4598243522 Z3.5 E1.24135388675
G1 F1500.0 X11.2639469141 Y-32.2651552543 Z3.5 E0.397846035177
G1 F1500.0 X10.3766049557 Y-31.7404534567 Z3.5 E0.659755176726
G1 F1500.0 X11.4115795931 Y-32.1891578293 Z3.5 E0.721955208805
G1 F1500.0 X12.4691630300 Y-32.2429965347 Z3.5 E0.677729882513
G1 F1500.0 X16.2844109837 Y-31.6010650653 Z3.5 E2.47607993335
G1 F1500.0 X18.9398039853 Y-30.5148114079 Z3.5 E1.83614862331
G1 F1500.0 X20.7552624332 Y-28.2791198462 Z3.5 E1.84317845933
G1 F1500.0 X21.3135498883 Y-27.8812066179 Z3.5 E0.438771145542
G1 F1500.0 X21.3130271898 Y-27.6224956997 Z3.5 E0.165575325629
G1 F1500.0 X20.9320405204 Y-28.8516790966 Z3.5 E0.823598856143
G1 F1500.0 X20.3397212603 Y-30.1463563035 Z3.5 E0.911192608428
G1 F1500.0 X18.7696951390 Y-32.1251731024 Z3.5 E1.61664278006
G1 F1500.0 X16.8953121120 Y-34.5099490975 Z3.5 E1.94126551687
G1 F1500.0 X13.6784962646 Y-35.5513543727 Z3.5 E2.16396002209
G1 F1500.0 X9.47170461102 Y-37.0161076898 Z3.5 E2.85088201479
G1 F1500.0 X7.07490348423 Y-36.4035804568 Z3.5 E1.58325254317
G1 F1500.0 X3.61448494554 Y-35.3627763517 Z3.5 E2.31267430649
G1 F1500.0 X2.47044817313 Y-34.6383931489 Z3.5 E0.866615575447
G1 F1500.0 X0.719214000898 Y-33.3329530236 Z3.5 E1.39792688331
G1 F1500.0 X0.091322120651 Y-32.7814291734 Z3.5 E0.5348603605
G1 F1500.0 X-0.598856485554 Y-32.1683606163 Z3.5 E0.590813795946
G1 F1500.0 X-0.959969495003 Y-31.6823336782 Z3.5 E0.387517114542
G1 F1500.0 X-0.857741185794 Y-31.8210313092 Z3.5 E0.110272687264
G1 F1500.0 X-1.94182946550 Y-30.9194187004 Z3.5 E0.902411958991
