;_project: : CCLegos
;_project_by: : MarieGriesmar
;_project_gcode_generator_by: : JonasWard
;brick_length : 350.0
;brick_width : 250.0
;feed_rate : 25.0
;feed_rate_variable : False
;height_body : 150.0
;height_pin : 260.0
;layer_body_count : 47
;layer_height : 3.2
;layer_pin_count : 34
;layer_total_count : 81
;library_path : /Users/jonas/Dropbox/Clay_Printing_Brick/PatternBrickLibrary
;path_length : 9694.82178726
;pattern_edge_easing : False
;pattern_periodic : True
;pattern_random_dots : True
;pattern_random_seed : 100
;pattern_split : None
;pattern_y_scale_factor : 0.5
;pin_spacing : 220.0
;print_extrusion_nozzle : 3.5
;print_extrusion_rate : 0.64
;print_spacing_cross : 1.6
;print_spacing_link : 2.2
;print_spacing_paths : 1.6
;print_spacing_start_reextrusion_rate : 40
;print_spacing_start_stop_retraction : 130
;shell_count : 1
;shell_direction : outside
;shell_spacing : 1.6
;shell_split_distance : 1.6
;shell_split_type : detached
;start_height : 1.4
/Users/jonas/Documents/HilbertAndCo/src/spacemapping_curve/gcode/GCodeDefinitions/startGcode.txt
/Users/jonas/Documents/HilbertAndCo/src/spacemapping_curve/gcode/GCodeDefinitions/endGcode.txt
;Sliced by ideaMaker 3.3.0.2343, 2020-02-08 22:55:15 UTC+0100
;Dimension: 250.000 210.000 210.000 0.400
;Plate Shape: 0
;Extruder Offset #1: 25.000 0.000
;Filament Diameter #1: 1.750
;Filament Diameter #2: 1.750
;Filament Compensation #1: 94.00
;Filament Compensation #2: 94.00
;Filament Density #1: 1240.00
;Filament Density #2: 1240.00
;Model Gap: 0.200
M221 T0 S94.00
M140 S60.00
M104 T0 S205.00
M109 T0 S205.00
T0
M190 S60.00
M115 U3.1.0 ; tell printer latest fw version
M83  ; extruder relative mode
M104 S205 ; set extruder temp
M140 S60 ; set bed temp
M190 S60 ; wait for bed temp
M109 S205 ; wait for extruder temp
G28 W ; home all without mesh bed level
G80 ; mesh bed leveling
G1 Y-3.0 F1000.0 ; go outside print area
G92 E0.0
G1 X60.0 E9.0  F1000.0 ; intro line
G1 X100.0 E12.5  F1000.0 ; intro line
G92 E0.0
M83
M1001
M106 S0
;LAYER:-2
;Z:0.500
;HEIGHT:0.500
G0 F6000 X93.481 Y70.719
G0 F1500 Z0.500
;TYPE:RAFT
;WIDTH:0.800
G1 F1500.0 X-16.3643982968 Y40.4629519121 Z3.5
G1 X-17.5123234866 Y40.2306973779 Z3.5 E0.936948036148
G1 F1500.0 X-17.3496461166 Y39.8087862037 Z3.5 E0.361749496186
G1 F1500.0 X-18.9603288925 Y38.8188364598 Z3.5 E1.51246543104
G1 F1500.0 X-18.4745779245 Y38.9979254808 Z3.5 E0.414170500421
G1 F1500.0 X-19.2708866703 Y38.0347866101 Z3.5 E0.999758083671
G1 F1500.0 X-17.7838483081 Y40.4223741462 Z3.5 E2.25024191881
G1 F1500.0 X-15.9773431601 Y42.8269975308 Z3.5 E2.40608222254
G1 F1500.0 X-14.4908594663 Y44.3666937609 Z3.5 E1.71213050963
G1 F1500.0 X-11.8513149611 Y46.1441617322 Z3.5 E2.54578397630
G1 F1500.0 X-9.44224399828 Y47.3406047823 Z3.5 E2.15185112879
G1 F1500.0 X-6.67623504547 Y47.9818795880 Z3.5 E2.27149838172
G1 F1500.0 X-4.04895463026 Y48.2523010240 Z3.5 E2.11292860392
G1 F1500.0 X-1.49490448396 Y48.0485074469 Z3.5 E2.04973426132
G1 F1500.0 X0.928134002783 Y47.5339981649 Z3.5 E1.98164946397
G1 F1500.0 X2.94160898588 Y46.8309645867 Z3.5 E1.70614657653
G1 F1500.0 X4.16134889222 Y46.3160651248 Z3.5 E1.05917307971
G1 F1500.0 X5.39204164303 Y45.5443898482 Z3.5 E1.16209118522
G1 F1500.0 X5.00231868710 Y45.7569688902 Z3.5 E0.355143987909
G1 F1500.0 X7.31926661516 Y44.8996757512 Z3.5 E1.97637230949
G1 F1500.0 X7.60065510406 Y44.7873577146 Z3.5 E0.242381283804
G1 F1500.0 X6.09123901457 Y45.1215596215 Z3.5 E1.23677719146
G1 F1500.0 X6.44719937726 Y45.3805511036 Z3.5 E0.352167567049
G1 F1500.0 X5.13720203727 Y45.2837506342 Z3.5 E1.05085515247
G1 F1500.0 X3.97519520524 Y45.2427053548 Z3.5 E0.930185217735
G1 F1500.0 X4.71636025610 Y45.3247031976 Z3.5 E0.596549694882
G1 F1500.0 X4.29443474099 Y45.2260407260 Z3.5 E0.34664603143
G1 F1500.0 X6.91550343853 Y46.1227830603 Z3.5 E2.21618019937
G1 F1500.0 X7.74385215766 Y46.3440390353 Z3.5 E0.685911157843
G1 F1500.0 X10.7698455561 Y46.9156936333 Z3.5 E2.46361360955
G1 F1500.0 X12.6196234703 Y47.0496575967 Z3.5 E1.48369801248
G1 F1500.0 X15.3585951317 Y46.8649347869 Z3.5 E2.19615493491
G1 F1500.0 X17.5223973063 Y46.4652366172 Z3.5 E1.76032696556
G1 F1500.0 X19.8543093552 Y45.6785864064 Z3.5 E1.96881809952
G1 F1500.0 X21.8356215573 Y44.7508628335 Z3.5 E1.75020347528
G1 F1500.0 X23.8794254420 Y43.4531943334 Z3.5 E1.93677304488
G1 F1500.0 X25.6801933227 Y41.9880689938 Z3.5 E1.85719913347
G1 F1500.0 X27.3561988775 Y40.2276768985 Z3.5 E1.94450609851
G1 F1500.0 X28.6955416079 Y38.4096879745 Z3.5 E1.80646353788
G1 F1500.0 X29.7515828420 Y36.5304759556 Z3.5 E1.72448919275
G1 F1500.0 X30.1653784936 Y35.7598749437 Z3.5 E0.699738356089
G1 F1500.0 X30.6861263126 Y34.2972632554 Z3.5 E1.24203993282
G1 F1500.0 X30.2488481956 Y35.1007249452 Z3.5 E0.731797934369
G1 F1500.0 X30.8711778801 Y34.2100409163 Z3.5 E0.869247868214
G1 F1500.0 X31.3351551417 Y33.5077807109 Z3.5 E0.673353064144
G1 F1500.0 X29.9604941319 Y34.8372374628 Z3.5 E1.52989372638
G1 F1500.0 X30.1087777186 Y35.0743731034 Z3.5 E0.223744617477
G1 F1500.0 X29.0584059045 Y35.5266769135 Z3.5 E0.91489354465
G1 F1500.0 X27.5439311004 Y36.1869762775 Z3.5 E1.32172715674
G1 F1500.0 X28.7193602547 Y35.8736013837 Z3.5 E0.97318858059
G1 F1500.0 X28.8805041361 Y35.8732347638 Z3.5 E0.128915438755
G1 F1500.0 X31.4945664521 Y35.3431776785 Z3.5 E2.13380895948
G1 F1500.0 X33.7594399058 Y34.5610676793 Z3.5 E1.91688878131
G1 F1500.0 X36.6676690096 Y32.9349047882 Z3.5 E2.66559739118
G1 F1500.0 X39.1075041395 Y30.7322798837 Z3.5 E2.62959792287
G1 F1500.0 X40.9998545198 Y28.0530182857 Z3.5 E2.62412593257
G1 F1500.0 X42.1971840012 Y24.9567002710 Z3.5 E2.65580518994
G1 F1500.0 X42.7256408427 Y21.4845484351 Z3.5 E2.80970945170
G1 F1500.0 X42.5746717566 Y18.8657403340 Z3.5 E2.09852482057
G1 F1500.0 X41.9538998416 Y15.9507782560 Z3.5 E2.38426329910
G1 F1500.0 X41.8153783597 Y15.5341740310 Z3.5 E0.351223945706
G1 F1500.0 X41.5884373853 Y14.4510363963 Z3.5 E0.885325464717
G1 F1500.0 X41.6252416206 Y16.1854793519 Z3.5 E1.38786671821
G1 F1500.0 X41.6027649067 Y16.8232641812 Z3.5 E0.510544613413
G1 F1500.0 X40.6738536900 Y19.0276311020 Z3.5 E1.91367450864
G1 F1500.0 X40.6039034074 Y19.3099567089 Z3.5 E0.232689720062
G1 F1500.0 X39.9790101709 Y19.9896865068 Z3.5 E0.738657877013
G1 F1500.0 X41.2481546060 Y18.9306487713 Z3.5 E1.32237084598
G1 F1500.0 X42.4759898707 Y17.7602476828 Z3.5 E1.35703633443
G1 F1500.0 X44.5182549393 Y15.2317019853 Z3.5 E2.60023259938
G1 F1500.0 X46.0054724958 Y12.0915359471 Z3.5 E2.77963552239
G1 F1500.0 X46.8262906466 Y8.58619122273 Z3.5 E2.88013156067
G1 F1500.0 X46.6608793483 Y5.23647851244 Z3.5 E2.68303543193
G1 F1500.0 X45.8777384091 Y2.00224595668 Z3.5 E2.66215791633
G1 F1500.0 X44.8620312185 Y-0.17583934744 Z3.5 E1.92261766374
G1 F1500.0 X43.2562865229 Y-2.66855699557 Z3.5 E2.37211228077
G1 F1500.0 X42.8447438698 Y-3.22832706252 Z3.5 E0.555818608187
G1 F1500.0 X41.7378121513 Y-4.75736102224 Z3.5 E1.5101242713
G1 F1500.0 X42.1778029136 Y-3.89827669664 Z3.5 E0.772162780516
G1 F1500.0 X42.0721188463 Y-4.53003791525 Z3.5 E0.512431917465
G1 F1500.0 X42.3831217401 Y-2.82586938669 Z3.5 E1.38585151844
G1 F1500.0 X42.6946431433 Y-3.02764163561 Z3.5 E0.296925714722
G1 F1500.0 X42.5511914680 Y-2.09765456340 Z3.5 E0.752788666283
G1 F1500.0 X42.9348502581 Y-3.05728910174 Z3.5 E0.826788491206
G1 F1500.0 X43.1235053863 Y-4.16470200039 Z3.5 E0.898693838138
G1 F1500.0 X43.3989948028 Y-6.42194788210 Z3.5 E1.81919602271
G1 F1500.0 X43.3147398551 Y-9.22725667898 Z3.5 E2.24525901822
G1 F1500.0 X42.6541086708 Y-12.4169038782 Z3.5 E2.60587432606
G1 F1500.0 X41.3932686039 Y-15.1765025616 Z3.5 E2.42719295547
G1 F1500.0 X39.4492723380 Y-17.9211216976 Z3.5 E2.69067196765
G1 F1500.0 X37.4274904805 Y-19.7808194527 Z3.5 E2.19760999193
G1 F1500.0 X35.1397195465 Y-21.3206549085 Z3.5 E2.20617157300
G1 F1500.0 X33.8457843482 Y-22.0283145541 Z3.5 E1.17984418535
G1 F1500.0 X32.2645162871 Y-22.7011285700 Z3.5 E1.37476395204
G1 F1500.0 X32.5491402077 Y-22.5788401565 Z3.5 E0.247826045105
G1 F1500.0 X31.7914895031 Y-22.9745336776 Z3.5 E0.683804862356
G1 F1500.0 X32.7816932531 Y-22.1165256593 Z3.5 E1.04817745859
G1 F1500.0 X32.3457012652 Y-22.7231503308 Z3.5 E0.597639359145
G1 F1500.0 X32.8448335856 Y-21.8995090463 Z3.5 E0.770461903523
G1 F1500.0 X32.3171143126 Y-23.1356824406 Z3.5 E1.07528222656
G1 F1500.0 X32.0447288213 Y-23.5424795680 Z3.5 E0.391655161622
G1 F1500.0 X30.9900944701 Y-25.4018584762 Z3.5 E1.71011925457
G1 F1500.0 X29.7640766446 Y-27.0518248178 Z3.5 E1.64448336189
G1 F1500.0 X27.8614668385 Y-28.8840929681 Z3.5 E2.11314069934
G1 F1500.0 X25.8960290934 Y-30.3040036882 Z3.5 E1.93974711476
G1 F1500.0 X23.7891129786 Y-31.3696167935 Z3.5 E1.88885180864
G1 F1500.0 X22.1980820068 Y-31.9690504256 Z3.5 E1.36016475068
G1 F1500.0 X20.7461082014 Y-32.3524716131 Z3.5 E1.20139645103
G1 F1500.0 X20.2496144244 Y-32.5294939300 Z3.5 E0.421686496864
G1 F1500.0 X19.5931315665 Y-32.5661825194 Z3.5 E0.526005806996
G1 F1500.0 X20.0216786899 Y-32.4912380127 Z3.5 E0.348040748027
G1 F1500.0 X19.6226853828 Y-32.4839712440 Z3.5 E0.319247580468
G1 F1500.0 X19.9571423826 Y-32.4089481206 Z3.5 E0.274214460607
G1 F1500.0 X19.0511244176 Y-32.9865813132 Z3.5 E0.859591961999
G1 F1500.0 X18.3584270444 Y-33.6011710988 Z3.5 E0.740832075117
G1 F1500.0 X16.3852513741 Y-34.9661627273 Z3.5 E1.91943731284
G1 F1500.0 X14.1433488610 Y-36.0445540111 Z3.5 E1.99022485391
G1 F1500.0 X10.7554427987 Y-37.0217737650 Z3.5 E2.82082154661
G1 F1500.0 X7.44821772535 Y-37.0583138604 Z3.5 E2.64594154001
G1 F1500.0 X3.91755869202 Y-36.3613469038 Z3.5 E2.87903496591
G1 F1500.0 X1.83003623790 Y-35.5001457975 Z3.5 E1.80655116141
G1 F1500.0 X-0.281327705753 Y-34.3077453450 Z3.5 E1.93984354696
G1 F1500.0 X-0.437768505529 Y-34.2182308032 Z3.5 E0.144192265045
G1 F1500.0 X-1.02706480906 Y-33.8238896201 Z3.5 E0.56725308753
G1 F1500.0 X0.218387388241 Y-34.2298537456 Z3.5 E1.04795665466
G1 F1500.0 X0.673904873638 Y-34.0853316926 Z3.5 E0.382315307191
G1 F1500.0 X2.23987350622 Y-34.0709475368 Z3.5 E1.25282775503
G1 F1500.0 X1.88461622895 Y-34.0028596882 Z3.5 E0.289378576322
G1 F1500.0 X2.34022587132 Y-33.9340095156 Z3.5 E0.368625982791
G1 F1500.0 X0.336855359586 Y-34.7703240087 Z3.5 E1.73673999688
G1 F1500.0 X-0.977560459913 Y-35.2568271990 Z3.5 E1.12124910365
G1 F1500.0 X-4.18894289563 Y-36.0029327580 Z3.5 E2.63753225920
G1 F1500.0 X-7.13000435551 Y-36.1517997664 Z3.5 E2.35586130621
G1 F1500.0 X-10.2354471005 Y-35.6494895130 Z3.5 E2.51664414433
G1 F1500.0 X-13.3576373188 Y-34.4338846977 Z3.5 E2.68039004040
G1 F1500.0 X-16.0419936955 Y-32.6665773272 Z3.5 E2.57111891585
G1 F1500.0 X-17.9973071534 Y-30.7376130913 Z3.5 E2.19732983302
G1 F1500.0 X-19.8650194113 Y-28.1660312992 Z3.5 E2.54261370929
G1 F1500.0 X-20.3781186452 Y-27.2616697142 Z3.5 E0.831823327458
G1 F1500.0 X-21.2801783210 Y-25.8103205115 Z3.5 E1.36707013240
G1 F1500.0 X-20.6879082742 Y-26.4142096063 Z3.5 E0.676681714128
G1 F1500.0 X-20.7551702627 Y-26.6429817635 Z3.5 E0.19076414753
G1 F1500.0 X-19.2352094500 Y-27.5219880333 Z3.5 E1.40466261167
G1 F1500.0 X-18.8296167028 Y-27.9708453913 Z3.5 E0.483969192006
G1 F1500.0 X-18.0016813865 Y-28.1331573351 Z3.5 E0.674956380211
G1 F1500.0 X-18.9131369783 Y-28.1257112935 Z3.5 E0.729188804872
G1 F1500.0 X-20.3301643330 Y-27.9741568249 Z3.5 E1.14008709311
G1 F1500.0 X-22.8871485353 Y-27.4563396783 Z3.5 E2.08711135235
G1 F1500.0 X-25.8704773357 Y-26.2278918118 Z3.5 E2.58108007059
G1 F1500.0 X-28.6416728432 Y-24.4448077050 Z3.5 E2.63622924312
G1 F1500.0 X-30.8350328899 Y-21.9809578932 Z3.5 E2.63895545276
G1 F1500.0 X-32.4672477409 Y-19.3887939744 Z3.5 E2.45059197439
G1 F1500.0 X-33.3366076860 Y-16.9032481376 Z3.5 E2.10655735399
G1 F1500.0 X-33.8876772518 Y-14.2268415618 Z3.5 E2.18604004719
G1 F1500.0 X-34.0427530449 Y-12.7956535186 Z3.5 E1.15165209103
G1 F1500.0 X-34.0795940525 Y-10.7370176628 Z3.5 E1.64717238375
G1 F1500.0 X-34.0838683667 Y-10.6831716654 Z3.5 E0.0432123034394
G1 F1500.0 X-34.1907131257 Y-9.60615557576 Z3.5 E0.865842280237
G1 F1500.0 X-33.9250931055 Y-10.5691719646 Z3.5 E0.799181405314
G1 F1500.0 X-34.2108185057 Y-10.1960656222 Z3.5 E0.375955186322
G1 F1500.0 X-33.5483886236 Y-11.2319309884 Z3.5 E0.983652102934
G1 F1500.0 X-34.1283298988 Y-10.8493237068 Z3.5 E0.555824556294
G1 F1500.0 X-33.8683681389 Y-11.0024767935 Z3.5 E0.241377360443
G1 F1500.0 X-35.0003056951 Y-9.93701187062 Z3.5 E1.24360717482
G1 F1500.0 X-35.8415228189 Y-8.82524695454 Z3.5 E1.11532380313
G1 F1500.0 X-37.1147391919 Y-6.76210161294 Z3.5 E1.93950899073
G1 F1500.0 X-38.1924198965 Y-4.31889562983 Z3.5 E2.13626233251
G1 F1500.0 X-38.7628658181 Y-1.65496108700 Z3.5 E2.17946133498
G1 F1500.0 X-38.9088125018 Y0.882548869162 Z3.5 E2.03336288344
G1 F1500.0 X-38.7041670790 Y3.11765474093 Z3.5 E1.79556395723
G1 F1500.0 X-38.4447539998 Y4.60336856235 Z3.5 E1.20655296241
G1 F1500.0 X-38.0245178317 Y5.90988496006 Z3.5 E1.09794966281
G1 F1500.0 X-38.0919268636 Y5.93052337301 Z3.5 E0.056398137133
G1 F1500.0 X-37.7613909562 Y6.24689850934 Z3.5 E0.366035812843
G1 F1500.0 X-37.8884444835 Y5.22571098010 Z3.5 E0.823248810471
G1 F1500.0 X-37.6595976267 Y5.46150897896 Z3.5 E0.262872233742
G1 F1500.0 X-37.6834764600 Y4.96181772705 Z3.5 E0.400209182039
G1 F1500.0 X-38.1724490472 Y6.4400068497 Z3.5 E1.24557129663
G1 F1500.0 X-38.6711090113 Y7.69346290738 Z3.5 E1.07920380972
G1 F1500.0 X-39.4201739902 Y10.6510636078 Z3.5 E2.44078679059
G1 F1500.0 X-39.6003496013 Y13.4917879185 Z3.5 E2.27714598362
G1 F1500.0 X-39.1382624286 Y16.9107283712 Z3.5 E2.76002068099
G1 F1500.0 X-37.9979841326 Y19.9405093142 Z3.5 E2.58980242085
G1 F1500.0 X-36.1011606808 Y22.8345388332 Z3.5 E2.76820184979
G1 F1500.0 X-34.3771041755 Y24.6541521870 Z3.5 E2.00533106948
G1 F1500.0 X-32.3149588652 Y26.3285091623 Z3.5 E2.12503772181
G1 F1500.0 X-31.7776369037 Y26.6411146123 Z3.5 E0.497312494201
G1 F1500.0 X-31.1085837879 Y27.3159063913 Z3.5 E0.760200401696
G1 F1500.0 X-31.7493074309 Y26.4533834674 Z3.5 E0.859571085944
G1 F1500.0 X-31.9479336079 Y26.5483742259 Z3.5 E0.176137405242
G1 F1500.0 X-32.3650158092 Y25.4475095912 Z3.5 E0.941780613695
G1 F1500.0 X-32.4068305854 Y25.9943607393 Z3.5 E0.438757995255
G1 F1500.0 X-32.3377945697 Y26.1673130974 Z3.5 E0.148977291401
G1 F1500.0 X-32.0463612190 Y27.7786454042 Z3.5 E1.30998020159
G1 F1500.0 X-31.5523369590 Y29.4947247755 Z3.5 E1.42861911018
G1 F1500.0 X-30.5265998794 Y31.9450700489 Z3.5 E2.12510005643
G1 F1500.0 X-29.1986275836 Y34.1059586626 Z3.5 E2.02906086959
G1 F1500.0 X-27.0240138747 Y36.5177768066 Z3.5 E2.59794522406
G1 F1500.0 X-24.8103333956 Y38.1734117193 Z3.5 E2.21146224604
G1 F1500.0 X-22.1688182564 Y39.4924921472 Z3.5 E2.36204323832
G1 F1500.0 X-19.9073456186 Y40.1822812758 Z3.5 E1.89146589221
G1 F1500.0 X-17.8825499025 Y40.4896529467 Z3.5 E1.63839434294
G1 F1500.0 X-17.2995560689 Y40.6147914140 Z3.5 E0.477018370168
G1 F1500.0 X-16.3643982968 Y40.4629519121 Z3.5 E0.757923602739
G1 F1500.0 X-9.40364607307 Y34.9659824355 Z3.5 E7.09563223159
G1 F1500.0 X-8.53359166657 Y36.3022559783 Z3.5 E1.27564801449
G1 F1500.0 X-7.97148242306 Y36.7839851862 Z3.5 E0.592232295732
G1 F1500.0 X-7.01107214356 Y37.6123799391 Z3.5 E1.01465289324
G1 F1500.0 X-6.19283240840 Y37.8838580541 Z3.5 E0.689680102601
G1 F1500.0 X-5.10174594500 Y38.2717600203 Z3.5 E0.926390882868
G1 F1500.0 X-4.19231209659 Y38.2534937523 Z3.5 E0.72769381745
G1 F1500.0 X-2.91656879320 Y38.2425344253 Z3.5 E1.02063230064
G1 F1500.0 X-2.10875054727 Y38.0108005167 Z3.5 E0.672319411186
G1 F1500.0 X-0.564683462107 Y37.4680178069 Z3.5 E1.30935250770
G1 F1500.0 X-0.0455295811146 Y37.2615006928 Z3.5 E0.446977454888
G1 F1500.0 X1.74114387377 Y36.3055795447 Z3.5 E1.62105886889
G1 F1500.0 X1.92471609348 Y36.2564711415 Z3.5 E0.152021882882
G1 F1500.0 X3.69755551206 Y35.5787187192 Z3.5 E1.51837975750
G1 F1500.0 X3.81759785202 Y35.5313211675 Z3.5 E0.103248643709
G1 F1500.0 X3.83013121257 Y35.5260230566 Z3.5 E0.0108857369048
G1 F1500.0 X5.75152984799 Y35.4050048251 Z3.5 E1.54016479711
G1 F1500.0 X5.77472247714 Y35.4032306617 Z3.5 E0.0186083112989
G1 F1500.0 X6.06488487880 Y35.4636266904 Z3.5 E0.237105073234
