;_project: : CCLegos
;_project_by: : MarieGriesmar
;_project_gcode_generator_by: : JonasWard
;brick_length : 350.0
;brick_width : 250.0
;feed_rate : 25.0
;feed_rate_variable : False
;height_body : 150.0
;height_pin : 260.0
;layer_body_count : 47
;layer_height : 3.2
;layer_pin_count : 34
;layer_total_count : 81
;library_path : /Users/jonas/Dropbox/Clay_Printing_Brick/PatternBrickLibrary
;path_length : 9694.82178726
;pattern_edge_easing : False
;pattern_periodic : True
;pattern_random_dots : True
;pattern_random_seed : 100
;pattern_split : None
;pattern_y_scale_factor : 0.5
;pin_spacing : 220.0
;print_extrusion_nozzle : 3.5
;print_extrusion_rate : 0.64
;print_spacing_cross : 1.6
;print_spacing_link : 2.2
;print_spacing_paths : 1.6
;print_spacing_start_reextrusion_rate : 40
;print_spacing_start_stop_retraction : 130
;shell_count : 1
;shell_direction : outside
;shell_spacing : 1.6
;shell_split_distance : 1.6
;shell_split_type : detached
;start_height : 1.4
/Users/jonas/Documents/HilbertAndCo/src/spacemapping_curve/gcode/GCodeDefinitions/startGcode.txt
/Users/jonas/Documents/HilbertAndCo/src/spacemapping_curve/gcode/GCodeDefinitions/endGcode.txt
;Sliced by ideaMaker 3.3.0.2343, 2020-02-08 22:55:15 UTC+0100
;Dimension: 250.000 210.000 210.000 0.400
;Plate Shape: 0
;Extruder Offset #1: 25.000 0.000
;Filament Diameter #1: 1.750
;Filament Diameter #2: 1.750
;Filament Compensation #1: 94.00
;Filament Compensation #2: 94.00
;Filament Density #1: 1240.00
;Filament Density #2: 1240.00
;Model Gap: 0.200
M221 T0 S94.00
M140 S60.00
M104 T0 S205.00
M109 T0 S205.00
T0
M190 S60.00
M115 U3.1.0 ; tell printer latest fw version
M83  ; extruder relative mode
M104 S205 ; set extruder temp
M140 S60 ; set bed temp
M190 S60 ; wait for bed temp
M109 S205 ; wait for extruder temp
G28 W ; home all without mesh bed level
G80 ; mesh bed leveling
G1 Y-3.0 F1000.0 ; go outside print area
G92 E0.0
G1 X60.0 E9.0  F1000.0 ; intro line
G1 X100.0 E12.5  F1000.0 ; intro line
G92 E0.0
M83
M1001
M106 S0
;LAYER:-2
;Z:0.500
;HEIGHT:0.500
G0 F6000 X93.481 Y70.719
G0 F1500 Z0.500
;TYPE:RAFT
;WIDTH:0.800
G1 F1500.0 X-10.7244468407 Y40.0954743138 Z3.5
G1 X-11.0331374863 Y40.0378842697 Z3.5 E0.251213410956
G1 F1500.0 X-13.3875686919 Y39.6702147657 Z3.5 E1.90637283502
G1 F1500.0 X-14.7185039425 Y39.1325306294 Z3.5 E1.14835335935
G1 F1500.0 X-16.8373845708 Y37.3599313309 Z3.5 E2.21005171200
G1 F1500.0 X-17.2030350241 Y37.1963424461 Z3.5 E0.320461244807
G1 F1500.0 X-17.9058691588 Y35.5502224841 Z3.5 E1.43190765070
G1 F1500.0 X-17.1819727342 Y37.7271364831 Z3.5 E1.83529495701
G1 F1500.0 X-16.7016080947 Y39.0175353769 Z3.5 E1.10152751890
G1 F1500.0 X-15.2550312862 Y41.8699257823 Z3.5 E2.55858904716
G1 F1500.0 X-12.9016681759 Y44.7890664374 Z3.5 E2.99970132841
G1 F1500.0 X-9.61910191244 Y47.007502604 Z3.5 E3.16952491572
G1 F1500.0 X-5.26457867179 Y48.3142061809 Z3.5 E3.63708427320
G1 F1500.0 X-1.35511586872 Y48.1649352504 Z3.5 E3.12984919451
G1 F1500.0 X2.33115443600 Y46.9698239942 Z3.5 E3.10012951203
G1 F1500.0 X5.03032223510 Y45.3816151144 Z3.5 E2.50540717694
G1 F1500.0 X6.39419043696 Y44.3352149478 Z3.5 E1.37522996613
G1 F1500.0 X7.82458939288 Y43.1176422934 Z3.5 E1.50274933993
G1 F1500.0 X6.99777142179 Y43.6447438537 Z3.5 E0.784434170464
G1 F1500.0 X7.62543312618 Y43.3992467691 Z3.5 E0.539171532624
G1 F1500.0 X7.23870278839 Y43.4376472552 Z3.5 E0.310905723594
G1 F1500.0 X4.47111819028 Y43.9512340173 Z3.5 E2.25186797054
G1 F1500.0 X3.51252614459 Y44.0304605112 Z3.5 E0.769488369202
G1 F1500.0 X1.43967465926 Y43.3124829383 Z3.5 E1.75493910101
G1 F1500.0 X0.488599911694 Y42.8781419738 Z3.5 E0.836447822231
G1 F1500.0 X1.76657015245 Y43.6407159151 Z3.5 E1.19055669728
G1 F1500.0 X1.92620708702 Y43.7987155414 Z3.5 E0.179684760007
G1 F1500.0 X4.37815070910 Y45.4848787797 Z3.5 E2.38061155063
G1 F1500.0 X7.16766500003 Y46.8029084657 Z3.5 E2.46817726851
G1 F1500.0 X11.1574003749 Y47.5268143455 Z3.5 E3.24390165909
G1 F1500.0 X15.6589947970 Y47.0511819022 Z3.5 E3.62132162062
G1 F1500.0 X19.2595635153 Y45.3370026757 Z3.5 E3.19023565435
G1 F1500.0 X22.1829288208 Y42.8327798912 Z3.5 E3.07944893398
G1 F1500.0 X24.0128320517 Y40.3688405576 Z3.5 E2.45530190391
G1 F1500.0 X24.9151749221 Y38.7558281715 Z3.5 E1.47860076846
G1 F1500.0 X25.7529124607 Y37.0965114273 Z3.5 E1.48703974200
G1 F1500.0 X25.3853019903 Y37.6251902742 Z3.5 E0.515139612046
G1 F1500.0 X25.3726205022 Y37.5577999183 Z3.5 E0.0548585392862
G1 F1500.0 X23.4492187680 Y39.0136510361 Z3.5 E1.92980441836
G1 F1500.0 X22.7228280886 Y39.3605417515 Z3.5 E0.643975943684
G1 F1500.0 X21.0068918763 Y39.7281704768 Z3.5 E1.40390038720
G1 F1500.0 X21.7638328591 Y39.7405514120 Z3.5 E0.605633784475
G1 F1500.0 X22.5270131902 Y39.8012602777 Z3.5 E0.612472907074
G1 F1500.0 X24.9861332771 Y39.7629447384 Z3.5 E1.96753485272
G1 F1500.0 X28.3200975072 Y39.1021494610 Z3.5 E2.71905488128
G1 F1500.0 X31.7477826010 Y37.6660330267 Z3.5 E2.97310133183
G1 F1500.0 X34.9318089157 Y34.6088715949 Z3.5 E3.53127825860
G1 F1500.0 X37.1103363292 Y31.2193574422 Z3.5 E3.22339328114
G1 F1500.0 X37.9097269745 Y28.0389188991 Z3.5 E2.62348955162
G1 F1500.0 X38.1302740905 Y24.6768107124 Z3.5 E2.69546730510
G1 F1500.0 X38.0712913701 Y23.5970302790 Z3.5 E0.865112152977
G1 F1500.0 X37.9707151301 Y21.5996689460 Z3.5 E1.59991357261
G1 F1500.0 X37.7667497840 Y22.9937438889 Z3.5 E1.12713351364
G1 F1500.0 X38.0686566786 Y23.0446968062 Z3.5 E0.244941100264
G1 F1500.0 X36.6229284607 Y25.3474103602 Z3.5 E2.17514980332
G1 F1500.0 X36.6692608698 Y26.3161206379 Z3.5 E0.775854128264
G1 F1500.0 X35.7230045892 Y26.9222445567 Z3.5 E0.898990421708
G1 F1500.0 X36.5816255169 Y26.7322243243 Z3.5 E0.703516918896
G1 F1500.0 X37.7578007978 Y25.9590871285 Z3.5 E1.12602079274
G1 F1500.0 X39.4606096457 Y24.6402431295 Z3.5 E1.72304984787
G1 F1500.0 X41.4910719638 Y22.4105754237 Z3.5 E2.41252668262
G1 F1500.0 X43.0196936755 Y20.0510126758 Z3.5 E2.2491556743
G1 F1500.0 X43.9931268509 Y17.4162918724 Z3.5 E2.24703550255
G1 F1500.0 X44.5186903439 Y15.1490478589 Z3.5 E1.86188934607
G1 F1500.0 X44.7035389462 Y13.1677466870 Z3.5 E1.59192428756
G1 F1500.0 X44.6253407574 Y11.7614742531 Z3.5 E1.12675594239
G1 F1500.0 X44.7174776566 Y10.7062986095 Z3.5 E0.847352525266
G1 F1500.0 X44.4467781738 Y9.90042716622 Z3.5 E0.68009740156
G1 F1500.0 X44.6704976769 Y9.56427256579 Z3.5 E0.323035930089
G1 F1500.0 X44.5179166305 Y8.57841089438 Z3.5 E0.798079378855
G1 F1500.0 X44.7582073947 Y8.23044013346 Z3.5 E0.338300034251
G1 F1500.0 X44.8803663470 Y6.64269024945 Z3.5 E1.27395384627
G1 F1500.0 X45.0684232757 Y5.51382243105 Z3.5 E0.915539783029
G1 F1500.0 X45.1481117228 Y3.29142306528 Z3.5 E1.77906207911
G1 F1500.0 X44.9298126905 Y1.04539677063 Z3.5 E1.80528798080
G1 F1500.0 X44.2101659973 Y-2.01357149664 Z3.5 E2.51398370376
G1 F1500.0 X42.9076293339 Y-4.59461533635 Z3.5 E2.31287029464
G1 F1500.0 X40.5242962695 Y-7.71221266412 Z3.5 E3.13939505955
G1 F1500.0 X39.2944191868 Y-8.85084640729 Z3.5 E1.34082588036
G1 F1500.0 X36.9387885529 Y-10.6882016534 Z3.5 E2.38996167114
G1 F1500.0 X37.3452344297 Y-10.2529871044 Z3.5 E0.47639308437
G1 F1500.0 X37.6214339197 Y-10.2366318647 Z3.5 E0.221346645275
G1 F1500.0 X38.0554496162 Y-9.20132429665 Z3.5 E0.8980802228
G1 F1500.0 X39.1372832716 Y-7.31856553109 Z3.5 E1.73715070200
G1 F1500.0 X38.9207445635 Y-7.13348875318 Z3.5 E0.227884076975
G1 F1500.0 X39.0675906481 Y-4.97932060231 Z3.5 E1.72733398179
G1 F1500.0 X39.0326980944 Y-4.55503342566 Z3.5 E0.340575605535
G1 F1500.0 X39.2568744770 Y-6.06651585347 Z3.5 E1.22241313607
G1 F1500.0 X39.1766777701 Y-5.73536581790 Z3.5 E0.272578042089
G1 F1500.0 X39.8135750825 Y-7.77448903826 Z3.5 E1.70901828088
G1 F1500.0 X40.2503813552 Y-9.93954203780 Z3.5 E1.76694162181
G1 F1500.0 X40.3565327982 Y-13.2411085413 Z3.5 E2.64261803589
G1 F1500.0 X39.5190976015 Y-17.3078161782 Z3.5 E3.32162935569
G1 F1500.0 X37.5700288655 Y-20.7518241321 Z3.5 E3.16582346688
G1 F1500.0 X34.3148715570 Y-23.7939392784 Z3.5 E3.56431322223
G1 F1500.0 X30.9790812951 Y-25.4320193875 Z3.5 E2.97303111216
G1 F1500.0 X27.8655118946 Y-26.1488641233 Z3.5 E2.55601950376
G1 F1500.0 X25.2355279151 Y-26.3492754371 Z3.5 E2.11008707722
G1 F1500.0 X24.5151399837 Y-26.3465986231 Z3.5 E0.576314323656
G1 F1500.0 X23.5410573385 Y-26.4111365896 Z3.5 E0.780974631653
G1 F1500.0 X25.2296587909 Y-25.8920524545 Z3.5 E1.41326814540
G1 F1500.0 X26.0604085495 Y-25.5262442424 Z3.5 E0.726178296298
G1 F1500.0 X27.9838136468 Y-23.6420500132 Z3.5 E2.15401765075
G1 F1500.0 X28.4655938888 Y-23.2928459148 Z3.5 E0.476020640796
G1 F1500.0 X28.7838862952 Y-22.5248633281 Z3.5 E0.665062912845
G1 F1500.0 X28.4790941623 Y-23.7273322942 Z3.5 E0.992396649309
G1 F1500.0 X27.9032207152 Y-25.3624792474 Z3.5 E1.38687234553
G1 F1500.0 X26.8544583759 Y-27.5764439317 Z3.5 E1.95984359668
G1 F1500.0 X24.6080992739 Y-30.4264145502 Z3.5 E2.90307001541
G1 F1500.0 X22.2340718302 Y-32.5822793322 Z3.5 E2.56546407645
G1 F1500.0 X18.9641741423 Y-33.9765027820 Z3.5 E2.84378226082
G1 F1500.0 X16.2416194013 Y-34.7431089827 Z3.5 E2.26274019856
G1 F1500.0 X13.8558568076 Y-34.8448895452 Z3.5 E1.91034613596
G1 F1500.0 X11.8533430839 Y-34.6928638052 Z3.5 E1.60662090900
G1 F1500.0 X10.6666058131 Y-34.6297181138 Z3.5 E0.950732846818
G1 F1500.0 X9.28336287541 Y-34.2765005696 Z3.5 E1.14210294690
G1 F1500.0 X8.87931716562 Y-34.3413384240 Z3.5 E0.327371967495
G1 F1500.0 X7.53907014206 Y-34.0514845483 Z3.5 E1.09698564539
G1 F1500.0 X7.36417030088 Y-34.1190569855 Z3.5 E0.149999442589
G1 F1500.0 X5.67498375293 Y-33.9272039652 Z3.5 E1.36003735835
G1 F1500.0 X5.54661049007 Y-33.9416211798 Z3.5 E0.103344242433
G1 F1500.0 X3.91412835662 Y-33.8392634312 Z3.5 E1.30855034899
G1 F1500.0 X4.13218388361 Y-33.8106649661 Z3.5 E0.175938325662
G1 F1500.0 X3.12685148421 Y-33.9136991731 Z3.5 E0.808478781359
G1 F1500.0 X3.68790800509 Y-33.7600129138 Z3.5 E0.465379938305
G1 F1500.0 X3.09652515537 Y-34.0563451346 Z3.5 E0.52917835783
G1 F1500.0 X3.30954137611 Y-33.8802190077 Z3.5 E0.221119077979
G1 F1500.0 X2.33590464085 Y-34.4172716645 Z3.5 E0.889546058964
G1 F1500.0 X1.52320976389 Y-34.6326620375 Z3.5 E0.672602575476
G1 F1500.0 X-0.309565885762 Y-35.3406969883 Z3.5 E1.57182799535
G1 F1500.0 X-2.53042505001 Y-35.8751798953 Z3.5 E1.82741564496
G1 F1500.0 X-5.21278816949 Y-36.0625997341 Z3.5 E2.15112221514
G1 F1500.0 X-8.57911551571 Y-35.8313375620 Z3.5 E2.69940935692
G1 F1500.0 X-11.4772125603 Y-34.7588944586 Z3.5 E2.47212953579
G1 F1500.0 X-14.7785254031 Y-32.8603266612 Z3.5 E3.04664811668
G1 F1500.0 X-16.8156566532 Y-30.8402984057 Z3.5 E2.29509639127
G1 F1500.0 X-18.7329587315 Y-28.1684368616 Z3.5 E2.63088017154
G1 F1500.0 X-19.6368751766 Y-26.4131776930 Z3.5 E1.57946820191
G1 F1500.0 X-20.1841792139 Y-25.3308746916 Z3.5 E0.970252419486
G1 F1500.0 X-20.2477080711 Y-24.6023001024 Z3.5 E0.585071262806
G1 F1500.0 X-19.7628006456 Y-25.5298601687 Z3.5 E0.837330190759
G1 F1500.0 X-18.8640838299 Y-25.6558963812 Z3.5 E0.726009164331
G1 F1500.0 X-17.0258955239 Y-27.0353767265 Z3.5 E1.83859116006
G1 F1500.0 X-16.7395883521 Y-26.8468608461 Z3.5 E0.274237892371
G1 F1500.0 X-15.5484360759 Y-27.1449042987 Z3.5 E0.982298901899
G1 F1500.0 X-17.0048893778 Y-27.1377140915 Z3.5 E1.16517684010
G1 F1500.0 X-17.9057876817 Y-27.1655420278 Z3.5 E0.721062393048
G1 F1500.0 X-20.7494544002 Y-27.0313796598 Z3.5 E2.27746384517
G1 F1500.0 X-23.5720317349 Y-26.4773468760 Z3.5 E2.30115033996
G1 F1500.0 X-26.7286855431 Y-24.9165605853 Z3.5 E2.81714943701
G1 F1500.0 X-29.9172496322 Y-22.4869285725 Z3.5 E3.20699761576
G1 F1500.0 X-31.7706165919 Y-19.5604097634 Z3.5 E2.77122141184
G1 F1500.0 X-33.2020725121 Y-15.7823188759 Z3.5 E3.23214225484
G1 F1500.0 X-33.4822815357 Y-13.0439612562 Z3.5 E2.20212545336
G1 F1500.0 X-33.3313551136 Y-10.2323385083 Z3.5 E2.25253652740
G1 F1500.0 X-33.0456010706 Y-8.68105477510 Z3.5 E1.26190626439
G1 F1500.0 X-33.0157160132 Y-8.19584130404 Z3.5 E0.388906346898
G1 F1500.0 X-32.5996361601 Y-8.51710384155 Z3.5 E0.420538368953
G1 F1500.0 X-32.5253093930 Y-10.3046489551 Z3.5 E1.43127177043
G1 F1500.0 X-31.2263247163 Y-11.4256040367 Z3.5 E1.37262411114
G1 F1500.0 X-30.0177933462 Y-13.5061194282 Z3.5 E1.92484262080
G1 F1500.0 X-30.0253047383 Y-13.1699794613 Z3.5 E0.268979105075
G1 F1500.0 X-29.8077598401 Y-13.5085712235 Z3.5 E0.321964136312
G1 F1500.0 X-31.8749896076 Y-12.3709745299 Z3.5 E1.88765507844
G1 F1500.0 X-33.6859901603 Y-11.1442305687 Z3.5 E1.74990262557
G1 F1500.0 X-36.2933114249 Y-8.44087380933 Z3.5 E3.00466431487
G1 F1500.0 X-38.4059884875 Y-4.38749826277 Z3.5 E3.65673145351
G1 F1500.0 X-38.9711230043 Y-0.234500472308 Z3.5 E3.35301823863
G1 F1500.0 X-38.1939738337 Y3.92243559249 Z3.5 E3.38316569197
G1 F1500.0 X-36.6583746229 Y7.12112981800 Z3.5 E2.83855847184
G1 F1500.0 X-35.7490425175 Y8.41065396575 Z3.5 E1.26231721033
G1 F1500.0 X-34.8702242301 Y9.76058186970 Z3.5 E1.28862765532
G1 F1500.0 X-35.2177713434 Y8.6513326068 Z3.5 E0.929936917679
G1 F1500.0 X-35.7612435372 Y7.76380410601 Z3.5 E0.832564756431
G1 F1500.0 X-35.6087690802 Y5.32226437332 Z3.5 E1.95703689921
G1 F1500.0 X-35.5910992231 Y4.06903495270 Z3.5 E1.00268318572
G1 F1500.0 X-35.1988432466 Y3.28512425534 Z3.5 E0.701258631934
G1 F1500.0 X-35.9034813450 Y4.20730496000 Z3.5 E0.928459231837
G1 F1500.0 X-36.8419781122 Y5.64310323565 Z3.5 E1.37224904335
G1 F1500.0 X-38.1286475266 Y8.21786636288 Z3.5 E2.30268342153
G1 F1500.0 X-39.1098393824 Y11.9544796275 Z3.5 E3.09063267536
G1 F1500.0 X-39.0317171006 Y15.8117395691 Z3.5 E3.08644078231
G1 F1500.0 X-37.5495969576 Y20.1214734864 Z3.5 E3.64597194128
G1 F1500.0 X-35.2792137455 Y23.2380224638 Z3.5 E3.08467359262
G1 F1500.0 X-32.4024982470 Y25.5349543851 Z3.5 E2.94497682819
G1 F1500.0 X-29.8157336690 Y26.9075136914 Z3.5 E2.34268495965
G1 F1500.0 X-28.5847102562 Y27.4285001960 Z3.5 E1.06938354750
G1 F1500.0 X-27.2472461952 Y27.9596827638 Z3.5 E1.15126783258
G1 F1500.0 X-28.2674831966 Y27.3088867601 Z3.5 E0.968105441334
G1 F1500.0 X-28.6401997504 Y26.8018372989 Z3.5 E0.503438916671
G1 F1500.0 X-30.1166952199 Y24.5191086780 Z3.5 E2.17489513540
G1 F1500.0 X-30.3559062809 Y23.6780819056 Z3.5 E0.699507467177
G1 F1500.0 X-30.5349813747 Y22.0199757682 Z3.5 E1.33419851050
G1 F1500.0 X-30.6715403961 Y23.1514726048 Z3.5 E0.911766095451
G1 F1500.0 X-30.7981070578 Y23.9726875250 Z3.5 E0.664728788037
G1 F1500.0 X-31.0072409884 Y26.7742629902 Z3.5 E2.24749632623
G1 F1500.0 X-30.6839666689 Y30.1036782009 Z3.5 E2.67605822723
G1 F1500.0 X-29.3350908195 Y33.6995198608 Z3.5 E3.07241073302
G1 F1500.0 X-26.5574100496 Y37.3166788969 Z3.5 E3.64850434691
G1 F1500.0 X-23.2389796416 Y39.5203689045 Z3.5 E3.18679575969
G1 F1500.0 X-19.2658140519 Y40.6862816922 Z3.5 E3.31256009095
G1 F1500.0 X-15.9941677028 Y40.8364161044 Z3.5 E2.62007147088
G1 F1500.0 X-13.8189818716 Y40.5929553790 Z3.5 E1.75101461327
G1 F1500.0 X-11.5924810372 Y40.1250786669 Z3.5 E1.82010366002
G1 F1500.0 X-11.9304201244 Y40.1713068950 Z3.5 E0.272869053678
G1 F1500.0 X-10.7244468407 Y40.0954743138 Z3.5 E0.966684111016
G1 F1500.0 X-8.41435485635 Y32.4020235947 Z3.5 E6.42623168925
G1 F1500.0 X-7.73378186539 Y34.4538851525 Z3.5 E1.72942819654
G1 F1500.0 X-7.44242522402 Y35.2602199514 Z3.5 E0.685887221255
G1 F1500.0 X-6.80187373211 Y36.6783931977 Z3.5 E1.24489911436
G1 F1500.0 X-6.03193197035 Y37.6358315032 Z3.5 E0.982893174336
G1 F1500.0 X-5.31096421090 Y38.1691014043 Z3.5 E0.717404788442
G1 F1500.0 X-4.11913082393 Y38.4992579556 Z3.5 E0.989373998666
G1 F1500.0 X-3.24359331817 Y38.4660754347 Z3.5 E0.700932865801
G1 F1500.0 X-2.00200308930 Y38.0174568488 Z3.5 E1.05612269953
G1 F1500.0 X-0.727181709132 Y37.2273400880 Z3.5 E1.19985440372
G1 F1500.0 X0.0698021337179 Y36.5897575058 Z3.5 E0.816507604808
G1 F1500.0 X1.78463891476 Y35.1607234616 Z3.5 E1.78577552634
G1 F1500.0 X1.96714389805 Y35.0348344508 Z3.5 E0.177369421435
G1 F1500.0 X3.12360205229 Y34.4708724584 Z3.5 E1.02931389698
G1 F1500.0 X3.75105149075 Y34.1439759560 Z3.5 E0.565998796358
G1 F1500.0 X3.84183161343 Y34.1219800537 Z3.5 E0.0747255261082
G1 F1500.0 X5.65658355113 Y34.3221330266 Z3.5 E1.46060498325
