;_project: : hilbert_TPMS
;_project_by: : WenqianYang, JonasWard
;_project_gcode_generator_by: : JonasWard
;library_path : /Users/jonas/Documents/HilbertAndCo/src/spacemapping_curve
/Users/jonas/Documents/HilbertAndCo/src/spacemapping_curve/gcode/GCodeDefinitions/startGcode.txt
/Users/jonas/Documents/HilbertAndCo/src/spacemapping_curve/gcode/GCodeDefinitions/endGcode.txt
;Sliced by ideaMaker 3.3.0.2343, 2020-02-08 22:55:15 UTC+0100
;Dimension: 250.000 210.000 210.000 0.400
;Plate Shape: 0
;Extruder Offset #1: 25.000 0.000
;Filament Diameter #1: 1.750
;Filament Diameter #2: 1.750
;Filament Compensation #1: 94.00
;Filament Compensation #2: 94.00
;Filament Density #1: 1240.00
;Filament Density #2: 1240.00
;Model Gap: 0.200
M221 T0 S94.00
M140 S60.00
M104 T0 S205.00
M109 T0 S205.00
T0
M190 S60.00
M115 U3.1.0 ; tell printer latest fw version
M83  ; extruder relative mode
M104 S205 ; set extruder temp
M140 S60 ; set bed temp
M190 S60 ; wait for bed temp
M109 S205 ; wait for extruder temp
G28 W ; home all without mesh bed level
G80 ; mesh bed leveling
G1 Y-3.0 F1000.0 ; go outside print area
G92 E0.0
G1 X60.0 E9.0  F1000.0 ; intro line
G1 X100.0 E12.5  F1000.0 ; intro line
G92 E0.0
M82
M1001
M106 S0
;LAYER:-2
;Z:0.500
;HEIGHT:0.500
G0 F6000 X93.481 Y70.719
G0 F1500 Z0.500
;TYPE:RAFT
;WIDTH:0.800
G1 F1500.0 X-93.75 Y-93.75
G1 X-81.25 Y-93.75 E2.075
G1 F1500.0 X-81.25 Y-81.25 E2.075
G1 F1500.0 X-93.75 Y-81.25 E2.075
G1 F1500.0 X-96.875 Y-71.875 E1.64043153621
G1 F1500.0 X-90.625 Y-71.875 E1.0375
G1 F1500.0 X-90.625 Y-65.625 E1.0375
G1 F1500.0 X-96.875 Y-65.625 E1.0375
G1 F1500.0 X-98.4375 Y-60.9375 E0.820215768106
G1 F1500.0 X-95.3125 Y-60.9375 E0.51875
G1 F1500.0 X-95.3125 Y-57.8125 E0.51875
G1 F1500.0 X-98.4375 Y-57.8125 E0.51875
G1 F1500.0 X-99.21875 Y-55.46875 E0.410107884053
G1 F1500.0 X-97.65625 Y-55.46875 E0.259375
G1 F1500.0 X-97.65625 Y-53.90625 E0.259375
G1 F1500.0 X-99.21875 Y-53.90625 E0.259375
G1 F1500.0 X-99.21875 Y-52.34375 E0.259375
G1 F1500.0 X-99.21875 Y-50.78125 E0.259375
G1 F1500.0 X-97.65625 Y-50.78125 E0.259375
G1 F1500.0 X-97.65625 Y-52.34375 E0.259375
G1 F1500.0 X-96.09375 Y-52.34375 E0.259375
G1 F1500.0 X-96.09375 Y-50.78125 E0.259375
G1 F1500.0 X-94.53125 Y-50.78125 E0.259375
G1 F1500.0 X-94.53125 Y-52.34375 E0.259375
G1 F1500.0 X-94.53125 Y-53.90625 E0.259375
G1 F1500.0 X-96.09375 Y-53.90625 E0.259375
G1 F1500.0 X-96.09375 Y-55.46875 E0.259375
G1 F1500.0 X-94.53125 Y-55.46875 E0.259375
G1 F1500.0 X-92.1875 Y-54.6875 E0.410107884053
G1 F1500.0 X-92.1875 Y-51.5625 E0.51875
G1 F1500.0 X-89.0625 Y-51.5625 E0.51875
G1 F1500.0 X-89.0625 Y-54.6875 E0.51875
G1 F1500.0 X-89.0625 Y-57.8125 E0.51875
G1 F1500.0 X-92.1875 Y-57.8125 E0.51875
G1 F1500.0 X-92.1875 Y-60.9375 E0.51875
G1 F1500.0 X-89.0625 Y-60.9375 E0.51875
G1 F1500.0 X-85.9375 Y-60.9375 E0.51875
G1 F1500.0 X-82.8125 Y-60.9375 E0.51875
G1 F1500.0 X-82.8125 Y-57.8125 E0.51875
G1 F1500.0 X-85.9375 Y-57.8125 E0.51875
G1 F1500.0 X-85.9375 Y-54.6875 E0.51875
G1 F1500.0 X-85.9375 Y-51.5625 E0.51875
G1 F1500.0 X-82.8125 Y-51.5625 E0.51875
G1 F1500.0 X-82.8125 Y-54.6875 E0.51875
G1 F1500.0 X-80.46875 Y-55.46875 E0.410107884053
G1 F1500.0 X-78.90625 Y-55.46875 E0.259375
G1 F1500.0 X-78.90625 Y-53.90625 E0.259375
G1 F1500.0 X-80.46875 Y-53.90625 E0.259375
G1 F1500.0 X-80.46875 Y-52.34375 E0.259375
G1 F1500.0 X-80.46875 Y-50.78125 E0.259375
G1 F1500.0 X-78.90625 Y-50.78125 E0.259375
G1 F1500.0 X-78.90625 Y-52.34375 E0.259375
G1 F1500.0 X-77.734375 Y-52.734375 E0.205053942027
G1 F1500.0 X-76.953125 Y-52.734375 E0.1296875
G1 F1500.0 X-76.953125 Y-51.953125 E0.1296875
G1 F1500.0 X-77.734375 Y-51.953125 E0.1296875
G1 F1500.0 X-77.734375 Y-51.171875 E0.1296875
G1 F1500.0 X-77.734375 Y-50.390625 E0.1296875
G1 F1500.0 X-76.953125 Y-50.390625 E0.1296875
G1 F1500.0 X-76.953125 Y-51.171875 E0.1296875
G1 F1500.0 X-76.171875 Y-51.171875 E0.1296875
G1 F1500.0 X-76.171875 Y-50.390625 E0.1296875
G1 F1500.0 X-75.390625 Y-50.390625 E0.1296875
G1 F1500.0 X-75.390625 Y-51.171875 E0.1296875
G1 F1500.0 X-75.1953125 Y-51.7578125 E0.102526971013
G1 F1500.0 X-75.1953125 Y-52.1484375 E0.06484375
G1 F1500.0 X-75.5859375 Y-52.1484375 E0.06484375
G1 F1500.0 X-75.5859375 Y-51.7578125 E0.06484375
G1 F1500.0 X-75.9765625 Y-51.7578125 E0.06484375
G1 F1500.0 X-76.3671875 Y-51.7578125 E0.06484375
G1 F1500.0 X-76.3671875 Y-52.1484375 E0.06484375
G1 F1500.0 X-75.9765625 Y-52.1484375 E0.06484375
G1 F1500.0 X-75.9765625 Y-52.5390625 E0.06484375
G1 F1500.0 X-76.3671875 Y-52.5390625 E0.06484375
G1 F1500.0 X-76.3671875 Y-52.9296875 E0.06484375
G1 F1500.0 X-75.9765625 Y-52.9296875 E0.06484375
G1 F1500.0 X-75.68359375 Y-53.02734375 E0.0512634855066
G1 F1500.0 X-75.48828125 Y-53.02734375 E0.032421875
G1 F1500.0 X-75.48828125 Y-52.83203125 E0.032421875
G1 F1500.0 X-75.68359375 Y-52.83203125 E0.032421875
G1 F1500.0 X-75.68359375 Y-52.63671875 E0.032421875
G1 F1500.0 X-75.68359375 Y-52.44140625 E0.032421875
G1 F1500.0 X-75.48828125 Y-52.44140625 E0.032421875
G1 F1500.0 X-75.48828125 Y-52.63671875 E0.032421875
G1 F1500.0 X-75.29296875 Y-52.63671875 E0.032421875
G1 F1500.0 X-75.29296875 Y-52.44140625 E0.032421875
G1 F1500.0 X-75.09765625 Y-52.44140625 E0.032421875
G1 F1500.0 X-75.09765625 Y-52.63671875 E0.032421875
G1 F1500.0 X-75.09765625 Y-52.83203125 E0.032421875
G1 F1500.0 X-75.29296875 Y-52.83203125 E0.032421875
G1 F1500.0 X-75.29296875 Y-53.02734375 E0.032421875
G1 F1500.0 X-75.09765625 Y-53.02734375 E0.032421875
G1 F1500.0 X-75.09765625 Y-53.22265625 E0.032421875
G1 F1500.0 X-75.09765625 Y-53.41796875 E0.032421875
G1 F1500.0 X-75.29296875 Y-53.41796875 E0.032421875
G1 F1500.0 X-75.29296875 Y-53.22265625 E0.032421875
G1 F1500.0 X-75.48828125 Y-53.22265625 E0.032421875
G1 F1500.0 X-75.68359375 Y-53.22265625 E0.032421875
G1 F1500.0 X-75.68359375 Y-53.41796875 E0.032421875
G1 F1500.0 X-75.48828125 Y-53.41796875 E0.032421875
G1 F1500.0 X-75.48828125 Y-53.61328125 E0.032421875
G1 F1500.0 X-75.68359375 Y-53.61328125 E0.032421875
G1 F1500.0 X-75.68359375 Y-53.80859375 E0.032421875
G1 F1500.0 X-75.48828125 Y-53.80859375 E0.032421875
G1 F1500.0 X-75.29296875 Y-53.80859375 E0.032421875
G1 F1500.0 X-75.29296875 Y-53.61328125 E0.032421875
G1 F1500.0 X-75.09765625 Y-53.61328125 E0.032421875
G1 F1500.0 X-75.09765625 Y-53.80859375 E0.032421875
G1 F1500.0 X-75.09765625 Y-54.00390625 E0.032421875
G1 F1500.0 X-75.29296875 Y-54.00390625 E0.032421875
G1 F1500.0 X-75.29296875 Y-54.19921875 E0.032421875
G1 F1500.0 X-75.09765625 Y-54.19921875 E0.032421875
G1 F1500.0 X-75.09765625 Y-54.39453125 E0.032421875
G1 F1500.0 X-75.09765625 Y-54.58984375 E0.032421875
G1 F1500.0 X-75.29296875 Y-54.58984375 E0.032421875
G1 F1500.0 X-75.29296875 Y-54.39453125 E0.032421875
G1 F1500.0 X-75.48828125 Y-54.39453125 E0.032421875
G1 F1500.0 X-75.48828125 Y-54.58984375 E0.032421875
G1 F1500.0 X-75.68359375 Y-54.58984375 E0.032421875
G1 F1500.0 X-75.68359375 Y-54.39453125 E0.032421875
G1 F1500.0 X-75.68359375 Y-54.19921875 E0.032421875
G1 F1500.0 X-75.48828125 Y-54.19921875 E0.032421875
G1 F1500.0 X-75.48828125 Y-54.00390625 E0.032421875
G1 F1500.0 X-75.68359375 Y-54.00390625 E0.032421875
G1 F1500.0 X-75.9765625 Y-54.1015625 E0.0512634855066
G1 F1500.0 X-75.9765625 Y-54.4921875 E0.06484375
G1 F1500.0 X-76.3671875 Y-54.4921875 E0.06484375
G1 F1500.0 X-76.3671875 Y-54.1015625 E0.06484375
G1 F1500.0 X-76.3671875 Y-53.7109375 E0.06484375
G1 F1500.0 X-75.9765625 Y-53.7109375 E0.06484375
G1 F1500.0 X-75.9765625 Y-53.3203125 E0.06484375
G1 F1500.0 X-76.3671875 Y-53.3203125 E0.06484375
G1 F1500.0 X-76.953125 Y-53.515625 E0.102526971013
G1 F1500.0 X-77.734375 Y-53.515625 E0.1296875
G1 F1500.0 X-77.734375 Y-54.296875 E0.1296875
G1 F1500.0 X-76.953125 Y-54.296875 E0.1296875
G1 F1500.0 X-76.953125 Y-55.078125 E0.1296875
G1 F1500.0 X-77.734375 Y-55.078125 E0.1296875
G1 F1500.0 X-77.734375 Y-55.859375 E0.1296875
G1 F1500.0 X-76.953125 Y-55.859375 E0.1296875
G1 F1500.0 X-76.3671875 Y-56.0546875 E0.102526971013
G1 F1500.0 X-75.9765625 Y-56.0546875 E0.06484375
G1 F1500.0 X-75.9765625 Y-55.6640625 E0.06484375
G1 F1500.0 X-76.3671875 Y-55.6640625 E0.06484375
G1 F1500.0 X-76.3671875 Y-55.2734375 E0.06484375
G1 F1500.0 X-76.3671875 Y-54.8828125 E0.06484375
G1 F1500.0 X-75.9765625 Y-54.8828125 E0.06484375
G1 F1500.0 X-75.9765625 Y-55.2734375 E0.06484375
G1 F1500.0 X-75.68359375 Y-55.37109375 E0.0512634855066
G1 F1500.0 X-75.48828125 Y-55.37109375 E0.032421875
G1 F1500.0 X-75.48828125 Y-55.17578125 E0.032421875
G1 F1500.0 X-75.68359375 Y-55.17578125 E0.032421875
G1 F1500.0 X-75.68359375 Y-54.98046875 E0.032421875
G1 F1500.0 X-75.68359375 Y-54.78515625 E0.032421875
G1 F1500.0 X-75.48828125 Y-54.78515625 E0.032421875
G1 F1500.0 X-75.48828125 Y-54.98046875 E0.032421875
G1 F1500.0 X-75.29296875 Y-54.98046875 E0.032421875
G1 F1500.0 X-75.29296875 Y-54.78515625 E0.032421875
G1 F1500.0 X-75.09765625 Y-54.78515625 E0.032421875
G1 F1500.0 X-75.09765625 Y-54.98046875 E0.032421875
G1 F1500.0 X-75.09765625 Y-55.17578125 E0.032421875
G1 F1500.0 X-75.29296875 Y-55.17578125 E0.032421875
G1 F1500.0 X-75.29296875 Y-55.37109375 E0.032421875
G1 F1500.0 X-75.09765625 Y-55.37109375 E0.032421875
G1 F1500.0 X-75.1953125 Y-55.6640625 E0.0512634855066
G1 F1500.0 X-75.5859375 Y-55.6640625 E0.06484375
G1 F1500.0 X-75.5859375 Y-56.0546875 E0.06484375
G1 F1500.0 X-75.1953125 Y-56.0546875 E0.06484375
G1 F1500.0 X-75.390625 Y-56.640625 E0.102526971013
G1 F1500.0 X-76.171875 Y-56.640625 E0.1296875
G1 F1500.0 X-76.171875 Y-57.421875 E0.1296875
G1 F1500.0 X-75.390625 Y-57.421875 E0.1296875
G1 F1500.0 X-75.390625 Y-58.203125 E0.1296875
G1 F1500.0 X-75.390625 Y-58.984375 E0.1296875
G1 F1500.0 X-76.171875 Y-58.984375 E0.1296875
G1 F1500.0 X-76.171875 Y-58.203125 E0.1296875
G1 F1500.0 X-76.953125 Y-58.203125 E0.1296875
G1 F1500.0 X-76.953125 Y-58.984375 E0.1296875
G1 F1500.0 X-77.734375 Y-58.984375 E0.1296875
G1 F1500.0 X-77.734375 Y-58.203125 E0.1296875
G1 F1500.0 X-77.734375 Y-57.421875 E0.1296875
G1 F1500.0 X-76.953125 Y-57.421875 E0.1296875
G1 F1500.0 X-76.953125 Y-56.640625 E0.1296875
G1 F1500.0 X-77.734375 Y-56.640625 E0.1296875
G1 F1500.0 X-78.90625 Y-57.03125 E0.205053942027
G1 F1500.0 X-80.46875 Y-57.03125 E0.259375
G1 F1500.0 X-80.46875 Y-58.59375 E0.259375
G1 F1500.0 X-78.90625 Y-58.59375 E0.259375
G1 F1500.0 X-78.90625 Y-60.15625 E0.259375
G1 F1500.0 X-80.46875 Y-60.15625 E0.259375
G1 F1500.0 X-80.46875 Y-61.71875 E0.259375
G1 F1500.0 X-78.90625 Y-61.71875 E0.259375
G1 F1500.0 X-77.34375 Y-61.71875 E0.259375
G1 F1500.0 X-77.34375 Y-60.15625 E0.259375
G1 F1500.0 X-75.78125 Y-60.15625 E0.259375
G1 F1500.0 X-75.78125 Y-61.71875 E0.259375
G1 F1500.0 X-78.125 Y-65.625 E0.756201573863
G1 F1500.0 X-84.375 Y-65.625 E1.0375
G1 F1500.0 X-84.375 Y-71.875 E1.0375
G1 F1500.0 X-78.125 Y-71.875 E1.0375
G1 F1500.0 X-73.4375 Y-73.4375 E0.820215768106
G1 F1500.0 X-73.4375 Y-70.3125 E0.51875
G1 F1500.0 X-70.3125 Y-70.3125 E0.51875
G1 F1500.0 X-70.3125 Y-73.4375 E0.51875
G1 F1500.0 X-67.96875 Y-74.21875 E0.410107884053
G1 F1500.0 X-67.96875 Y-72.65625 E0.259375
G1 F1500.0 X-66.40625 Y-72.65625 E0.259375
G1 F1500.0 X-66.40625 Y-74.21875 E0.259375
G1 F1500.0 X-64.84375 Y-74.21875 E0.259375
G1 F1500.0 X-63.28125 Y-74.21875 E0.259375
G1 F1500.0 X-63.28125 Y-72.65625 E0.259375
G1 F1500.0 X-64.84375 Y-72.65625 E0.259375
G1 F1500.0 X-64.84375 Y-71.09375 E0.259375
G1 F1500.0 X-63.28125 Y-71.09375 E0.259375
G1 F1500.0 X-63.28125 Y-69.53125 E0.259375
G1 F1500.0 X-64.84375 Y-69.53125 E0.259375
G1 F1500.0 X-66.40625 Y-69.53125 E0.259375
G1 F1500.0 X-66.40625 Y-71.09375 E0.259375
G1 F1500.0 X-67.96875 Y-71.09375 E0.259375
G1 F1500.0 X-67.96875 Y-69.53125 E0.259375
G1 F1500.0 X-68.359375 Y-68.359375 E0.205053942027
G1 F1500.0 X-67.578125 Y-68.359375 E0.1296875
G1 F1500.0 X-67.578125 Y-67.578125 E0.1296875
G1 F1500.0 X-68.359375 Y-67.578125 E0.1296875
G1 F1500.0 X-68.359375 Y-66.796875 E0.1296875
G1 F1500.0 X-68.359375 Y-66.015625 E0.1296875
G1 F1500.0 X-67.578125 Y-66.015625 E0.1296875
G1 F1500.0 X-67.578125 Y-66.796875 E0.1296875
G1 F1500.0 X-66.9921875 Y-66.9921875 E0.102526971013
G1 F1500.0 X-66.6015625 Y-66.9921875 E0.06484375
G1 F1500.0 X-66.6015625 Y-66.6015625 E0.06484375
G1 F1500.0 X-66.9921875 Y-66.6015625 E0.06484375
G1 F1500.0 X-67.08984375 Y-66.30859375 E0.0512634855066
G1 F1500.0 X-66.89453125 Y-66.30859375 E0.032421875
G1 F1500.0 X-66.89453125 Y-66.11328125 E0.032421875
G1 F1500.0 X-67.08984375 Y-66.11328125 E0.032421875
G1 F1500.0 X-67.08984375 Y-65.91796875 E0.032421875
G1 F1500.0 X-67.08984375 Y-65.72265625 E0.032421875
G1 F1500.0 X-66.89453125 Y-65.72265625 E0.032421875
G1 F1500.0 X-66.89453125 Y-65.91796875 E0.032421875
G1 F1500.0 X-66.69921875 Y-65.91796875 E0.032421875
G1 F1500.0 X-66.69921875 Y-65.72265625 E0.032421875
G1 F1500.0 X-66.50390625 Y-65.72265625 E0.032421875
G1 F1500.0 X-66.50390625 Y-65.91796875 E0.032421875
G1 F1500.0 X-66.50390625 Y-66.11328125 E0.032421875
G1 F1500.0 X-66.69921875 Y-66.11328125 E0.032421875
G1 F1500.0 X-66.69921875 Y-66.30859375 E0.032421875
G1 F1500.0 X-66.50390625 Y-66.30859375 E0.032421875
G1 F1500.0 X-66.30859375 Y-66.30859375 E0.032421875
G1 F1500.0 X-66.11328125 Y-66.30859375 E0.032421875
G1 F1500.0 X-66.11328125 Y-66.11328125 E0.032421875
G1 F1500.0 X-66.30859375 Y-66.11328125 E0.032421875
G1 F1500.0 X-66.30859375 Y-65.91796875 E0.032421875
G1 F1500.0 X-66.30859375 Y-65.72265625 E0.032421875
G1 F1500.0 X-66.11328125 Y-65.72265625 E0.032421875
G1 F1500.0 X-66.11328125 Y-65.91796875 E0.032421875
G1 F1500.0 X-65.91796875 Y-65.91796875 E0.032421875
G1 F1500.0 X-65.91796875 Y-65.72265625 E0.032421875
G1 F1500.0 X-65.72265625 Y-65.72265625 E0.032421875
G1 F1500.0 X-65.72265625 Y-65.91796875 E0.032421875
G1 F1500.0 X-65.72265625 Y-66.11328125 E0.032421875
G1 F1500.0 X-65.91796875 Y-66.11328125 E0.032421875
G1 F1500.0 X-65.91796875 Y-66.30859375 E0.032421875
G1 F1500.0 X-65.72265625 Y-66.30859375 E0.032421875
G1 F1500.0 X-65.8203125 Y-66.6015625 E0.0512634855066
G1 F1500.0 X-66.2109375 Y-66.6015625 E0.06484375
G1 F1500.0 X-66.2109375 Y-66.9921875 E0.06484375
G1 F1500.0 X-65.8203125 Y-66.9921875 E0.06484375
G1 F1500.0 X-66.015625 Y-67.578125 E0.102526971013
G1 F1500.0 X-66.796875 Y-67.578125 E0.1296875
G1 F1500.0 X-66.796875 Y-68.359375 E0.1296875
G1 F1500.0 X-66.015625 Y-68.359375 E0.1296875
G1 F1500.0 X-65.4296875 Y-68.5546875 E0.102526971013
G1 F1500.0 X-65.0390625 Y-68.5546875 E0.06484375
G1 F1500.0 X-65.0390625 Y-68.1640625 E0.06484375
G1 F1500.0 X-65.4296875 Y-68.1640625 E0.06484375
G1 F1500.0 X-65.4296875 Y-67.7734375 E0.06484375
G1 F1500.0 X-65.4296875 Y-67.3828125 E0.06484375
G1 F1500.0 X-65.0390625 Y-67.3828125 E0.06484375
G1 F1500.0 X-65.0390625 Y-67.7734375 E0.06484375
G1 F1500.0 X-64.74609375 Y-67.87109375 E0.0512634855066
G1 F1500.0 X-64.55078125 Y-67.87109375 E0.032421875
G1 F1500.0 X-64.55078125 Y-67.67578125 E0.032421875
G1 F1500.0 X-64.74609375 Y-67.67578125 E0.032421875
G1 F1500.0 X-64.74609375 Y-67.48046875 E0.032421875
G1 F1500.0 X-64.74609375 Y-67.28515625 E0.032421875
G1 F1500.0 X-64.55078125 Y-67.28515625 E0.032421875
G1 F1500.0 X-64.55078125 Y-67.48046875 E0.032421875
G1 F1500.0 X-64.35546875 Y-67.48046875 E0.032421875
G1 F1500.0 X-64.35546875 Y-67.28515625 E0.032421875
G1 F1500.0 X-64.16015625 Y-67.28515625 E0.032421875
G1 F1500.0 X-64.16015625 Y-67.48046875 E0.032421875
G1 F1500.0 X-64.16015625 Y-67.67578125 E0.032421875
G1 F1500.0 X-64.35546875 Y-67.67578125 E0.032421875
G1 F1500.0 X-64.35546875 Y-67.87109375 E0.032421875
G1 F1500.0 X-64.16015625 Y-67.87109375 E0.032421875
G1 F1500.0 X-64.2578125 Y-68.1640625 E0.0512634855066
G1 F1500.0 X-64.6484375 Y-68.1640625 E0.06484375
G1 F1500.0 X-64.6484375 Y-68.5546875 E0.06484375
G1 F1500.0 X-64.2578125 Y-68.5546875 E0.06484375
G1 F1500.0 X-63.8671875 Y-68.5546875 E0.06484375
G1 F1500.0 X-63.8671875 Y-68.1640625 E0.06484375
G1 F1500.0 X-63.4765625 Y-68.1640625 E0.06484375
G1 F1500.0 X-63.4765625 Y-68.5546875 E0.06484375
G1 F1500.0 X-63.0859375 Y-68.5546875 E0.06484375
G1 F1500.0 X-62.6953125 Y-68.5546875 E0.06484375
G1 F1500.0 X-62.6953125 Y-68.1640625 E0.06484375
