;_project: : CCLegos
;_project_by: : MarieGriesmar
;_project_gcode_generator_by: : JonasWard
;brick_length : 350.0
;brick_width : 250.0
;feed_rate : 25.0
;feed_rate_variable : False
;height_body : 150.0
;height_pin : 260.0
;layer_body_count : 47
;layer_height : 3.2
;layer_pin_count : 34
;layer_total_count : 81
;library_path : /Users/jonas/Dropbox/Clay_Printing_Brick/PatternBrickLibrary
;path_length : 9694.82178726
;pattern_edge_easing : False
;pattern_periodic : True
;pattern_random_dots : True
;pattern_random_seed : 100
;pattern_split : None
;pattern_y_scale_factor : 0.5
;pin_spacing : 220.0
;print_extrusion_nozzle : 3.5
;print_extrusion_rate : 0.64
;print_spacing_cross : 1.6
;print_spacing_link : 2.2
;print_spacing_paths : 1.6
;print_spacing_start_reextrusion_rate : 40
;print_spacing_start_stop_retraction : 130
;shell_count : 1
;shell_direction : outside
;shell_spacing : 1.6
;shell_split_distance : 1.6
;shell_split_type : detached
;start_height : 1.4
/Users/jonas/Documents/HilbertAndCo/src/spacemapping_curve/gcode/GCodeDefinitions/startGcode.txt
/Users/jonas/Documents/HilbertAndCo/src/spacemapping_curve/gcode/GCodeDefinitions/endGcode.txt
;Sliced by ideaMaker 3.3.0.2343, 2020-02-08 22:55:15 UTC+0100
;Dimension: 250.000 210.000 210.000 0.400
;Plate Shape: 0
;Extruder Offset #1: 25.000 0.000
;Filament Diameter #1: 1.750
;Filament Diameter #2: 1.750
;Filament Compensation #1: 94.00
;Filament Compensation #2: 94.00
;Filament Density #1: 1240.00
;Filament Density #2: 1240.00
;Model Gap: 0.200
M221 T0 S94.00
M140 S60.00
M104 T0 S205.00
M109 T0 S205.00
T0
M190 S60.00
M115 U3.1.0 ; tell printer latest fw version
M83  ; extruder relative mode
M104 S205 ; set extruder temp
M140 S60 ; set bed temp
M190 S60 ; wait for bed temp
M109 S205 ; wait for extruder temp
G28 W ; home all without mesh bed level
G80 ; mesh bed leveling
G1 Y-3.0 F1000.0 ; go outside print area
G92 E0.0
G1 X60.0 E9.0  F1000.0 ; intro line
G1 X100.0 E12.5  F1000.0 ; intro line
G92 E0.0
M83
M1001
M106 S0
;LAYER:-2
;Z:0.500
;HEIGHT:0.500
G0 F6000 X93.481 Y70.719
G0 F1500 Z0.500
;TYPE:RAFT
;WIDTH:0.800
G1 F1500.0 X-15.0998324784 Y39.9612003700 Z1.0
G1 X-14.9949423415 Y40.2570385041 Z1.0 E0.251105896266
G1 F1500.0 X-14.6867533182 Y40.9047583308 Z1.0 E0.573841203414
G1 F1500.0 X-13.9641839148 Y42.2508774274 Z1.0 E1.22223223058
G1 F1500.0 X-12.6467011419 Y44.1602294028 Z1.0 E1.85582513366
G1 F1500.0 X-10.7427386506 Y45.9278782208 Z1.0 E2.07840793101
G1 F1500.0 X-7.940302115 Y47.6558602791 Z1.0 E2.63388048684
G1 F1500.0 X-5.04675266034 Y48.3852469603 Z1.0 E2.38725058623
G1 F1500.0 X-1.53866051425 Y48.4393690379 Z1.0 E2.80680769042
G1 F1500.0 X1.11308217827 Y47.7008485531 Z1.0 E2.20213014167
G1 F1500.0 X3.64098189127 Y46.4146434867 Z1.0 E2.26904038665
G1 F1500.0 X4.87720094640 Y45.5220461534 Z1.0 E1.21982754238
G1 F1500.0 X5.50339293855 Y45.0015505434 Z1.0 E0.651414260089
G1 F1500.0 X5.02206246469 Y45.2058221635 Z1.0 E0.41830585543
G1 F1500.0 X3.37681679151 Y45.9901853135 Z1.0 E1.45812128467
G1 F1500.0 X0.776912675201 Y46.1523174231 Z1.0 E2.08396364421
G1 F1500.0 X-2.18228633155 Y45.8416250542 Z1.0 E2.38037153532
G1 F1500.0 X-3.63230411401 Y45.0691364494 Z1.0 E1.31436134184
G1 F1500.0 X-4.47976673902 Y44.5568166179 Z1.0 E0.792228052218
G1 F1500.0 X-4.14262012620 Y44.8723114990 Z1.0 E0.369392893057
G1 F1500.0 X-3.22395091768 Y45.7210732096 Z1.0 E1.00059168291
G1 F1500.0 X-1.36516708081 Y47.0324929617 Z1.0 E1.81987236800
G1 F1500.0 X1.81141242015 Y48.3399076717 Z1.0 E2.74808914553
G1 F1500.0 X5.66816210670 Y48.6305986685 Z1.0 E3.09415132407
G1 F1500.0 X9.75706346927 Y47.5608426959 Z1.0 E3.3812179764
G1 F1500.0 X12.4370640383 Y45.8501735229 Z1.0 E2.54354613183
G1 F1500.0 X14.0469922345 Y44.2468060675 Z1.0 E1.81771830488
G1 F1500.0 X14.7783668277 Y43.3411663939 Z1.0 E0.931267356361
G1 F1500.0 X14.6585491275 Y43.3903593813 Z1.0 E0.103618473437
G1 F1500.0 X13.8670900089 Y44.0715617802 Z1.0 E0.835394707082
G1 F1500.0 X11.7168574852 Y45.1600251790 Z1.0 E1.92802530709
G1 F1500.0 X9.06464755172 Y45.6738757156 Z1.0 E2.16122334324
G1 F1500.0 X6.56716608168 Y45.4817688406 Z1.0 E2.00388722152
G1 F1500.0 X5.51178433520 Y45.1147123146 Z1.0 E0.89391225487
G1 F1500.0 X5.21048470003 Y45.0191926348 Z1.0 E0.252862624379
G1 F1500.0 X6.06093230075 Y45.5339729800 Z1.0 E0.795290105682
G1 F1500.0 X7.75856735007 Y46.3929980854 Z1.0 E1.52208044834
G1 F1500.0 X10.3909893302 Y47.1688451497 Z1.0 E2.19549854361
G1 F1500.0 X14.2095030751 Y47.2811646808 Z1.0 E3.05613223769
G1 F1500.0 X17.8375849762 Y46.1522580113 Z1.0 E3.03972720352
G1 F1500.0 X21.1267311045 Y43.7680658568 Z1.0 E3.24989643976
G1 F1500.0 X22.9385142205 Y41.4193399073 Z1.0 E2.37305833322
G1 F1500.0 X23.9215653693 Y39.4003890329 Z1.0 E1.79645022317
G1 F1500.0 X24.3703184624 Y38.1659805194 Z1.0 E1.05075781162
G1 F1500.0 X24.3450962817 Y38.1270346324 Z1.0 E0.0371198320702
G1 F1500.0 X24.1020294485 Y38.5506615986 Z1.0 E0.390725513397
G1 F1500.0 X22.6636479158 Y40.2252647824 Z1.0 E1.76603279823
G1 F1500.0 X20.7013900367 Y41.6401035571 Z1.0 E1.93530975176
G1 F1500.0 X17.7121836642 Y42.5069942916 Z1.0 E2.48989693383
G1 F1500.0 X15.8689234530 Y42.6080139271 Z1.0 E1.4768210557
G1 F1500.0 X14.7352594120 Y42.3842327335 Z1.0 E0.924431823053
G1 F1500.0 X15.0507036583 Y42.5368817683 Z1.0 E0.280350409669
G1 F1500.0 X16.2451411184 Y42.9896285772 Z1.0 E1.02189174192
G1 F1500.0 X18.2545315006 Y43.5118435448 Z1.0 E1.66091216973
G1 F1500.0 X21.3740477047 Y43.7052786965 Z1.0 E2.50040617572
G1 F1500.0 X24.3035081910 Y43.2240389321 Z1.0 E2.37498031338
G1 F1500.0 X27.4255035062 Y41.7307394469 Z1.0 E2.76860087129
G1 F1500.0 X29.6295453735 Y39.9273997001 Z1.0 E2.27822173388
G1 F1500.0 X31.4809397398 Y37.2702759787 Z1.0 E2.59081053825
G1 F1500.0 X32.5179717406 Y34.8057673200 Z1.0 E2.13904476617
G1 F1500.0 X32.9816794780 Y32.3350034611 Z1.0 E2.01112090727
G1 F1500.0 X33.0786851922 Y30.4741442203 Z1.0 E1.49070876521
G1 F1500.0 X33.0568021742 Y29.5308626893 Z1.0 E0.754828261523
G1 F1500.0 X33.0251657032 Y28.7676836065 Z1.0 E0.611067618525
G1 F1500.0 X32.9931345843 Y29.2677115116 Z1.0 E0.400842232088
G1 F1500.0 X32.9239531952 Y29.4716684171 Z1.0 E0.172296458703
G1 F1500.0 X32.5459601272 Y30.7789766921 Z1.0 E1.08868616173
G1 F1500.0 X32.1526872655 Y31.4659124853 Z1.0 E0.633236424859
G1 F1500.0 X31.2732358042 Y32.7805223729 Z1.0 E1.26532437686
G1 F1500.0 X30.7526826372 Y33.2234683763 Z1.0 E0.546802640263
G1 F1500.0 X29.7950743736 Y34.0182519578 Z1.0 E0.995572447357
G1 F1500.0 X29.6585620796 Y34.0391163918 Z1.0 E0.110478033342
G1 F1500.0 X29.0365249313 Y34.3739422337 Z1.0 E0.565141289669
G1 F1500.0 X29.4303691901 Y34.1788756823 Z1.0 E0.351603649312
G1 F1500.0 X29.2462275834 Y34.2606258811 Z1.0 E0.161178115283
G1 F1500.0 X30.0488327209 Y33.9767395607 Z1.0 E0.681065729388
G1 F1500.0 X30.2773374038 Y33.9042483315 Z1.0 E0.191782157107
G1 F1500.0 X31.3380765965 Y33.5316135576 Z1.0 E0.899430685542
G1 F1500.0 X31.9702911983 Y33.2857880440 Z1.0 E0.542660401209
G1 F1500.0 X33.2301027431 Y32.7218535758 Z1.0 E1.10421656220
G1 F1500.0 X34.3058331901 Y32.1466857198 Z1.0 E0.975873453131
G1 F1500.0 X35.7355622568 Y31.1629503466 Z1.0 E1.38837700664
G1 F1500.0 X37.1291851464 Y29.9655756857 Z1.0 E1.46988779707
G1 F1500.0 X38.4098743352 Y28.4276080392 Z1.0 E1.60110147681
G1 F1500.0 X39.5108924663 Y26.6784772139 Z1.0 E1.65344722449
G1 F1500.0 X40.2063128683 Y25.0633145570 Z1.0 E1.40680857402
G1 F1500.0 X40.6540960545 Y23.5823887599 Z1.0 E1.23771428005
G1 F1500.0 X40.8844155537 Y22.4820328018 Z1.0 E0.899361660236
G1 F1500.0 X41.0108418235 Y21.6901449816 Z1.0 E0.641533124434
G1 F1500.0 X41.0827814422 Y21.0652400536 Z1.0 E0.503225740392
G1 F1500.0 X41.1391942044 Y20.7160837722 Z1.0 E0.282947354643
G1 F1500.0 X41.1989422948 Y20.1576184414 Z1.0 E0.449321878429
G1 F1500.0 X41.2502326592 Y19.8716524060 Z1.0 E0.23242344092
G1 F1500.0 X41.3510949671 Y19.0671204204 Z1.0 E0.648663818538
G1 F1500.0 X41.4030780086 Y18.6714334277 Z1.0 E0.319269599277
G1 F1500.0 X41.5030905998 Y17.6431493626 Z1.0 E0.826509048674
G1 F1500.0 X41.5339540533 Y17.2264070818 Z1.0 E0.334306859185
G1 F1500.0 X41.5863082666 Y16.2162326435 Z1.0 E0.809224165513
G1 F1500.0 X41.5926511359 Y15.9658180747 Z1.0 E0.200395909373
G1 F1500.0 X41.6249780720 Y15.1955406163 Z1.0 E0.616764405507
G1 F1500.0 X41.6154007630 Y15.2376730048 Z1.0 E0.03456576812
G1 F1500.0 X41.6611081081 Y14.8065768663 Z1.0 E0.3468099579
G1 F1500.0 X41.6095708426 Y15.1609343887 Z1.0 E0.286468531862
G1 F1500.0 X41.6439285689 Y15.0582109689 Z1.0 E0.0866535329276
G1 F1500.0 X41.4955003034 Y15.6329382789 Z1.0 E0.474867513929
G1 F1500.0 X41.4688722042 Y15.7296642214 Z1.0 E0.0802594338065
G1 F1500.0 X41.2226859755 Y16.3222662655 Z1.0 E0.513363710056
G1 F1500.0 X41.1832647470 Y16.3660444352 Z1.0 E0.0471291767326
G1 F1500.0 X40.9916353266 Y16.7104382912 Z1.0 E0.315294364281
G1 F1500.0 X41.1548139217 Y16.4295477348 Z1.0 E0.2598790593
G1 F1500.0 X41.3043654596 Y16.2456790927 Z1.0 E0.189607324835
G1 F1500.0 X41.9454822463 Y15.3198827689 Z1.0 E0.900890072683
G1 F1500.0 X42.6134506398 Y14.1477500370 Z1.0 E1.07928181035
G1 F1500.0 X43.6214528189 Y11.8083391065 Z1.0 E2.03786741792
G1 F1500.0 X44.0673351302 Y9.33142774327 Z1.0 E2.01337939777
G1 F1500.0 X43.8972321404 Y5.97116132334 Z1.0 E2.69165530513
G1 F1500.0 X43.4476002795 Y4.05554636897 Z1.0 E1.57414092660
G1 F1500.0 X42.7076819710 Y2.35597485242 Z1.0 E1.48292088919
G1 F1500.0 X42.5583620611 Y2.12793959080 Z1.0 E0.218059098095
G1 F1500.0 X42.6222120637 Y2.05595091237 Z1.0 E0.076979759032
G1 F1500.0 X42.8580595888 Y3.46471809654 Z1.0 E1.14269828999
G1 F1500.0 X43.1995642196 Y5.07152241316 Z1.0 E1.31415567412
G1 F1500.0 X42.6863122872 Y7.28036100172 Z1.0 E1.81414803478
G1 F1500.0 X42.2422710111 Y8.84457847249 Z1.0 E1.30081794594
G1 F1500.0 X41.6121976347 Y9.73297064424 Z1.0 E0.871314633588
G1 F1500.0 X41.7724574924 Y9.65944222037 Z1.0 E0.141058061511
G1 F1500.0 X42.4891292287 Y8.87900129927 Z1.0 E0.847662728736
G1 F1500.0 X43.6132873767 Y7.42430492497 Z1.0 E1.47075449113
G1 F1500.0 X44.9880623890 Y4.79869688113 Z1.0 E2.37100133234
G1 F1500.0 X45.7638943838 Y2.17829379880 Z1.0 E2.18627392217
G1 F1500.0 X45.7871594711 Y-1.09773747730 Z1.0 E2.62089110786
G1 F1500.0 X45.3461229162 Y-3.60072531644 Z1.0 E2.03323763343
G1 F1500.0 X44.1179266231 Y-6.14402927148 Z1.0 E2.25946700150
G1 F1500.0 X42.7598792372 Y-8.13469164545 Z1.0 E1.92782229714
G1 F1500.0 X41.1003694659 Y-9.69313973669 Z1.0 E1.82124935302
G1 F1500.0 X39.4734773436 Y-10.8855141306 Z1.0 E1.61364871968
G1 F1500.0 X38.5046192026 Y-11.4523747711 Z1.0 E0.89800386033
G1 F1500.0 X37.6297504215 Y-11.9310150699 Z1.0 E0.797793725643
G1 F1500.0 X37.8753145043 Y-11.7348489132 Z1.0 E0.251437950763
G1 F1500.0 X38.1688584475 Y-11.5382757607 Z1.0 E0.282626595605
G1 F1500.0 X39.3366745945 Y-10.1583016829 Z1.0 E1.44623605457
G1 F1500.0 X40.3069610243 Y-8.57328249525 Z1.0 E1.48673959111
G1 F1500.0 X40.8883618011 Y-6.05193191817 Z1.0 E2.07001226598
G1 F1500.0 X40.9295577814 Y-4.27580193783 Z1.0 E1.42128613662
G1 F1500.0 X40.6025075636 Y-2.83387549725 Z1.0 E1.18284097462
G1 F1500.0 X40.5937050338 Y-2.72571080275 Z1.0 E0.0868178255069
G1 F1500.0 X40.8159986976 Y-3.11369579005 Z1.0 E0.357723310567
G1 F1500.0 X41.4832739149 Y-4.53199778399 Z1.0 E1.25394398898
G1 F1500.0 X42.2698707833 Y-6.99378885356 Z1.0 E2.06752410827
G1 F1500.0 X42.5068451426 Y-10.1694234167 Z1.0 E2.54757129528
G1 F1500.0 X41.6426407535 Y-14.1548162572 Z1.0 E3.26241189982
G1 F1500.0 X39.7538229808 Y-17.2518958750 Z1.0 E2.90208584159
G1 F1500.0 X37.0721500175 Y-19.6356725984 Z1.0 E2.87040193418
G1 F1500.0 X34.8560271340 Y-20.7803277430 Z1.0 E1.99542453178
G1 F1500.0 X33.0721206549 Y-21.3677558984 Z1.0 E1.50250865721
G1 F1500.0 X32.2753615476 Y-21.5731311567 Z1.0 E0.65824205724
G1 F1500.0 X32.6068029301 Y-21.3867679832 Z1.0 E0.304194277355
G1 F1500.0 X33.8565778708 Y-20.7464135574 Z1.0 E1.12342083098
G1 F1500.0 X35.8373612187 Y-18.7569087705 Z1.0 E2.24593954944
G1 F1500.0 X37.3199841769 Y-16.3505677829 Z1.0 E2.26113568424
G1 F1500.0 X37.7821273110 Y-14.2559109643 Z1.0 E1.71602582059
G1 F1500.0 X37.8616979324 Y-13.4632254046 Z1.0 E0.637335393182
G1 F1500.0 X37.9438551220 Y-14.0148190250 Z1.0 E0.446142811804
G1 F1500.0 X38.0376784138 Y-15.3252339560 Z1.0 E1.05101553980
G1 F1500.0 X37.9042979728 Y-17.8215682722 Z1.0 E1.99991605590
G1 F1500.0 X37.3239248106 Y-20.2817918243 Z1.0 E2.02220203683
G1 F1500.0 X35.9276058299 Y-23.0605509152 Z1.0 E2.48788537109
G1 F1500.0 X34.1117157186 Y-25.1964187520 Z1.0 E2.24276804866
G1 F1500.0 X31.5667814736 Y-27.0312048528 Z1.0 E2.50990107819
G1 F1500.0 X29.0889929016 Y-28.0105432639 Z1.0 E2.13144682222
G1 F1500.0 X26.3500679488 Y-28.5093693908 Z1.0 E2.22718295997
G1 F1500.0 X24.6975594987 Y-28.5419218195 Z1.0 E1.32226323266
G1 F1500.0 X23.5944065812 Y-28.4660109437 Z1.0 E0.884609317807
G1 F1500.0 X23.9317574002 Y-28.4043434003 Z1.0 E0.274352720152
G1 F1500.0 X25.5037022221 Y-28.1430139801 Z1.0 E1.27481539719
G1 F1500.0 X27.9832730152 Y-26.7743795542 Z1.0 E2.26577054583
G1 F1500.0 X30.3677443414 Y-24.7137658668 Z1.0 E2.52118477218
G1 F1500.0 X31.2734576072 Y-22.9379707266 Z1.0 E1.59474434812
G1 F1500.0 X31.6467328005 Y-22.0903455006 Z1.0 E0.740941193277
G1 F1500.0 X31.5617233158 Y-22.5381690985 Z1.0 E0.364656627316
G1 F1500.0 X31.2302039347 Y-24.0413692258 Z1.0 E1.23145851032
G1 F1500.0 X30.3415927087 Y-26.3441897579 Z1.0 E1.97465740854
G1 F1500.0 X28.1059894580 Y-29.3705960024 Z1.0 E3.01006914485
G1 F1500.0 X24.7706754235 Y-31.6944443301 Z1.0 E3.25203599078
G1 F1500.0 X20.7354532572 Y-32.7306903129 Z1.0 E3.33292171341
G1 F1500.0 X17.7279111665 Y-32.5937758556 Z1.0 E2.40852552353
G1 F1500.0 X15.7091517613 Y-32.0728863625 Z1.0 E1.66790223212
G1 F1500.0 X14.7605645602 Y-31.7342718447 Z1.0 E0.805770178608
G1 F1500.0 X14.9371429629 Y-31.7280435416 Z1.0 E0.141350569163
G1 F1500.0 X16.1044773842 Y-31.9029807692 Z1.0 E0.944295778998
G1 F1500.0 X18.7536201254 Y-31.5687222814 Z1.0 E2.13611774957
G1 F1500.0 X21.6814644840 Y-30.2794135894 Z1.0 E2.55932359707
G1 F1500.0 X23.8005139916 Y-28.3514319073 Z1.0 E2.29189656760
G1 F1500.0 X24.5914519553 Y-27.1121662993 Z1.0 E1.17612573738
G1 F1500.0 X24.7793162798 Y-26.7895858003 Z1.0 E0.298638170619
G1 F1500.0 X24.5339742307 Y-27.5590166676 Z1.0 E0.646079415849
G1 F1500.0 X23.8252542718 Y-29.3288854285 Z1.0 E1.52519520813
G1 F1500.0 X22.3821610129 Y-31.6222632723 Z1.0 E2.16770479001
G1 F1500.0 X19.5109902520 Y-34.2479016088 Z1.0 E3.11256531750
G1 F1500.0 X15.8684533842 Y-35.7847737450 Z1.0 E3.16278872354
G1 F1500.0 X11.8109244776 Y-36.0441654020 Z1.0 E3.25264936782
G1 F1500.0 X8.97532273899 Y-35.3617306836 Z1.0 E2.33325240675
G1 F1500.0 X6.92403169832 Y-34.3996959690 Z1.0 E1.81254397589
G1 F1500.0 X5.99245636775 Y-33.8376575030 Z1.0 E0.870391115279
G1 F1500.0 X6.03359232412 Y-33.7871050204 Z1.0 E0.0521396304
G1 F1500.0 X7.03811021617 Y-34.1930653669 Z1.0 E0.86675855861
G1 F1500.0 X9.86186515709 Y-34.3691220101 Z1.0 E2.26339043497
G1 F1500.0 X12.9699089399 Y-33.8924784212 Z1.0 E2.51550395959
G1 F1500.0 X15.3063056375 Y-32.3812165620 Z1.0 E2.22605113122
G1 F1500.0 X16.3383546378 Y-31.5445809768 Z1.0 E1.06285178387
G1 F1500.0 X16.1689871471 Y-31.8094426621 Z1.0 E0.251506894367
G1 F1500.0 X15.4413713872 Y-32.8083780577 Z1.0 E0.988670741895
G1 F1500.0 X13.4784886558 Y-34.8171719210 Z1.0 E2.24686966632
G1 F1500.0 X11.2145671009 Y-36.3818438717 Z1.0 E2.20160510472
G1 F1500.0 X8.29917065863 Y-37.4396282189 Z1.0 E2.48108932728
G1 F1500.0 X6.35912808199 Y-37.8070994983 Z1.0 E1.57963040544
G1 F1500.0 X4.66160262100 Y-37.8429576118 Z1.0 E1.35832331822
G1 F1500.0 X4.01477031362 Y-37.8168038407 Z1.0 E0.517888669808
G1 F1500.0 X3.11418886038 Y-37.7783256071 Z1.0 E0.721122470986
G1 F1500.0 X2.69651980481 Y-37.7368971096 Z1.0 E0.335774934512
G1 F1500.0 X1.44133577961 Y-37.6135018812 Z1.0 E1.00898787132
G1 F1500.0 X0.0518246505583 Y-37.3729764261 Z1.0 E1.12814004019
G1 F1500.0 X-2.19984854589 Y-36.5551319293 Z1.0 E1.91648040818
G1 F1500.0 X-4.47217210031 Y-35.3399231081 Z1.0 E2.06148479540
G1 F1500.0 X-6.35475999608 Y-33.7061788130 Z1.0 E1.99411255161
