;_project: : CCLegos
;_project_by: : MarieGriesmar
;_project_gcode_generator_by: : JonasWard
;brick_length : 350.0
;brick_width : 250.0
;feed_rate : 25.0
;feed_rate_variable : False
;height_body : 150.0
;height_pin : 260.0
;layer_body_count : 47
;layer_height : 3.2
;layer_pin_count : 34
;layer_total_count : 81
;library_path : /Users/jonas/Dropbox/Clay_Printing_Brick/PatternBrickLibrary
;path_length : 9694.82178726
;pattern_edge_easing : False
;pattern_periodic : True
;pattern_random_dots : True
;pattern_random_seed : 100
;pattern_split : None
;pattern_y_scale_factor : 0.5
;pin_spacing : 220.0
;print_extrusion_nozzle : 3.5
;print_extrusion_rate : 0.64
;print_spacing_cross : 1.6
;print_spacing_link : 2.2
;print_spacing_paths : 1.6
;print_spacing_start_reextrusion_rate : 40
;print_spacing_start_stop_retraction : 130
;shell_count : 1
;shell_direction : outside
;shell_spacing : 1.6
;shell_split_distance : 1.6
;shell_split_type : detached
;start_height : 1.4
/Users/jonas/Documents/HilbertAndCo/src/spacemapping_curve/gcode/GCodeDefinitions/startGcode.txt
/Users/jonas/Documents/HilbertAndCo/src/spacemapping_curve/gcode/GCodeDefinitions/endGcode.txt
;Sliced by ideaMaker 3.3.0.2343, 2020-02-08 22:55:15 UTC+0100
;Dimension: 250.000 210.000 210.000 0.400
;Plate Shape: 0
;Extruder Offset #1: 25.000 0.000
;Filament Diameter #1: 1.750
;Filament Diameter #2: 1.750
;Filament Compensation #1: 94.00
;Filament Compensation #2: 94.00
;Filament Density #1: 1240.00
;Filament Density #2: 1240.00
;Model Gap: 0.200
M221 T0 S94.00
M140 S60.00
M104 T0 S205.00
M109 T0 S205.00
T0
M190 S60.00
M115 U3.1.0 ; tell printer latest fw version
M83  ; extruder relative mode
M104 S205 ; set extruder temp
M140 S60 ; set bed temp
M190 S60 ; wait for bed temp
M109 S205 ; wait for extruder temp
G28 W ; home all without mesh bed level
G80 ; mesh bed leveling
G1 Y-3.0 F1000.0 ; go outside print area
G92 E0.0
G1 X60.0 E9.0  F1000.0 ; intro line
G1 X100.0 E12.5  F1000.0 ; intro line
G92 E0.0
M83
M1001
M106 S0
;LAYER:-2
;Z:0.500
;HEIGHT:0.500
G0 F6000 X93.481 Y70.719
G0 F1500 Z0.500
;TYPE:RAFT
;WIDTH:0.800
G1 F1500.0 X9.43889038264 Y38.6357993870 Z6.0
G1 X6.68909914953 Y39.7491208484 Z6.0 E2.37329630710
G1 F1500.0 X1.17095539579 Y41.0530180362 Z6.0 E4.53608171803
G1 F1500.0 X-1.84764648157 Y39.4291924509 Z6.0 E2.74211793479
G1 F1500.0 X-3.39953068502 Y38.3321144539 Z6.0 E1.52040514865
G1 F1500.0 X-3.58139778599 Y38.0671524104 Z6.0 E0.257098302649
G1 F1500.0 X-3.39749402367 Y38.4265355896 Z6.0 E0.322963144214
G1 F1500.0 X-2.89270294924 Y39.3838203109 Z6.0 E0.865778933953
G1 F1500.0 X-2.33614332260 Y40.3469186890 Z6.0 E0.889878051493
G1 F1500.0 X-0.971546615716 Y42.3244727701 Z6.0 E1.92213952728
G1 F1500.0 X1.27768717207 Y44.7243267645 Z6.0 E2.63130104113
G1 F1500.0 X4.91066604415 Y46.1472075842 Z6.0 E3.12134589555
G1 F1500.0 X8.16646555605 Y47.1957822511 Z6.0 E2.7363905328
G1 F1500.0 X17.7143257560 Y41.7530867920 Z6.0 E8.79216262844
G1 F1500.0 X17.7700864096 Y41.6436824809 Z6.0 E0.0982358103044
G1 F1500.0 X18.7017441129 Y39.5753746536 Z6.0 E1.81476316371
G1 F1500.0 X19.3764868615 Y37.3960576930 Z6.0 E1.82510496211
G1 F1500.0 X19.6659634665 Y35.4916748854 Z6.0 E1.54100654539
G1 F1500.0 X19.8791949617 Y33.6438801746 Z6.0 E1.48804579797
G1 F1500.0 X19.8648383218 Y33.6724309772 Z6.0 E0.025565745061
G1 F1500.0 X19.7128773579 Y34.4618196782 Z6.0 E0.643105791997
G1 F1500.0 X18.7725675007 Y35.8689593494 Z6.0 E1.35392163599
G1 F1500.0 X14.9520405114 Y39.1779894437 Z6.0 E4.04345251614
G1 F1500.0 X9.61679837151 Y40.1519269887 Z6.0 E4.33872704151
G1 F1500.0 X6.10280784864 Y39.2919438747 Z6.0 E2.89415414669
G1 F1500.0 X6.34571234021 Y39.6247484335 Z6.0 E0.329616957255
G1 F1500.0 X6.31023369178 Y39.5843064084 Z6.0 E0.0430388987823
G1 F1500.0 X5.96271253973 Y39.2953943951 Z6.0 E0.361544334278
G1 F1500.0 X7.363568021 Y40.5805594027 Z6.0 E1.52085137761
G1 F1500.0 X9.34216762025 Y42.0373839557 Z6.0 E1.96565619004
G1 F1500.0 X11.9125989810 Y43.2075449284 Z6.0 E2.25940085261
G1 F1500.0 X18.0081692039 Y43.0705048077 Z6.0 E4.87768839268
G1 F1500.0 X22.7036337995 Y41.4126530796 Z6.0 E3.98363533434
G1 F1500.0 X25.4484024016 Y37.3539202886 Z6.0 E3.91976052721
G1 F1500.0 X26.6618628797 Y34.6824861527 Z6.0 E2.34729415962
G1 F1500.0 X26.9231829221 Y32.6626497741 Z6.0 E1.62933648549
G1 F1500.0 X26.9313305970 Y30.7358417399 Z6.0 E1.54146020854
G1 F1500.0 X26.9681633614 Y30.5671280401 Z6.0 E0.138149982326
G1 F1500.0 X26.9789615584 Y29.3909330205 Z6.0 E0.940995668491
G1 F1500.0 X26.9764529915 Y28.5931885541 Z6.0 E0.638198728516
G1 F1500.0 X26.7647839165 Y29.6330295910 Z6.0 E0.848932762239
G1 F1500.0 X26.7247026139 Y30.4834934993 Z6.0 E0.681126300273
G1 F1500.0 X25.1661386100 Y32.5031826204 Z6.0 E2.04090425451
G1 F1500.0 X23.9867955332 Y34.4666498997 Z6.0 E1.83234125204
G1 F1500.0 X22.0892107458 Y35.1577638909 Z6.0 E1.61561709802
G1 F1500.0 X20.5084878631 Y36.1125625473 Z6.0 E1.47736528860
G1 F1500.0 X19.9912546288 Y36.0825898436 Z6.0 E0.414480750084
G1 F1500.0 X19.4953750351 Y36.2303734850 Z6.0 E0.413946142278
G1 F1500.0 X19.5197384824 Y36.2187091307 Z6.0 E0.0216094012839
G1 F1500.0 X19.8721236118 Y36.2498727887 Z6.0 E0.283008356565
G1 F1500.0 X19.7811625942 Y36.2453621989 Z6.0 E0.0728582278326
G1 F1500.0 X19.7118166876 Y36.2009449593 Z6.0 E0.0658810853141
G1 F1500.0 X21.4272995663 Y36.4406453410 Z6.0 E1.38571865084
G1 F1500.0 X21.7226452488 Y36.4391889904 Z6.0 E0.236279418506
G1 F1500.0 X23.3991575440 Y36.6141797705 Z6.0 E1.34849611028
G1 F1500.0 X24.1779467047 Y36.5603241321 Z6.0 E0.624519264236
G1 F1500.0 X25.7243683951 Y36.4330034943 Z6.0 E1.24132331694
G1 F1500.0 X27.0151364628 Y36.2371058804 Z6.0 E1.04443916581
G1 F1500.0 X28.3902733786 Y35.7259491678 Z6.0 E1.17365282013
G1 F1500.0 X30.1874730103 Y35.2055862585 Z6.0 E1.49681348436
G1 F1500.0 X31.3365344763 Y34.3244131500 Z6.0 E1.15842881173
G1 F1500.0 X33.5400110552 Y33.1176820212 Z6.0 E2.00981735307
G1 F1500.0 X34.5074904617 Y31.7086449209 Z6.0 E1.36736873200
G1 F1500.0 X36.7179985784 Y29.1463996534 Z6.0 E2.70719892963
G1 F1500.0 X37.2251907435 Y27.2171964195 Z6.0 E1.59580831134
G1 F1500.0 X38.0365217003 Y23.4883887886 Z6.0 E3.05284279523
G1 F1500.0 X37.9275080690 Y21.7518904782 Z6.0 E1.39193341309
G1 F1500.0 X37.4634697368 Y19.3975031898 Z6.0 E1.91974516269
G1 F1500.0 X36.9353881653 Y17.9375959981 Z6.0 E1.24198528930
G1 F1500.0 X36.9011105204 Y17.8034357633 Z6.0 E0.110775955647
G1 F1500.0 X36.5353615169 Y16.7146676190 Z6.0 E0.918847419121
G1 F1500.0 X35.9954606650 Y15.4191502339 Z6.0 E1.12281310287
G1 F1500.0 X36.1635651483 Y16.9855871991 Z6.0 E1.26034506594
G1 F1500.0 X36.3775711610 Y19.7324137133 Z6.0 E2.20412042832
G1 F1500.0 X33.3772443938 Y23.7919038971 Z6.0 E4.03833005190
G1 F1500.0 X29.8773370488 Y27.1122984178 Z6.0 E3.85948151516
G1 F1500.0 X28.0751776401 Y27.3831576653 Z6.0 E1.45792033061
G1 F1500.0 X28.2515459278 Y27.5372485055 Z6.0 E0.187360204821
G1 F1500.0 X28.1810652927 Y27.5281515017 Z6.0 E0.0568522317086
G1 F1500.0 X28.0171947552 Y27.5067284663 Z6.0 E0.13221194988
G1 F1500.0 X30.7185023554 Y27.8358973980 Z6.0 E2.17703136388
G1 F1500.0 X33.0154443658 Y27.8307516776 Z6.0 E1.83755821938
G1 F1500.0 X36.4306680985 Y26.5660011182 Z6.0 E2.91351028108
G1 F1500.0 X40.5957970826 Y24.1974551326 Z6.0 E3.83318641679
G1 F1500.0 X42.3267252620 Y19.8936834076 Z6.0 E3.71104844895
G1 F1500.0 X43.2416657914 Y14.3290596535 Z6.0 E4.51147186252
G1 F1500.0 X42.4996359814 Y11.9834208099 Z6.0 E1.96816744388
G1 F1500.0 X41.0916629371 Y9.31395171639 Z6.0 E2.41441714168
G1 F1500.0 X39.9826770607 Y7.80884282248 Z6.0 E1.49563684506
G1 F1500.0 X39.6343508387 Y7.35743733005 Z6.0 E0.45613897917
G1 F1500.0 X38.9900167519 Y6.58516859990 Z6.0 E0.804612863722
G1 F1500.0 X38.2486966242 Y5.74727221174 Z6.0 E0.895008697743
G1 F1500.0 X38.5740779995 Y6.34145163226 Z6.0 E0.541950387803
G1 F1500.0 X39.4053723906 Y8.21890864139 Z6.0 E1.64261161537
G1 F1500.0 X39.0067977550 Y12.7941280087 Z6.0 E3.67403812712
G1 F1500.0 X36.4651573834 Y17.7293974900 Z6.0 E4.44103199767
G1 F1500.0 X34.0286317075 Y19.5172750350 Z6.0 E2.41768993682
G1 F1500.0 X33.4326672168 Y19.7391319081 Z6.0 E0.508735937055
G1 F1500.0 X33.1878131396 Y19.8069152736 Z6.0 E0.203250550815
G1 F1500.0 X33.7126162296 Y19.7474976150 Z6.0 E0.422524785679
G1 F1500.0 X35.2292726092 Y19.5804247358 Z6.0 E1.22066471617
G1 F1500.0 X36.6393117776 Y19.3403055543 Z6.0 E1.14427064711
G1 F1500.0 X38.6100723669 Y18.7992428297 Z6.0 E1.63494756807
G1 F1500.0 X42.3310176945 Y16.7269534202 Z6.0 E3.40726917304
G1 F1500.0 X45.1306136710 Y13.6129942100 Z6.0 E3.34993536360
G1 F1500.0 X45.9190609477 Y6.94785113276 Z6.0 E5.36929232423
G1 F1500.0 X44.9211743724 Y2.08462335346 Z6.0 E3.97164043089
G1 F1500.0 X42.5666428177 Y-0.478382672368 Z6.0 E2.78427800115
G1 F1500.0 X40.4570094537 Y-2.10337024078 Z6.0 E2.13033518908
G1 F1500.0 X39.6530316611 Y-2.60994256800 Z6.0 E0.760208735039
G1 F1500.0 X38.7534432049 Y-3.14843430453 Z6.0 E0.838754406321
G1 F1500.0 X38.2495654985 Y-3.42263520840 Z6.0 E0.458923176929
G1 F1500.0 X38.7919951976 Y-2.98569077764 Z6.0 E0.557221917154
G1 F1500.0 X40.1564347752 Y-0.774873310722 Z6.0 E2.07837001256
G1 F1500.0 X41.0704727903 Y4.48968810764 Z6.0 E4.27465628434
G1 F1500.0 X39.1556886244 Y9.63108208730 Z6.0 E4.38910144469
G1 F1500.0 X36.9392777107 Y11.8463912881 Z6.0 E2.50695955371
G1 F1500.0 X36.8776956751 Y11.9635485684 Z6.0 E0.105884995511
G1 F1500.0 X36.5862459360 Y12.0694794933 Z6.0 E0.248082968427
G1 F1500.0 X36.7412039746 Y12.0253101728 Z6.0 E0.128904113409
G1 F1500.0 X38.6263721683 Y11.4890549528 Z6.0 E1.56796505670
G1 F1500.0 X40.5298826872 Y10.8155491613 Z6.0 E1.61531913310
G1 F1500.0 X42.5798954977 Y9.68475187093 Z6.0 E1.87296642325
G1 F1500.0 X44.3957754323 Y8.38598770519 Z6.0 E1.78602724189
G1 F1500.0 X45.9753482763 Y6.16539281288 Z6.0 E2.18006855603
G1 F1500.0 X47.6094005152 Y0.514469043536 Z6.0 E4.70594967531
G1 F1500.0 X47.4912030255 Y-3.15040014251 Z6.0 E2.93341977057
G1 F1500.0 X45.9738504015 Y-5.6635138586 Z6.0 E2.34852798637
G1 F1500.0 X43.5987631118 Y-8.49553969401 Z6.0 E2.95690757016
G1 F1500.0 X40.6555131577 Y-10.1985657653 Z6.0 E2.72035504645
G1 F1500.0 X38.6819954062 Y-10.9742646404 Z6.0 E1.69639260740
G1 F1500.0 X37.9504897612 Y-11.2238095203 Z6.0 E0.618319350948
G1 F1500.0 X37.0729690723 Y-11.5121984004 Z6.0 E0.738955243232
G1 F1500.0 X36.1951888377 Y-11.7711514184 Z6.0 E0.732144163198
G1 F1500.0 X36.6955687648 Y-11.5076398250 Z6.0 E0.452419933286
G1 F1500.0 X38.2097341552 Y-10.3567520762 Z6.0 E1.52152332926
G1 F1500.0 X40.2519842121 Y-5.76864349285 Z6.0 E4.01768296748
G1 F1500.0 X40.4581651709 Y0.0658945810733 Z6.0 E4.67054395967
G1 F1500.0 X38.7991223450 Y2.91377851407 Z6.0 E2.63670897827
G1 F1500.0 X38.1840459221 Y3.62812395341 Z6.0 E0.754128227916
G1 F1500.0 X38.0549057597 Y3.72423887624 Z6.0 E0.128785738188
G1 F1500.0 X38.4233421752 Y3.52407170976 Z6.0 E0.335439806194
G1 F1500.0 X39.7920367088 Y2.78860215444 Z6.0 E1.24302603490
G1 F1500.0 X41.1664029288 Y1.93316241065 Z6.0 E1.29507613046
G1 F1500.0 X43.3040708822 Y0.0217260463155 Z6.0 E2.29409164648
G1 F1500.0 X45.9244338808 Y-3.95371391749 Z6.0 E3.80907759124
G1 F1500.0 X46.4674507098 Y-8.53572533546 Z6.0 E3.69126067666
G1 F1500.0 X44.4752357325 Y-14.2053783510 Z6.0 E4.80758639369
G1 F1500.0 X42.8859633875 Y-16.3985782222 Z6.0 E2.16679114068
G1 F1500.0 X40.8201956495 Y-17.8113155596 Z6.0 E2.00211458326
G1 F1500.0 X40.0882356200 Y-18.2072065197 Z6.0 E0.665730341603
G1 F1500.0 X39.5163795073 Y-18.6221310437 Z6.0 E0.565222377059
G1 F1500.0 X39.8846388120 Y-17.7624019026 Z6.0 E0.748224185226
G1 F1500.0 X40.8015150959 Y-17.4164620311 Z6.0 E0.783974087175
G1 F1500.0 X41.0383259656 Y-15.0564282317 Z6.0 E1.89750807915
G1 F1500.0 X42.6349815108 Y-13.2671312960 Z6.0 E1.91848147513
G1 F1500.0 X42.2227975773 Y-12.8125637622 Z6.0 E0.490894522499
G1 F1500.0 X42.6831164151 Y-11.4939175834 Z6.0 E1.11734576265
G1 F1500.0 X42.7315596230 Y-12.9757260116 Z6.0 E1.18608005450
G1 F1500.0 X42.6960500827 Y-13.7090600518 Z6.0 E0.587354607427
G1 F1500.0 X42.3811601506 Y-16.0827556539 Z6.0 E1.91559268840
G1 F1500.0 X41.7466143130 Y-17.9388923133 Z6.0 E1.56928349887
G1 F1500.0 X40.6968366458 Y-19.9823228230 Z6.0 E1.83784942118
G1 F1500.0 X39.4568482938 Y-21.5751098996 Z6.0 E1.61483954069
G1 F1500.0 X38.1159858717 Y-22.9150761382 Z6.0 E1.51650578483
G1 F1500.0 X37.0467914241 Y-23.7159665765 Z6.0 E1.06871205060
G1 F1500.0 X35.6983469965 Y-24.5745192426 Z6.0 E1.27885324998
G1 F1500.0 X35.2711900329 Y-24.8096029554 Z6.0 E0.390058394468
G1 F1500.0 X34.6689870785 Y-25.1053299801 Z6.0 E0.536717651762
G1 F1500.0 X35.0562563787 Y-24.8823573411 Z6.0 E0.357497353171
G1 F1500.0 X35.2839194702 Y-24.7356384633 Z6.0 E0.216675849776
G1 F1500.0 X34.9503537860 Y-24.9319388412 Z6.0 E0.309631940513
G1 F1500.0 X35.5040549074 Y-24.4712302917 Z6.0 E0.576242892937
G1 F1500.0 X35.5473608278 Y-24.3995001174 Z6.0 E0.0670313151606
G1 F1500.0 X36.1459049034 Y-23.6419773033 Z6.0 E0.772360879144
G1 F1500.0 X36.2600095623 Y-23.5128797575 Z6.0 E0.137837120101
G1 F1500.0 X36.5929454364 Y-22.8262133413 Z6.0 E0.610498583615
G1 F1500.0 X36.5810953829 Y-22.9784600072 Z6.0 E0.122165713138
G1 F1500.0 X36.6550979668 Y-22.7415145501 Z6.0 E0.198586254578
G1 F1500.0 X36.4863652635 Y-23.3585273683 Z6.0 E0.511734645547
G1 F1500.0 X36.4138062393 Y-23.5841704298 Z6.0 E0.1896178949
G1 F1500.0 X36.2819019088 Y-23.9131440764 Z6.0 E0.283546017483
G1 F1500.0 X36.1032516144 Y-24.4307294963 Z6.0 E0.438039701977
G1 F1500.0 X35.9586032540 Y-24.9233738877 Z6.0 E0.410752787629
G1 F1500.0 X35.3955752309 Y-26.3252834259 Z6.0 E1.20859611997
G1 F1500.0 X35.2997366369 Y-26.5379735351 Z6.0 E0.18662838993
G1 F1500.0 X35.0448656908 Y-27.2604334604 Z6.0 E0.612879129536
G1 F1500.0 X35.1004537288 Y-26.9630452784 Z6.0 E0.242031086619
G1 F1500.0 X35.1130864748 Y-27.2904272707 Z6.0 E0.262100506118
G1 F1500.0 X35.1153587559 Y-26.9175963289 Z6.0 E0.298270292975
G1 F1500.0 X35.0731563170 Y-27.5342828428 Z6.0 E0.494503097528
G1 F1500.0 X34.9174301237 Y-27.6618620969 Z6.0 E0.161050776327
G1 F1500.0 X34.5069420052 Y-29.0204786444 Z6.0 E1.13541940618
G1 F1500.0 X34.1548993731 Y-29.8001387637 Z6.0 E0.684364308347
G1 F1500.0 X33.0059736953 Y-31.4977273276 Z6.0 E1.63987065741
G1 F1500.0 X32.3109385132 Y-32.7250399115 Z6.0 E1.12836024968
G1 F1500.0 X31.1025848504 Y-33.7402373112 Z6.0 E1.26256737416
G1 F1500.0 X30.0269868140 Y-35.0448058263 Z6.0 E1.35264130265
G1 F1500.0 X29.5427342562 Y-35.4665538626 Z6.0 E0.513729545021
G1 F1500.0 X28.2736312348 Y-36.5990896757 Z6.0 E1.36076680654
G1 F1500.0 X28.0988178604 Y-36.8482321571 Z6.0 E0.243483639782
G1 F1500.0 X26.5191840707 Y-37.9772909762 Z6.0 E1.55332247296
G1 F1500.0 X25.8564561686 Y-38.3159481602 Z6.0 E0.595394033214
G1 F1500.0 X23.2647013612 Y-39.3608899695 Z6.0 E2.23558083601
G1 F1500.0 X21.8262562822 Y-39.6322086518 Z6.0 E1.17104755090
G1 F1500.0 X18.9322311771 Y-39.5836039753 Z6.0 E2.31554658409
G1 F1500.0 X17.1908252768 Y-39.3224685516 Z6.0 E1.40870123881
G1 F1500.0 X15.9611945737 Y-38.9280458761 Z6.0 E1.03307259398
G1 F1500.0 X13.1975422184 Y-37.9370177007 Z6.0 E2.34877482070
G1 F1500.0 X12.1039141143 Y-37.3147626113 Z6.0 E1.00660977989
G1 F1500.0 X12.0378326127 Y-37.2141312941 Z6.0 E0.0963109193102
G1 F1500.0 X11.6584890199 Y-37.1407898740 Z6.0 E0.309094704265
G1 F1500.0 X12.5891587589 Y-37.1927942903 Z6.0 E0.745697256498
G1 F1500.0 X14.7066679256 Y-37.7259689791 Z6.0 E1.74688208095
G1 F1500.0 X17.4728896833 Y-36.7712509047 Z6.0 E2.34107249467
G1 F1500.0 X21.2876156105 Y-34.6306873958 Z6.0 E3.49940758733
G1 F1500.0 X22.7124347070 Y-32.6655769629 Z6.0 E1.94183722836
G1 F1500.0 X23.3249477149 Y-30.9661059771 Z6.0 E1.44518484720
G1 F1500.0 X23.4754973655 Y-30.4070286657 Z6.0 E0.463194222675
G1 F1500.0 X23.4361691576 Y-31.5388311707 Z6.0 E0.905988474344
G1 F1500.0 X23.4236532530 Y-31.7705317520 Z6.0 E0.185630699612
G1 F1500.0 X23.4208733578 Y-31.6356925181 Z6.0 E0.107894309247
G1 F1500.0 X23.4020806166 Y-34.0033732588 Z6.0 E1.89420425633
G1 F1500.0 X23.1634428518 Y-35.8831864757 Z6.0 E1.51591993734
G1 F1500.0 X22.2532433118 Y-38.3628205052 Z6.0 E2.11312820210
