;_project: : hilbert_TPMS
;_project_by: : WenqianYang, JonasWard
;_project_gcode_generator_by: : JonasWard
;library_path : /Users/jonas/Documents/HilbertAndCo/src/spacemapping_curve
/Users/jonas/Documents/HilbertAndCo/src/spacemapping_curve/gcode/GCodeDefinitions/startGcode.txt
/Users/jonas/Documents/HilbertAndCo/src/spacemapping_curve/gcode/GCodeDefinitions/endGcode.txt
;Sliced by ideaMaker 3.3.0.2343, 2020-02-08 22:55:15 UTC+0100
;Dimension: 250.000 210.000 210.000 0.400
;Plate Shape: 0
;Extruder Offset #1: 25.000 0.000
;Filament Diameter #1: 1.750
;Filament Diameter #2: 1.750
;Filament Compensation #1: 94.00
;Filament Compensation #2: 94.00
;Filament Density #1: 1240.00
;Filament Density #2: 1240.00
;Model Gap: 0.200
M221 T0 S94.00
M140 S60.00
M104 T0 S205.00
M109 T0 S205.00
T0
M190 S60.00
M115 U3.1.0 ; tell printer latest fw version
M83  ; extruder relative mode
M104 S205 ; set extruder temp
M140 S60 ; set bed temp
M190 S60 ; wait for bed temp
M109 S205 ; wait for extruder temp
G28 W ; home all without mesh bed level
G80 ; mesh bed leveling
G1 Y-3.0 F1000.0 ; go outside print area
G92 E0.0
G1 X60.0 E9.0  F1000.0 ; intro line
G1 X100.0 E12.5  F1000.0 ; intro line
G92 E0.0
M83
M1001
M106 S0
;LAYER:-2
;Z:0.500
;HEIGHT:0.500
G0 F6000 X93.481 Y70.719
G0 F1500 Z0.500
;TYPE:RAFT
;WIDTH:0.800
G1 F1500.0 X-28.9335455186 Y36.8913271183 Z-0.000778886364943
G1 X-34.7210140177 Y25.1417838313 Z-0.00552855111661 E10.4780633826
G1 F1500.0 X-41.0410084741 Y13.7573981427 Z-0.00584811093859 E10.4168038872
G1 F1500.0 X-47.1525418502 Y4.02818313274 Z0.000251223243361 E9.19159623549
G1 F1500.0 X-41.5113193945 Y-7.60484439375 Z0.00106625246178 E10.3429425876
G1 F1500.0 X-44.5240269077 Y-20.1150186677 Z0.000493936847863 E10.2942583531
G1 F1500.0 X-37.4648298267 Y-30.5210313621 E10.0595781641
G1 F1500.0 X-26.7827076729 Y-37.8990909076 E10.3859442362
G1 F1500.0 X-15.6521861337 Y-44.5043622908 E10.3543032918
G1 F1500.0 X-3.97509349230 Y-49.9314141945 Z-0.000116654454164 E10.3012973143
G1 F1500.0 X8.61468787673 Y-49.7751197441 Z-0.000720962141937 E10.0726011970
G1 F1500.0 X18.4847587671 Y-41.5797787151 Z-0.00177802253543 E10.2631586586
G1 F1500.0 X27.1141217451 Y-32.0324276735 Z-0.00250979503159 E10.2954069093
G1 F1500.0 X37.4386090544 Y-24.5783883801 Z-0.00231049773729 E10.1872937337
G1 F1500.0 X48.9907232770 Y-19.2559182814 Z-0.00100580098305 E10.1754223945
G1 F1500.0 X53.2301538013 Y-8.12951904143 E9.52536091458
G1 F1500.0 X49.1341580909 Y3.91519151073 E10.1776927254
G1 F1500.0 X42.4614864638 Y14.7597703288 E10.1864046300
G1 F1500.0 X38.9227477479 Y26.7588004769 E10.0079774962
G1 F1500.0 X36.5884032007 Y38.9685500495 E9.94471595461
G1 F1500.0 X26.5920003272 Y46.3682529183 E9.94975128797
G1 F1500.0 X14.7589569421 Y50.6824922031 E10.0759857518
G1 F1500.0 X2.87273124705 Y54.6554455777 E10.0261009703
G1 F1500.0 X-9.05561711668 Y52.1849621620 E9.74519477056
G1 F1500.0 X-18.5713639976 Y44.0268817289 E10.0272816673
G1 F1500.0 X-27.5081864501 Y35.3169714001 Z-0.000777702046809 E9.98332478598
G1 F1500.0 X-33.0301917203 Y24.0971509927 Z-0.0053119156462 E10.0040610230
G1 F1500.0 X-39.0594202668 Y13.2280790485 Z-0.00561650242778 E9.94346649856
G1 F1500.0 X-44.8884788552 Y3.94092079038 Z0.000205494811125 E8.77192855179
G1 F1500.0 X-39.5000423560 Y-7.16131971694 Z0.00098322865353 E9.87262859565
G1 F1500.0 X-42.3707730660 Y-19.0983809790 Z0.000436917030672 E9.82191921553
G1 F1500.0 X-35.6306365724 Y-29.0253334298 E9.59912746311
G1 F1500.0 X-25.4353045942 Y-36.0614033971 E9.91002965838
G1 F1500.0 X-14.8142476383 Y-42.3588219394 E9.87811580929
G1 F1500.0 X-3.67396443 Y-47.5310715743 Z-0.000145990981259 E9.82594365970
G1 F1500.0 X8.33456891159 Y-47.3769580804 Z-0.000722430113142 E9.60761778815
G1 F1500.0 X17.7469099523 Y-39.5561419798 Z-0.00173053501045 E9.79003017323
G1 F1500.0 X25.9741973305 Y-30.4476476600 Z-0.00242824319767 E9.81926031799
G1 F1500.0 X35.8160659396 Y-23.3369573824 Z-0.00223804313093 E9.71347250707
G1 F1500.0 X46.8262965689 Y-18.2599383666 Z-0.000994005008028 E9.69952748197
G1 F1500.0 X50.8631115980 Y-7.65112894277 E9.08071235220
G1 F1500.0 X46.9538070864 Y3.83080449866 E9.70335883516
G1 F1500.0 X40.5894903096 Y14.1665024617 E9.71040449561
G1 F1500.0 X37.2131025672 Y25.6002079707 E9.53745008615
G1 F1500.0 X34.9850662317 Y37.2322849885 E9.47482936322
G1 F1500.0 X25.4571559037 Y44.2789197710 E9.48046030871
G1 F1500.0 X14.1815149059 Y48.3845513194 E9.59987634334
G1 F1500.0 X2.85761576957 Y52.1641794459 E9.55041462300
G1 F1500.0 X-8.50397546992 Y49.8057033067 E9.28303968123
G1 F1500.0 X-17.5653975175 Y42.0309529833 E9.55174914627
G1 F1500.0 X-26.0828273816 Y33.7426156819 Z-0.000776517728676 E9.50766081726
G1 F1500.0 X-31.3393694228 Y23.0525181541 Z-0.00509528017579 E9.53005982899
G1 F1500.0 X-37.0778320596 Y12.6987599543 Z-0.00538489391697 E9.47013030116
G1 F1500.0 X-42.6244158602 Y3.85365844802 Z0.000159766378889 E8.35226218967
G1 F1500.0 X-37.4887653175 Y-6.71779504013 Z0.000900204845283 E9.40231583038
G1 F1500.0 X-40.2175192243 Y-18.0817432903 Z0.000379897213481 E9.34958114100
G1 F1500.0 X-33.7964433181 Y-27.5296354974 E9.13867852522
G1 F1500.0 X-24.0879015155 Y-34.2237158866 E9.43411668164
G1 F1500.0 X-13.9763091428 Y-40.2132815880 E9.40192993309
G1 F1500.0 X-3.37283536770 Y-45.1307289541 Z-0.000175327508354 E9.35059167175
G1 F1500.0 X8.05444994646 Y-44.9787964167 Z-0.000723898084346 E9.14263623945
G1 F1500.0 X17.0090611376 Y-37.5325052444 Z-0.00168304748548 E9.31690299539
G1 F1500.0 X24.8342729160 Y-28.8628676466 Z-0.00234669136374 E9.34311488597
G1 F1500.0 X34.1935228247 Y-22.0955263847 Z-0.00216558852458 E9.23965251788
G1 F1500.0 X44.6618698609 Y-17.2639584519 Z-0.000982209033005 E9.22363363568
G1 F1500.0 X48.4960693947 Y-7.17273884410 Z-0.000123072791778 E8.63606577006
G1 F1500.0 X44.7734560819 Y3.74641748658 E9.22902637903
G1 F1500.0 X38.7174941554 Y13.5732345946 E9.23440555592
G1 F1500.0 X35.5034573865 Y24.4416154644 E9.06692397967
G1 F1500.0 X33.3817292627 Y35.4960199274 E9.00494400247
G1 F1500.0 X24.3223114803 Y42.1895866237 E9.01117122418
G1 F1500.0 X13.6040728697 Y46.0866104357 E9.12376881800
G1 F1500.0 X2.84250029209 Y49.6729133141 E9.07473019510
G1 F1500.0 X-7.95233382315 Y47.4264444514 Z-0.000101088926751 E8.82088670108
G1 F1500.0 X-16.5594310373 Y40.0350242377 Z-0.000102644141008 E9.07621825138
G1 F1500.0 X-24.6574683131 Y32.1682599637 Z-0.000775333410543 E9.03200312892
G1 F1500.0 X-29.6485471253 Y22.0078853155 Z-0.00487864470538 E9.05605998356
G1 F1500.0 X-35.0962438523 Y12.1694408602 Z-0.00515328540615 E8.99679548301
G1 F1500.0 X-40.3603528652 Y3.76639610566 Z0.000114037946653 E7.93259735887
G1 F1500.0 X-35.4774882790 Y-6.27427036331 Z0.000817181037036 E8.93200448555
G1 F1500.0 X-38.0642653826 Y-17.0651056017 Z0.00032287739629 E8.87724429924
G1 F1500.0 X-31.9622500638 Y-26.0339375651 E8.67823163108
G1 F1500.0 X-22.7404984369 Y-32.3860283761 Z-0.000107629965428 E8.95820556114
G1 F1500.0 X-13.1383706474 Y-38.0677412367 Z-0.00011353467923 E8.92574592032
G1 F1500.0 X-3.07170630541 Y-42.7303863339 Z-0.00020466403545 E8.87524161822
G1 F1500.0 X7.77433098133 Y-42.5806347530 Z-0.000725366055551 E8.67765684991
G1 F1500.0 X16.2712123229 Y-35.5088685091 Z-0.0016355599605 E8.84377733487
G1 F1500.0 X23.6943485014 Y-27.2780876331 Z-0.00226513952982 E8.86697079995
G1 F1500.0 X32.5709797099 Y-20.8540953870 Z-0.00209313391823 E8.76583396677
G1 F1500.0 X42.4974431528 Y-16.2679785372 Z-0.000970413057981 E8.74774102966
G1 F1500.0 X46.1290271914 Y-6.69434874543 Z-0.000155513822215 E8.19142149063
G1 F1500.0 X42.5931050774 Y3.66203047451 Z-0.000124417140616 E8.75469559016
G1 F1500.0 X36.8454980012 Y12.9799667275 Z-0.000125972354874 E8.75840800575
G1 F1500.0 X33.7938122058 Y23.2830229581 Z-0.000127527569132 E8.59639939085
G1 F1500.0 X31.7783922937 Y33.7597548663 Z-0.000129082783389 E8.53506007559
G1 F1500.0 X23.1874670569 Y40.1002534764 Z-0.000130637997647 E8.54188434664
G1 F1500.0 X13.0266308334 Y43.7886695521 Z-0.000132193211905 E8.64766348678
G1 F1500.0 X2.82738481461 Y47.1816471823 Z-0.000133748426162 E8.59904800506
G1 F1500.0 X-7.40069217639 Y45.0471855961 Z-0.00013530364042 E8.35873617996
G1 F1500.0 X-15.5534645572 Y38.0390954921 Z-0.000136858854678 E8.60068925232
G1 F1500.0 X-23.2321092446 Y30.5939042455 Z-0.00077414909241 E8.55635276837
G1 F1500.0 X-27.9577248278 Y20.9632524768 Z-0.00466200923497 E8.58206171019
G1 F1500.0 X-33.1146556450 Y11.6401217660 Z-0.00492167689534 E8.52346227389
G1 F1500.0 X-38.0962898702 Y3.67913376330 E7.51293431600
G1 F1500.0 X-33.4662112405 Y-5.83074568650 Z0.000734157228789 E8.46169479802
G1 F1500.0 X-35.9110115409 Y-16.0484679130 Z0.000265857579098 E8.40490889806
G1 F1500.0 X-30.1280568095 Y-24.5382396327 E8.21778712422
G1 F1500.0 X-21.3930953582 Y-30.5483408656 Z-0.000141993312103 E8.48229660929
G1 F1500.0 X-12.3004321519 Y-35.9222008853 Z-0.000147666131834 E8.44956408604
G1 F1500.0 X-2.77057724311 Y-40.3300437136 Z-0.000234000562545 E8.39989382750
G1 F1500.0 X7.49421201620 Y-40.1824730893 Z-0.000726834026755 E8.21267998627
G1 F1500.0 X15.5333635082 Y-33.4852317737 Z-0.00158807243553 E8.37065344896
G1 F1500.0 X22.5544240868 Y-25.6933076197 Z-0.0021835876959 E8.39082828906
G1 F1500.0 X30.9484365951 Y-19.6126643892 Z-0.00202067931188 E8.29201710027
G1 F1500.0 X40.3330164447 Y-15.2719986225 Z-0.000958617082958 E8.27184987798
G1 F1500.0 X43.7619849881 Y-6.21595864676 Z-0.000187954852653 E7.74677991042
G1 F1500.0 X40.4127540729 Y3.57764346243 Z-0.000158631854286 E8.28036675507
G1 F1500.0 X34.9735018470 Y12.3866988604 Z-0.000160187068543 E8.28241208466
G1 F1500.0 X32.0841670251 Y22.1244304519 Z-0.000161742282801 E8.12587658330
G1 F1500.0 X30.1750553247 Y32.0234898052 Z-0.000163297497059 E8.06517783322
G1 F1500.0 X22.0526226335 Y38.0109203291 Z-0.000164852711316 E8.07260006101
G1 F1500.0 X12.4491887972 Y41.4907286684 Z-0.000166407925574 E8.17156073320
G1 F1500.0 X2.81226933713 Y44.6903810506 Z-0.000167963139832 E8.12336844603
G1 F1500.0 X-6.84905052963 Y42.6679267408 Z-0.000169518354089 E7.89658854962
G1 F1500.0 X-14.5474980770 Y36.0431667464 Z-0.000171073568347 E8.12516248195
G1 F1500.0 X-21.8067501761 Y29.0195485273 Z-0.000772964774277 E8.08071102961
G1 F1500.0 X-26.2669025304 Y19.9186196382 Z-0.00444537376456 E8.10806528459
G1 F1500.0 X-31.1330674378 Y11.1108026718 Z-0.00469006838453 E8.05013095764
G1 F1500.0 X-35.8322268752 Y3.59187142094 E7.09327337841
G1 F1500.0 X-31.4549342020 Y-5.38722100969 Z0.000651133420542 E7.99138706038
G1 F1500.0 X-33.7577576992 Y-15.0318302243 Z0.000208837761907 E7.93257519481
G1 F1500.0 X-28.2938635551 Y-23.0425417004 Z-0.000125852362634 E7.75734542976
G1 F1500.0 X-20.0456922795 Y-28.7106533551 Z-0.000176356658777 E8.00639021283
G1 F1500.0 X-11.4624936564 Y-33.7766605339 Z-0.000181797584439 E7.97338482055
G1 F1500.0 X-2.46944818082 Y-37.9297010934 Z-0.00026333708964 E7.92454870680
G1 F1500.0 X7.21409305106 Y-37.7843114255 Z-0.00072830199796 E7.74770610330
G1 F1500.0 X14.7955146935 Y-31.4615950383 Z-0.00154058491055 E7.89753165661
G1 F1500.0 X21.4144996722 Y-24.1085276062 Z-0.00210203586198 E7.91468763760
G1 F1500.0 X29.3258934803 Y-18.3712333915 Z-0.00194822470553 E7.81820222466
G1 F1500.0 X38.1685897366 Y-14.2760187077 Z-0.000946821107934 E7.79596044697
G1 F1500.0 X41.3949427849 Y-5.73756854810 Z-0.000220395883091 E7.30214152250
G1 F1500.0 X38.2324030684 Y3.49325645036 Z-0.000192846567955 E7.80604022991
G1 F1500.0 X33.1015056928 Y11.7934309933 Z-0.000194401782213 E7.80641809066
G1 F1500.0 X30.3745218444 Y20.9658379456 Z-0.00019595699647 E7.65535588550
G1 F1500.0 X28.5717183556 Y30.2872247441 Z-0.000197512210728 E7.59529758799
G1 F1500.0 X20.9177782101 Y35.9215871818 Z-0.000199067424986 E7.60331884720
G1 F1500.0 X11.8717467610 Y39.1927877847 Z-0.000200622639243 E7.69546103568
G1 F1500.0 X2.79715385965 Y42.1991149188 Z-0.000202177853501 E7.64769200895
G1 F1500.0 X-6.29740888286 Y40.2886678855 Z-0.000203733067759 E7.43444434914
G1 F1500.0 X-13.5415315968 Y34.0472380008 Z-0.000205288282017 E7.64963835591
G1 F1500.0 X-20.3813911076 Y27.4451928091 Z-0.000771780456143 E7.60507953032
G1 F1500.0 X-24.5760802329 Y18.8739867996 Z-0.00422873829415 E7.63407105093
G1 F1500.0 X-29.1514792305 Y10.5814835776 Z-0.00445845987372 E7.57680188899
G1 F1500.0 X-33.5681638802 Y3.50460907858 E6.67361494326
G1 F1500.0 X-29.4436571634 Y-4.94369633288 Z0.000568109612294 E7.52108163844
G1 F1500.0 X-31.6045038575 Y-14.0151925357 Z0.000151817944716 E7.46024351198
G1 F1500.0 X-26.4596703008 Y-21.5468437680 Z-0.000163125793548 E7.29690708008
G1 F1500.0 X-18.6982892008 Y-26.8729658446 Z-0.000210720005452 E7.53048685624
G1 F1500.0 X-10.6245551610 Y-31.6311201825 Z-0.000215929037043 E7.49720861331
G1 F1500.0 X-2.16831911852 Y-35.5293584732 Z-0.000292673616735 E7.44920676724
G1 F1500.0 X6.93397408593 Y-35.3861497618 Z-0.000729769969165 E7.28273577193
G1 F1500.0 X14.0576658788 Y-29.4379583030 Z-0.00149309738558 E7.42441235805
G1 F1500.0 X20.2745752577 Y-22.5237475927 Z-0.00202048402806 E7.43854920261
G1 F1500.0 X27.7033503654 Y-17.1298023938 Z-0.00187577009918 E7.34438972527
G1 F1500.0 X36.0041630286 Y-13.280038793 Z-0.00093502513291 E7.32007307222
G1 F1500.0 X39.0279005816 Y-5.25917844943 Z-0.000252836913529 E6.85750694785
G1 F1500.0 X36.0520520639 Y3.40886943828 Z-0.000227061281624 E7.33171646301
G1 F1500.0 X31.2295095386 Y11.2001631262 Z-0.000228616495882 E7.33042639914
G1 F1500.0 X28.6648766637 Y19.8072454393 Z-0.00023017171014 E7.18483771191
G1 F1500.0 X26.9683813866 Y28.5509596830 Z-0.000231726924398 E7.12541973499
G1 F1500.0 X19.7829337867 Y33.8322540345 Z-0.000233282138655 E7.13404131142
G1 F1500.0 X11.2943047248 Y36.8948469010 Z-0.000234837352913 E7.21936499883
G1 F1500.0 X2.78203838217 Y39.7078487870 Z-0.000236392567171 E7.17201931499
G1 F1500.0 X-5.74576723610 Y37.9094090302 Z-0.000237947781428 E6.97230426057
G1 F1500.0 X-12.5355651167 Y32.0513092552 Z-0.000239502995686 E7.17411740000
G1 F1500.0 X-18.9560320390 Y25.8708370910 Z-0.00077059613801 E7.12946031983
G1 F1500.0 X-22.8852579354 Y17.8293539610 Z-0.00401210282373 E7.16007944454
G1 F1500.0 X-27.1698910233 Y10.0521644835 Z-0.00422685136291 E7.10347551725
G1 F1500.0 X-31.3041008852 Y3.41734673622 E6.25395951431
G1 F1500.0 X-27.4323801249 Y-4.50017165607 Z0.000485085804047 E7.05077899558
G1 F1500.0 X-29.4512500158 Y-12.9985548470 E6.98791425928
G1 F1500.0 X-24.6254770465 Y-20.0511458357 Z-0.000200399224461 E6.83647275100
G1 F1500.0 X-17.3508861221 Y-25.0352783341 Z-0.000245083352126 E7.05458715473
G1 F1500.0 X-9.78661666554 Y-29.4855798312 Z-0.000250060489647 E7.02103608657
G1 F1500.0 X-1.86719005622 Y-33.1290158530 Z-0.00032201014383 E6.97386865932
G1 F1500.0 X6.65385512080 Y-32.9879880981 Z-0.000731237940369 E6.81776971879
G1 F1500.0 X13.3198170640 Y-27.4143215676 Z-0.0014456098606 E6.95129606248
G1 F1500.0 X19.1346508431 Y-20.9389675793 Z-0.00193893219414 E6.96241343884
G1 F1500.0 X26.0808072506 Y-15.8883713961 Z-0.00180331549283 E6.87058009369
G1 F1500.0 X33.8397363205 Y-12.2840588783 Z-0.000923229157887 E6.84418818266
G1 F1500.0 X36.6608583783 Y-4.78078835076 Z-0.000285277943966 E6.41287697963
G1 F1500.0 X33.8717010594 Y3.32448242620 Z-0.000261275995294 E6.85739602674
G1 F1500.0 X29.3575133844 Y10.6068952591 Z-0.000262831209552 E6.85443748979
G1 F1500.0 X26.9552314830 Y18.6486529331 Z-0.000264386423809 E6.71432259322
G1 F1500.0 X25.3650444176 Y26.8146946219 Z-0.000265941638067 E6.65554478090
G1 F1500.0 X18.6480893632 Y31.7429208872 Z-0.000267496852325 E6.66476823060
G1 F1500.0 X10.7168626886 Y34.5969060174 Z-0.000269052066582 E6.74327339802
G1 F1500.0 X2.76692290469 Y37.2165826552 Z-0.00027060728084 E6.69635116183
G1 F1500.0 X-5.19412558933 Y35.5301501749 Z-0.000272162495098 E6.51016915958
G1 F1500.0 X-11.5295986365 Y30.0553805096 Z-0.000273717709355 E6.69860028936
G1 F1500.0 X-17.5306729705 Y24.2964813728 Z-0.000769411819877 E6.65385603337
G1 F1500.0 X-21.1944356379 Y16.7847211224 Z-0.00379546735332 E6.68609102417
G1 F1500.0 X-25.1883028160 Y9.52284538931 Z-0.00399524285209 E6.63015242002
