;_project: : hilbert_TPMS
;_project_by: : WenqianYang, JonasWard
;_project_gcode_generator_by: : JonasWard
;library_path : /Users/jonas/Documents/HilbertAndCo/src/spacemapping_curve
/Users/jonas/Documents/HilbertAndCo/src/spacemapping_curve/gcode/GCodeDefinitions/startGcode.txt
/Users/jonas/Documents/HilbertAndCo/src/spacemapping_curve/gcode/GCodeDefinitions/endGcode.txt
;Sliced by ideaMaker 3.3.0.2343, 2020-02-08 22:55:15 UTC+0100
;Dimension: 250.000 210.000 210.000 0.400
;Plate Shape: 0
;Extruder Offset #1: 25.000 0.000
;Filament Diameter #1: 1.750
;Filament Diameter #2: 1.750
;Filament Compensation #1: 94.00
;Filament Compensation #2: 94.00
;Filament Density #1: 1240.00
;Filament Density #2: 1240.00
;Model Gap: 0.200
M221 T0 S94.00
M140 S60.00
M104 T0 S205.00
M109 T0 S205.00
T0
M190 S60.00
M115 U3.1.0 ; tell printer latest fw version
M83  ; extruder relative mode
M104 S205 ; set extruder temp
M140 S60 ; set bed temp
M190 S60 ; wait for bed temp
M109 S205 ; wait for extruder temp
G28 W ; home all without mesh bed level
G80 ; mesh bed leveling
G1 Y-3.0 F1000.0 ; go outside print area
G92 E0.0
G1 X60.0 E9.0  F1000.0 ; intro line
G1 X100.0 E12.5  F1000.0 ; intro line
G92 E0.0
M83
M1001
M106 S0
;LAYER:-2
;Z:0.500
;HEIGHT:0.500
G0 F6000 X93.481 Y70.719
G0 F1500 Z0.500
;TYPE:RAFT
;WIDTH:0.800
G1 F1500.0 X-30.4038602534 Y38.5153378406 Z-0.000780108036338
G1 X-36.3522340450 Y26.1495928778 Z-0.00573755008621 E10.9776448862
G1 F1500.0 X-42.8203938031 Y14.2327050844 Z-0.00605608592789 E10.8472833226
G1 F1500.0 X-49.0343604435 Y4.10071287185 Z0.000289231290934 E9.50858770977
G1 F1500.0 X-43.0486962774 Y-7.94386511146 Z0.00112971407402 E10.7599266915
G1 F1500.0 X-46.0261112202 Y-20.8242130479 Z0.000533713195292 E10.5759988823
G1 F1500.0 X-38.6218348480 Y-31.4645142879 E10.3703984657
G1 F1500.0 X-27.5426530086 Y-38.9355603012 E10.6902512231
G1 F1500.0 X-16.0688234561 Y-45.5711615750 E10.6035456368
G1 F1500.0 X-4.10470748571 Y-50.9645857861 Z-0.000104027229143 E10.4988866667
G1 F1500.0 X8.71654931859 Y-50.6471785310 Z-0.000720428334226 E10.2601481093
G1 F1500.0 X18.7037862445 Y-42.1804872080 Z-0.0017921190178 E10.4744951809
G1 F1500.0 X27.3763678071 Y-32.3970152832 Z-0.00252855649245 E10.4592158606
G1 F1500.0 X37.7035140527 Y-24.7810709920 Z-0.00232232706077 E10.2653610031
G1 F1500.0 X49.1995362433 Y-19.3520053974 Z-0.0010069389992 E10.1708062584
G1 F1500.0 X53.3004185049 Y-8.14371986069 E9.54795562281
G1 F1500.0 X49.0532545286 Y3.91206026724 E10.2256222918
G1 F1500.0 X42.2669933569 Y14.6981321089 E10.1946711245
G1 F1500.0 X38.6309344703 Y26.5610444276 E9.92611466094
G1 F1500.0 X36.2076478537 Y38.5562273634 E9.79001063743
G1 F1500.0 X26.2467044358 Y45.7325374523 E9.82144006606
G1 F1500.0 X14.5446927357 Y49.8298239717 E9.91886556903
G1 F1500.0 X2.86611296748 Y53.5646500172 E9.80899671912
G1 F1500.0 X-8.77723765858 Y50.9842972109 E9.54067785958
G1 F1500.0 X-17.9965260090 Y42.8863510171 E9.81662297108
G1 F1500.0 X-28.1640102887 Y36.0413502834 Z-0.000778246964986 E9.80552569594
G1 F1500.0 X-33.6952275775 Y24.5080269886 Z-0.00539712291842 E10.2328704010
G1 F1500.0 X-39.7064694774 Y13.4009179364 Z-0.00569212969661 E10.1035566257
G1 F1500.0 X-45.4765471656 Y3.96358633385 Z0.000217372325991 E8.84921001589
G1 F1500.0 X-39.8881180740 Y-7.24689776218 Z0.00099924808963 E10.0209538545
G1 F1500.0 X-42.6424266119 Y-19.2266395371 Z0.00044411062542 E9.83383315129
G1 F1500.0 X-35.7395311627 Y-29.1141318228 E9.64696742260
G1 F1500.0 X-25.4253053135 Y-36.0477656419 E9.94250778214
G1 F1500.0 X-14.7520629633 Y-42.1995981657 E9.85537483948
G1 F1500.0 X-3.63150467353 Y-47.1926188115 Z-0.000150127486007 E9.75203189021
G1 F1500.0 X8.27636237338 Y-46.8786387737 Z-0.000722735146119 E9.52960461380
G1 F1500.0 X17.5443095357 Y-39.0004866239 Z-0.00171749576426 E9.73110894033
G1 F1500.0 X25.5850580128 Y-29.9066466907 Z-0.00240040361058 E9.71107610988
G1 F1500.0 X35.1538034437 Y-22.8302508527 Z-0.00220846982222 E9.52088289064
G1 F1500.0 X45.7982942734 Y-17.7868941029 Z-0.000988402467015 E9.42305712836
G1 F1500.0 X49.5807807569 Y-7.39196399135 Z-0.00010820649397 E8.84938060821
G1 F1500.0 X45.6269886644 Y3.77945210541 E9.48035474504
G1 F1500.0 X39.3252851146 Y13.7658540320 E9.44676676351
G1 F1500.0 X35.9443491863 Y24.7403990606 E9.18682069356
G1 F1500.0 X33.6881183310 Y35.8278108389 E9.05171904512
G1 F1500.0 X24.4633774847 Y42.4492996494 E9.08413853702
G1 F1500.0 X13.6372838216 Y46.2187740116 E9.17084915479
G1 F1500.0 X2.84236007430 Y49.6498032387 E9.06164983718
G1 F1500.0 X-7.91037221366 Y47.2454618668 Z-0.000103691530202 E8.81461002070
G1 F1500.0 X-16.4157215402 Y39.7498915597 Z-0.000107531957247 E9.06949317725
G1 F1500.0 X-25.9241603239 Y33.5673627263 Z-0.000776385893634 E9.07335691183
G1 F1500.0 X-31.0382211101 Y22.8664610993 Z-0.00505669575063 E9.48811236614
G1 F1500.0 X-36.5925451517 Y12.5691307884 Z-0.00532817346534 E9.35984708132
G1 F1500.0 X-41.9187338878 Y3.82645979586 Z0.000145513361049 E8.18985176902
G1 F1500.0 X-36.7275398706 Y-6.54993041291 Z0.000868782105241 E9.28199873686
G1 F1500.0 X-39.2587420035 Y-17.6290660264 Z0.000354508055548 E9.09168342407
G1 F1500.0 X-32.8572274773 Y-26.7637493577 E8.92356262282
G1 F1500.0 X-23.3079576184 Y-33.1599709826 E9.19478829480
G1 F1500.0 X-13.4353024704 Y-38.8280347564 Z-0.000101439860218 E9.10722848257
G1 F1500.0 X-3.15830186136 Y-43.4206518369 Z-0.000196227742871 E9.00520287571
G1 F1500.0 X7.83617542818 Y-43.1100990164 Z-0.000725041958012 E8.79908992399
G1 F1500.0 X16.3848328268 Y-35.8204860397 Z-0.00164287251073 E8.98774281828
G1 F1500.0 X23.7937482184 Y-27.4162780981 Z-0.0022722507287 E8.96295447011
G1 F1500.0 X32.6040928347 Y-20.8794307134 Z-0.00209461258367 E8.77642463948
G1 F1500.0 X42.3970523036 Y-16.2217828083 Z-0.000969865934835 E8.67532557760
G1 F1500.0 X45.8611430089 Y-6.64020812202 Z-0.000159185256087 E8.15083793641
G1 F1500.0 X42.2007228002 Y3.64684394358 Z-0.000130574519514 E8.73511044208
G1 F1500.0 X36.3835768723 Y12.8335759551 Z-0.000134414946558 E8.69888201730
G1 F1500.0 X33.2577639024 Y22.9197536937 Z-0.000138255373603 E8.44754877949
G1 F1500.0 X31.1685888082 Y33.0993943143 Z-0.000142095800648 E8.31344879535
G1 F1500.0 X22.6800505336 Y39.1660618465 Z-0.000145936227692 E8.34686957316
G1 F1500.0 X12.7298749076 Y42.6077240515 Z-0.000149776654737 E8.42286540213
G1 F1500.0 X2.81860718112 Y45.7349564602 Z-0.000153617081781 E8.31433693744
G1 F1500.0 X-7.04350676875 Y43.5066265228 Z-0.000157457508826 E8.08857943998
G1 F1500.0 X-14.8349170713 Y36.6134321023 Z-0.00016129793587 E8.32239211079
G1 F1500.0 X-23.6843103591 Y31.0933751691 Z-0.000774524822281 E8.34391909770
G1 F1500.0 X-28.3812146426 Y21.2248952101 Z-0.00471626858284 E8.74337498546
G1 F1500.0 X-33.4786208260 Y11.7373436404 Z-0.00496421723406 E8.61615913118
G1 F1500.0 X-38.3609206099 Y3.68933325786 E7.53051807739
G1 F1500.0 X-33.5669616673 Y-5.85296306363 Z0.000738316120853 E8.54306593668
G1 F1500.0 X-35.8750573951 Y-16.0314925156 Z0.000264905485676 E8.34955396816
G1 F1500.0 X-29.9749237919 Y-24.4133668926 E8.20019101177
G1 F1500.0 X-21.1906099233 Y-30.2721763232 Z-0.000147157377187 E8.44709912203
G1 F1500.0 X-12.1185419776 Y-35.4564713470 Z-0.000155075000025 E8.35911312835
G1 F1500.0 X-2.68509904918 Y-39.6486848623 Z-0.000242327999735 E8.25840661234
G1 F1500.0 X7.39598848297 Y-39.3415592591 Z-0.000727348769905 E8.06861186384
G1 F1500.0 X15.2253561180 Y-32.6404854556 Z-0.0015682492572 E8.24440225673
G1 F1500.0 X22.0024384241 Y-24.9259095055 Z-0.00214409784682 E8.21485588936
G1 F1500.0 X30.0543822257 Y-18.9286105742 Z-0.00198075534511 E8.03199177223
G1 F1500.0 X38.9958103338 Y-14.6566715137 Z-0.000951329402655 E7.92761658036
G1 F1500.0 X42.1415052609 Y-5.88845225269 Z-0.000210164018203 E7.45233670235
G1 F1500.0 X38.7744569360 Y3.51423578174 Z-0.000184340498137 E7.98989588701
G1 F1500.0 X33.4418686300 Y11.9012978782 Z-0.000188180925182 E7.95102242086
G1 F1500.0 X30.5711786184 Y21.0991083267 Z-0.000192021352226 E7.70830526383
G1 F1500.0 X28.6490592855 Y30.3709777897 Z-0.000195861779271 E7.57520612819
G1 F1500.0 X20.8967235825 Y35.8828240436 Z-0.000199702206315 E7.60964263984
G1 F1500.0 X11.8224659935 Y38.9966740915 Z-0.00020354263336 E7.67492386046
G1 F1500.0 X2.79485428794 Y41.8201096817 Z-0.000207383060405 E7.56706808802
G1 F1500.0 X-6.17664132383 Y39.7677911787 Z-0.000211223487449 E7.36259713957
G1 F1500.0 X-13.2541126025 Y33.4769726449 Z-0.000215063914494 E7.57532827121
G1 F1500.0 X-21.4444603943 Y28.6193876120 Z-0.000772663750929 E7.61799678082
G1 F1500.0 X-25.7242081751 Y19.5833293208 Z-0.00437584141506 E7.99866402811
G1 F1500.0 X-30.3646965003 Y10.9055564924 Z-0.00460026100279 E7.87249889505
G1 F1500.0 X-34.8031073320 Y3.55220671987 E6.87121600967
G1 F1500.0 X-30.4063834639 Y-5.15599571436 Z0.000607850136465 E7.80416179331
G1 F1500.0 X-32.4913727867 Y-14.4339190048 Z0.000175302915804 E7.60745071613
G1 F1500.0 X-27.0926201066 Y-22.0629844274 Z-0.000150263348 E7.47686222230
G1 F1500.0 X-19.0732622283 Y-27.3843816639 Z-0.000201156921962 E7.69944909533
G1 F1500.0 X-10.8017814847 Y-32.0849079377 Z-0.000208710139832 E7.61103791893
G1 F1500.0 X-2.21189623700 Y-35.8767178877 Z-0.000288428256599 E7.51165286830
G1 F1500.0 X6.95580153776 Y-35.5730195018 Z-0.000729655581798 E7.33818137223
G1 F1500.0 X14.0658794092 Y-29.4604848715 Z-0.00149362600366 E7.50109485463
G1 F1500.0 X20.2111286298 Y-22.4355409130 Z-0.00201594496494 E7.46678729850
G1 F1500.0 X27.5046716167 Y-16.9777904349 Z-0.00186689810656 E7.28759206785
G1 F1500.0 X35.5945683640 Y-13.0915602192 Z-0.000932792870475 E7.17993718274
G1 F1500.0 X38.4218675129 Y-5.13669638335 Z-0.00026114278032 E6.75388976278
G1 F1500.0 X35.3481910717 Y3.38162761991 Z-0.000238106476761 E7.24472025971
G1 F1500.0 X30.5001603877 Y10.9690198013 Z-0.000241946903805 E7.20319580759
G1 F1500.0 X27.8845933344 Y19.2784629597 Z-0.00024578733085 E6.96909918364
G1 F1500.0 X26.1295297628 Y27.6425612651 Z-0.000249627757894 E6.83699997854
G1 F1500.0 X19.1133966315 Y32.5995862407 Z-0.000253468184939 E6.87247126323
G1 F1500.0 X10.9150570795 Y35.3856241314 Z-0.000257308611983 E6.92703820290
G1 F1500.0 X2.77110139476 Y37.9052629031 Z-0.000261149039028 E6.81985776905
G1 F1500.0 X-5.30977587892 Y36.0289558347 Z-0.000264989466072 E6.63667896356
G1 F1500.0 X-11.6733081337 Y30.3405131875 Z-0.000268829893117 E6.82831387716
G1 F1500.0 X-19.2046104295 Y26.1454000548 Z-0.000770802679577 E6.89670013702
G1 F1500.0 X-23.0672017077 Y17.9417634316 Z-0.00403541424727 E7.25398763213
G1 F1500.0 X-27.2507721746 Y10.0737693445 Z-0.00423630477151 E7.12887504602
G1 F1500.0 X-31.2452940541 Y3.41508018188 E6.21195563501
G1 F1500.0 X-27.2458052605 Y-4.45902836509 Z0.000477384152076 E7.06529529775
G1 F1500.0 X-29.1076881784 Y-12.8363454941 E6.86538216540
G1 F1500.0 X-24.2103164212 Y-19.7126019623 Z-0.000208835882293 E6.75359001334
G1 F1500.0 X-16.9559145332 Y-24.4965870045 Z-0.000255156466736 E6.95185084484
G1 F1500.0 X-9.48502099186 Y-28.7133445284 Z-0.000262345279638 E6.86301598176
G1 F1500.0 X-1.73869342482 Y-32.1047509130 Z-0.000334528513463 E6.76495572416
G1 F1500.0 X6.51561459255 Y-31.8044797446 Z-0.000731962393691 E6.60781422393
G1 F1500.0 X12.9064027003 Y-26.2804842874 Z-0.00141900275013 E6.75783155383
G1 F1500.0 X18.4198188354 Y-19.9451723204 Z-0.00188779208307 E6.71875871476
G1 F1500.0 X24.9549610077 Y-15.0269702956 Z-0.00175304086801 E6.54323684480
G1 F1500.0 X32.1933263941 Y-11.5264489246 Z-0.000914256338295 E6.43229770657
G1 F1500.0 X34.7022297649 Y-4.38494051402 Z-0.000312121542436 E6.05551590479
G1 F1500.0 X31.9219252075 Y3.24901945808 Z-0.000291872455384 E6.49959694935
G1 F1500.0 X27.5584521453 Y10.0367417245 Z-0.000295712882429 E6.45541364029
G1 F1500.0 X25.1980080505 Y17.4578175927 Z-0.000299553309473 E6.22994386451
G1 F1500.0 X23.6100002400 Y24.9141447406 Z-0.000303393736518 E6.09884360670
G1 F1500.0 X17.3300696804 Y29.3163484378 Z-0.000307234163562 E6.13537546893
G1 F1500.0 X10.0076481654 Y31.7745741714 Z-0.000311074590607 E6.17922872079
G1 F1500.0 X2.74734850158 Y33.9904161246 Z-0.000314915017651 E6.07272758595
G1 F1500.0 X-4.44291043400 Y32.2901204907 Z-0.000318755444696 E5.91084853758
G1 F1500.0 X-10.0925036649 Y27.2040537301 Z-0.00032259587174 E6.08136714982
G1 F1500.0 X-16.9647604647 Y23.6714124976 Z-0.000768941608225 E6.18164859819
G1 F1500.0 X-20.4101952402 Y16.3001975423 Z-0.00369498707948 E6.50935765908
G1 F1500.0 X-24.1368478489 Y9.24198219648 Z-0.00387234854024 E6.38530029691
G1 F1500.0 X-27.6874807763 Y3.27795364388 Z-0.000141922498719 E5.55275180370
G1 F1500.0 X-24.0852270571 Y-3.76206101581 Z0.000346918167688 E6.32647964061
G1 F1500.0 X-25.7240035700 Y-11.2387719833 E6.12336093197
G1 F1500.0 X-21.3280127359 Y-17.3622194972 Z-0.000267408416586 E6.03039474336
G1 F1500.0 X-14.8385668381 Y-21.6087923452 Z-0.00030915601151 E6.20432308710
G1 F1500.0 X-8.16826049900 Y-25.3417811191 Z-0.000315980419445 E6.11506686639
G1 F1500.0 X-1.26549061264 Y-28.3327839384 Z-0.000380628770327 E6.01833624708
G1 F1500.0 X6.07542764734 Y-28.0359399873 Z-0.000734269205584 E5.87753403290
G1 F1500.0 X11.7469259915 Y-23.1004837032 Z-0.0013443794966 E6.01462870391
G1 F1500.0 X16.6285090411 Y-17.4548037278 Z-0.00175963920119 E5.97078517463
G1 F1500.0 X22.4052503987 Y-13.0761501563 Z-0.00163918362946 E5.79894323205
G1 F1500.0 X28.7920844243 Y-9.96133763002 Z-0.000895719806116 E5.68471390298
G1 F1500.0 X30.9825920168 Y-3.63318464469 Z-0.000363100304552 E5.35724370936
G1 F1500.0 X28.4956593433 Y3.11641129624 Z-0.000345638434008 E5.75454627862
G1 F1500.0 X24.6167439030 Y9.10446364757 Z-0.000349478861052 E5.70769338799
G1 F1500.0 X22.5114227665 Y15.6371722257 Z-0.000353319288097 E5.49085980617
G1 F1500.0 X21.0904707173 Y22.1857282160 Z-0.000357159715141 E5.36075757537
G1 F1500.0 X15.5467427293 Y26.0331106349 Z-0.000361000142186 E5.39838621707
G1 F1500.0 X9.10023925136 Y28.1635242113 Z-0.00036484056923 E5.43152687763
G1 F1500.0 X2.72359560839 Y30.0755693461 Z-0.000368680996275 E5.32571126498
G1 F1500.0 X-3.57604498909 Y28.5512851466 Z-0.000372521423319 E5.18514271221
G1 F1500.0 X-8.51169919606 Y24.0675942727 Z-0.000376361850364 E5.33451651364
G1 F1500.0 X-14.7249104999 Y21.1974249405 Z-0.000767080536873 E5.47528947060
G1 F1500.0 X-17.7531887728 Y14.6586316531 Z-0.00335455991169 E5.76479209816
G1 F1500.0 X-21.0229235232 Y8.41019504850 Z-0.00350839230896 E5.64179406150
G1 F1500.0 X-24.1296674984 Y3.14082710589 Z-0.000213781463661 E4.89362736606
G1 F1500.0 X-20.9246488537 Y-3.06509366654 Z0.0002164521833 E5.58773498763
G1 F1500.0 X-22.3403189616 Y-9.64119847254 E5.38140658907
G1 F1500.0 X-18.4457090505 Y-15.0118370321 Z-0.000325980950879 E5.30730786451
G1 F1500.0 X-12.7212191431 Y-18.7209976858 Z-0.000363155556285 E5.45689479214
G1 F1500.0 X-6.85150000615 Y-21.9702177098 Z-0.000369615559251 E5.36722101714
G1 F1500.0 X-0.792287800457 Y-24.5608169638 Z-0.00042672902719 E5.27182743582
G1 F1500.0 X5.63524070213 Y-24.2674002300 Z-0.000736576017477 E5.14737781025
G1 F1500.0 X10.5874492826 Y-19.9204831191 Z-0.00126975624306 E5.27151187290
G1 F1500.0 X14.8371992468 Y-14.9644351353 Z-0.00163148631931 E5.22289032666
G1 F1500.0 X19.8555397897 Y-11.1253300170 Z-0.0015253263909 E5.05473844541
G1 F1500.0 X25.3908424545 Y-8.39622633545 Z-0.000877183273936 E4.93721106156
G1 F1500.0 X27.2629542688 Y-2.88142877535 Z-0.000414079066669 E4.65911888588
G1 F1500.0 X25.0693934791 Y2.98380313441 Z-0.000399404412631 E5.00960065754
G1 F1500.0 X21.6750356607 Y8.17218557069 Z-0.000403244839675 E4.96006305149
G1 F1500.0 X19.8248374826 Y13.8165268587 Z-0.00040708526672 E4.75188025938
G1 F1500.0 X18.5709411945 Y19.4573116914 Z-0.000410925693765 E4.62277557699
G1 F1500.0 X13.7634157782 Y22.7498728320 Z-0.000414766120809 E4.66155404084
G1 F1500.0 X8.19283033730 Y24.5524742513 Z-0.000418606547854 E4.68398422071
G1 F1500.0 X2.69984271521 Y26.1607225676 Z-0.000422446974898 E4.57886453442
G1 F1500.0 X-2.70917954417 Y24.8124498026 Z-0.000426287401943 E4.45962231594
G1 F1500.0 X-6.93089472724 Y20.9311348153 Z-0.000430127828987 E4.58780889697
