;_project: : hilbert_TPMS
;_project_by: : WenqianYang, JonasWard
;_project_gcode_generator_by: : JonasWard
;library_path : /Users/jonas/Documents/HilbertAndCo/src/spacemapping_curve
/Users/jonas/Documents/HilbertAndCo/src/spacemapping_curve/gcode/GCodeDefinitions/startGcode.txt
/Users/jonas/Documents/HilbertAndCo/src/spacemapping_curve/gcode/GCodeDefinitions/endGcode.txt
;Sliced by ideaMaker 3.3.0.2343, 2020-02-08 22:55:15 UTC+0100
;Dimension: 250.000 210.000 210.000 0.400
;Plate Shape: 0
;Extruder Offset #1: 25.000 0.000
;Filament Diameter #1: 1.750
;Filament Diameter #2: 1.750
;Filament Compensation #1: 94.00
;Filament Compensation #2: 94.00
;Filament Density #1: 1240.00
;Filament Density #2: 1240.00
;Model Gap: 0.200
M221 T0 S94.00
M140 S60.00
M104 T0 S205.00
M109 T0 S205.00
T0
M190 S60.00
M115 U3.1.0 ; tell printer latest fw version
M83  ; extruder relative mode
M104 S205 ; set extruder temp
M140 S60 ; set bed temp
M190 S60 ; wait for bed temp
M109 S205 ; wait for extruder temp
G28 W ; home all without mesh bed level
G80 ; mesh bed leveling
G1 Y-3.0 F1000.0 ; go outside print area
G92 E0.0
G1 X60.0 E9.0  F1000.0 ; intro line
G1 X100.0 E12.5  F1000.0 ; intro line
G92 E0.0
M83
M1001
M106 S0
;LAYER:-2
;Z:0.500
;HEIGHT:0.500
G0 F6000 X93.481 Y70.719
G0 F1500 Z0.500
;TYPE:RAFT
;WIDTH:0.800
G1 F1500.0 X48.5566556059 Y28.3220068483
G1 X44.7042370853 Y36.4188286984 E7.17326826624
G1 F1500.0 X32.856281589 Y36.5472904278 E9.47892152038
G1 F1500.0 X20.1410048876 Y34.9905159212 E10.2481782485
G1 F1500.0 X8.13320180969 Y31.1910543217 E10.0756575790
G1 F1500.0 X2.32478346339 Y26.0817349459 E6.18865378161
G1 F1500.0 X1.42777741997 Y25.5181575723 E0.847486371979
G1 F1500.0 X6.55090866913 Y30.3061990389 E5.60980940183
G1 F1500.0 X8.56773735961 Y45.4787490370 E12.2448061521
G1 F1500.0 X-2.59948506223 Y59.4522916708 E14.3100915521
G1 F1500.0 X-17.8452280658 Y64.1387319063 E12.7598219878
G1 F1500.0 X-33.5415419649 Y60.2534705396 E12.9360154832
G1 F1500.0 X-45.2191204273 Y48.7161419867 E13.1325741911
G1 F1500.0 X-48.5694762209 Y32.6775756253 E13.1078112863
G1 F1500.0 X-44.4277261932 Y19.1227915876 E11.3387481101
G1 F1500.0 X-39.8855381203 Y9.45367573160 E8.54627961822
G1 F1500.0 X-37.6377270858 Y0.218762419409 E7.60363190400
G1 F1500.0 X-36.6940938897 Y-9.92552953839 E8.15046905875
G1 F1500.0 X-36.2567209861 Y-20.5094459713 E8.47435971347
G1 F1500.0 X-36.5147525933 Y-31.6835088035 E8.94163333586
G1 F1500.0 X-35.6423412795 Y-45.0479472479 E10.7143064413
G1 F1500.0 X-26.6969059400 Y-59.8467375319 E13.8338716439
G1 F1500.0 X-7.82991572932 Y-61.3460195799 E15.1411738783
G1 F1500.0 X2.89085502879 Y-46.9199341251 E14.3788036709
G1 F1500.0 X4.11669662702 Y-32.9090224961 E11.2515480123
G1 F1500.0 X2.85235101976 Y-21.5652776426 E9.13119022664
G1 F1500.0 X-1.69864984260 Y-16.0953991615 E5.69244717549
G1 F1500.0 X1.85978073398 Y-20.1769621424 E4.33195268930
G1 F1500.0 X9.36014941152 Y-23.6090866266 E6.59866695748
G1 F1500.0 X17.8368312951 Y-28.9488399224 E8.01467058895
G1 F1500.0 X26.9432363011 Y-35.4276446722 E8.94074799982
G1 F1500.0 X42.3950971022 Y-41.2325576452 E13.2050176364
G1 F1500.0 X55.6888562873 Y-30.6594780637 E13.5885609566
G1 F1500.0 X52.9980382823 Y-13.4897966586 E13.9034030042
G1 F1500.0 X45.6402406296 Y-2.22177552036 E10.7660350858
G1 F1500.0 X37.5218848082 Y5.52766384000 E8.97860609734
G1 F1500.0 X30.0150742421 Y5.45973236921 E6.00569434107
G1 F1500.0 X37.2427149726 Y1.05398493585 E6.77167753398
G1 F1500.0 X48.0620895286 Y2.80005079310 E8.76748946545
G1 F1500.0 X59.3150064167 Y5.71063961188 E9.29859054312
G1 F1500.0 X48.5566556059 Y28.3220068483 E20.0322306771
G1 F1500.0 X44.5588710752 Y26.4198853181 E3.54178237340
G1 F1500.0 X33.3717031896 Y26.5825258991 E8.95068005493
G1 F1500.0 X22.2652487687 Y25.2670431653 E8.94727040835
G1 F1500.0 X11.6320384970 Y21.8341986308 E8.93888878213
G1 F1500.0 X1.34225556645 Y17.4425582281 E8.95021387669
G1 F1500.0 X-6.28040683339 Y22.9989133756 E7.54625478865
G1 F1500.0 X-2.95969305614 Y33.3958588046 E8.7315011949
G1 F1500.0 X0.358244354111 Y43.4394390648 E8.46195109799
G1 F1500.0 X-7.61780505879 Y51.0930103236 E8.84333031392
G1 F1500.0 X-18.1556956889 Y54.5449038863 E8.87108410423
G1 F1500.0 X-28.8426017989 Y51.7949671003 E8.82803224396
G1 F1500.0 X-36.8590912936 Y44.1404938249 E8.86720032267
G1 F1500.0 X-38.9571432929 Y33.4095314892 E8.74731043799
G1 F1500.0 X-35.1829704307 Y22.9100557210 E8.92576933429
G1 F1500.0 X-30.4925108003 Y12.7509987658 E8.95166933307
G1 F1500.0 X-27.8077988969 Y1.90525428827 E8.93846881834
G1 F1500.0 X-26.7218963199 Y-9.23514069036 E8.95455494145
G1 F1500.0 X-26.2622598537 Y-20.4190838805 E8.95470739972
G1 F1500.0 X-26.5196203302 Y-31.6101848129 E8.9552478289
G1 F1500.0 X-26.0986979327 Y-42.7804703439 E8.94257070899
G1 F1500.0 X-21.5135371628 Y-52.8081762099 E8.82101433518
G1 F1500.0 X-11.6279421559 Y-54.0762849820 E7.97327891389
G1 F1500.0 X-6.53370366142 Y-44.2991148595 E8.81977129655
G1 F1500.0 X-5.84120192736 Y-33.1673378020 E8.92263706708
G1 F1500.0 X-7.11443632499 Y-22.0469653936 E8.95441998864
G1 F1500.0 X-6.92225768948 Y-11.0133610432 E8.82822229313
G1 F1500.0 X3.50566184275 Y-10.5449548767 E8.35074741977
G1 F1500.0 X13.8681782775 Y-14.7244425515 E8.93889887031
G1 F1500.0 X23.3727394477 Y-20.6268240263 E8.95052320659
G1 F1500.0 X32.4954735090 Y-27.1158127991 E8.9561153024
G1 F1500.0 X41.9739778125 Y-33.0526852648 E8.94743756858
G1 F1500.0 X47.9126915431 Y-28.4203165232 E6.02539484156
G1 F1500.0 X44.1105244172 Y-17.9266887616 E8.92897121789
G1 F1500.0 X38.0046263996 Y-8.57533942739 E8.93459702398
G1 F1500.0 X29.9118777068 Y-0.864722467902 E8.94234672736
G1 F1500.0 X24.3649217293 Y7.46039757031 E8.00305318808
G1 F1500.0 X34.9445342997 Y10.7611878654 E8.86605819832
G1 F1500.0 X45.9921475420 Y12.5725594385 E8.95610005580
G1 F1500.0 X56.7931227444 Y15.3874212433 E8.92939459726
G1 F1500.0 X55.3333952929 Y23.7802193916 E6.81503584686
G1 F1500.0 X44.5588710752 Y26.4198853181 Z1.98410156645 E9.01535995412
G1 F1500.0 X33.3717031896 Y26.5825258991 Z2.04845002550 E8.95082809070
G1 F1500.0 X22.2652487687 Y25.2670431653 Z2.12076120073 E8.94745741873
G1 F1500.0 X11.6320384970 Y21.8341986308 Z2.20239197962 E8.93912732615
G1 F1500.0 X1.34225556645 Y17.4425582281 Z2.28748944785 E8.95047278355
G1 F1500.0 X-6.28040683339 Y22.9989133756 Z2.30026451789 E7.54626170927
G1 F1500.0 X-2.95969305614 Y33.3958588046 Z2.22156688667 E8.73172817027
G1 F1500.0 X0.358244354111 Y43.4394390648 Z2.14490163813 E8.46217336287
G1 F1500.0 X-7.61780505879 Y51.0930103236 Z2.14777269007 E8.84333061219
G1 F1500.0 X-18.1556956889 Y54.5449038863 Z2.18956528588 E8.87114710857
G1 F1500.0 X-28.8426017989 Y51.7949671003 Z2.26761293484 E8.82825304458
G1 F1500.0 X-36.8590912936 Y44.1404938249 Z2.35806250316 E8.86749555861
G1 F1500.0 X-38.9571432929 Y33.4095314892 Z2.43153176673 E8.74750789925
G1 F1500.0 X-35.1829704307 Y22.9100557210 Z2.46941617761 E8.92582078888
G1 F1500.0 X-30.4925108003 Y12.7509987658 Z2.50001179677 E8.95170279598
G1 F1500.0 X-27.8077988969 Y1.90525428827 Z2.54622883758 E8.93854528801
G1 F1500.0 X-26.7218963199 Y-9.23514069036 Z2.60345600836 E8.95467197427
G1 F1500.0 X-26.2622598537 Y-20.4190838805 Z2.66458587453 E8.95484093691
G1 F1500.0 X-26.5196203302 Y-31.6101848129 Z2.72994021312 E8.95540045103
G1 F1500.0 X-26.0986979327 Y-42.7804703439 Z2.79121804748 E8.94270507554
G1 F1500.0 X-21.5135371628 Y-52.8081762099 Z2.82167863385 E8.82104799464
G1 F1500.0 X-11.6279421559 Y-54.0762849820 Z2.77123220141 E7.97338104808
G1 F1500.0 X-6.53370366142 Y-44.2991148595 Z2.6857223927 E8.82003658479
G1 F1500.0 X-5.84120192736 Y-33.1673378020 Z2.61816751391 E8.92280073600
G1 F1500.0 X-7.11443632499 Y-22.0469653936 Z2.56214765474 E8.95453213723
G1 F1500.0 X-6.92225768948 Y-11.0133610432 Z2.49807227067 E8.82837111114
G1 F1500.0 X3.50566184275 Y-10.5449548767 Z2.43455343832 E8.35090202551
G1 F1500.0 X13.8681782775 Y-14.7244425515 Z2.39793554725 E8.93894687144
G1 F1500.0 X23.3727394477 Y-20.6268240263 Z2.37615402427 E8.95054016861
G1 F1500.0 X32.4954735090 Y-27.1158127991 Z2.35994742266 E8.95612468696
G1 F1500.0 X41.9739778125 Y-33.0526852648 Z2.33851473387 E8.94745399731
G1 F1500.0 X47.9126915431 Y-28.4203165232 Z2.27743196994 E6.02559299184
G1 F1500.0 X44.1105244172 Y-17.9266887616 Z2.23974427062 E8.92902212126
G1 F1500.0 X38.0046263996 Y-8.57533942739 Z2.22201615464 E8.93460828039
G1 F1500.0 X29.9118777068 Y-0.864722467902 Z2.22524265608 E8.94234709989
G1 F1500.0 X24.3649217293 Y7.46039757031 Z2.21010846697 E8.00306234632
G1 F1500.0 X34.9445342997 Y10.7611878654 Z2.12954388440 E8.86629246040
G1 F1500.0 X45.9921475420 Y12.5725594385 Z2.05474666895 E8.95629994856
G1 F1500.0 X56.7931227444 Y15.3874212433 Z1.97566299359 E8.92961872530
G1 F1500.0 X55.3333952929 Y23.7802193916 Z1.93629393074 E6.81510862311
G1 F1500.0 X44.5588710752 Y26.4198853181 Z3.96820313289 E9.02217227332
G1 F1500.0 X33.3717031896 Y26.5825258991 Z4.09690005099 E8.95127218331
G1 F1500.0 X22.2652487687 Y25.2670431653 Z4.24152240146 E8.94801842642
G1 F1500.0 X11.6320384970 Y21.8341986308 Z4.40478395924 E8.93984292002
G1 F1500.0 X1.34225556645 Y17.4425582281 Z4.57497889570 E8.95124945921
G1 F1500.0 X-6.28040683339 Y22.9989133756 Z4.60052903579 E7.54628247109
G1 F1500.0 X-2.95969305614 Y33.3958588046 Z4.44313377335 E8.73240906099
G1 F1500.0 X0.358244354111 Y43.4394390648 Z4.28980327626 E8.46284012251
G1 F1500.0 X-7.61780505879 Y51.0930103236 Z4.29554538015 E8.84333150702
G1 F1500.0 X-18.1556956889 Y54.5449038863 Z4.37913057176 E8.87133611889
G1 F1500.0 X-28.8426017989 Y51.7949671003 Z4.53522586969 E8.82891541330
G1 F1500.0 X-36.8590912936 Y44.1404938249 Z4.71612500632 E8.86838120746
G1 F1500.0 X-38.9571432929 Y33.4095314892 Z4.86306353346 E8.7481002563
G1 F1500.0 X-35.1829704307 Y22.9100557210 Z4.93883235522 E8.92597515088
G1 F1500.0 X-30.4925108003 Y12.7509987658 Z5.00002359354 E8.95180318394
G1 F1500.0 X-27.8077988969 Y1.90525428827 Z5.09245767516 E8.93877469312
G1 F1500.0 X-26.7218963199 Y-9.23514069036 Z5.20691201672 E8.95502306357
G1 F1500.0 X-26.2622598537 Y-20.4190838805 Z5.32917174907 E8.95524153653
G1 F1500.0 X-26.5196203302 Y-31.6101848129 Z5.45988042623 E8.95585830182
G1 F1500.0 X-26.0986979327 Y-42.7804703439 Z5.58243609495 E8.94310816306
G1 F1500.0 X-21.5135371628 Y-52.8081762099 Z5.64335726769 E8.82114897225
G1 F1500.0 X-11.6279421559 Y-54.0762849820 Z5.54246440283 E7.97368744281
G1 F1500.0 X-6.53370366142 Y-44.2991148595 Z5.37144478540 E8.82083240163
G1 F1500.0 X-5.84120192736 Y-33.1673378020 Z5.23633502782 E8.92329172473
G1 F1500.0 X-7.11443632499 Y-22.0469653936 Z5.12429530949 E8.95486857458
G1 F1500.0 X-6.92225768948 Y-11.0133610432 Z4.99614454133 E8.82881755012
G1 F1500.0 X3.50566184275 Y-10.5449548767 Z4.86910687665 E8.35136582556
G1 F1500.0 X13.8681782775 Y-14.7244425515 Z4.79587109451 E8.93909087328
G1 F1500.0 X23.3727394477 Y-20.6268240263 Z4.75230804854 E8.95059105449
G1 F1500.0 X32.4954735090 Y-27.1158127991 Z4.71989484533 E8.95615284059
G1 F1500.0 X41.9739778125 Y-33.0526852648 Z4.67702946774 E8.94750328335
G1 F1500.0 X47.9126915431 Y-28.4203165232 Z4.55486393989 E6.02618740358
G1 F1500.0 X44.1105244172 Y-17.9266887616 Z4.47948854123 E8.92917482964
G1 F1500.0 X38.0046263996 Y-8.57533942739 Z4.44403230928 E8.93464204954
G1 F1500.0 X29.9118777068 Y-0.864722467902 Z4.45048531217 E8.94234821749
G1 F1500.0 X24.3649217293 Y7.46039757031 Z4.42021693395 E8.003089821
G1 F1500.0 X34.9445342997 Y10.7611878654 Z4.25908776880 E8.86699520949
G1 F1500.0 X45.9921475420 Y12.5725594385 Z4.10949333790 E8.95689960006
G1 F1500.0 X56.7931227444 Y15.3874212433 Z3.95132598717 E8.93029107569
G1 F1500.0 X55.3333952929 Y23.7802193916 Z3.87258786148 E6.81532694719
G1 F1500.0 X44.5588710752 Y26.4198853181 Z5.95230469934 E9.02914145897
G1 F1500.0 X33.3717031896 Y26.5825258991 Z6.14535007649 E8.95201228870
G1 F1500.0 X22.2652487687 Y25.2670431653 Z6.36228360219 E8.94895336109
G1 F1500.0 X11.6320384970 Y21.8341986308 Z6.60717593887 E8.94103544918
G1 F1500.0 X1.34225556645 Y17.4425582281 Z6.86246834355 E8.9525437689
G1 F1500.0 X-6.28040683339 Y22.9989133756 Z6.90079355368 E7.54631707399
G1 F1500.0 X-2.95969305614 Y33.3958588046 Z6.66470066002 E8.73354376089
G1 F1500.0 X0.358244354111 Y43.4394390648 Z6.43470491439 E8.46395127185
G1 F1500.0 X-7.61780505879 Y51.0930103236 Z6.44331807022 E8.84333299839
G1 F1500.0 X-18.1556956889 Y54.5449038863 Z6.56869585763 E8.87165112714
G1 F1500.0 X-28.8426017989 Y51.7949671003 Z6.80283880453 E8.83001925077
G1 F1500.0 X-36.8590912936 Y44.1404938249 Z7.07418750948 E8.86985709236
G1 F1500.0 X-38.9571432929 Y33.4095314892 Z7.29459530019 E8.74908742892
G1 F1500.0 X-35.1829704307 Y22.9100557210 Z7.40824853283 E8.92623241494
G1 F1500.0 X-30.4925108003 Y12.7509987658 Z7.50003539031 E8.95197049471
G1 F1500.0 X-27.8077988969 Y1.90525428827 Z7.63868651274 E8.93915702189
G1 F1500.0 X-26.7218963199 Y-9.23514069036 Z7.81036802508 E8.95560818181
G1 F1500.0 X-26.2622598537 Y-20.4190838805 Z7.99375762360 E8.95590916274
G1 F1500.0 X-26.5196203302 Y-31.6101848129 Z8.18982063935 E8.95662133446
G1 F1500.0 X-26.0986979327 Y-42.7804703439 Z8.37365414243 E8.94377993522
G1 F1500.0 X-21.5135371628 Y-52.8081762099 Z8.46503590154 E8.82131726569
G1 F1500.0 X-11.6279421559 Y-54.0762849820 Z8.31369660424 E7.97419807452
G1 F1500.0 X-6.53370366142 Y-44.2991148595 Z8.05716717810 E8.82215860350
G1 F1500.0 X-5.84120192736 Y-33.1673378020 Z7.85450254173 E8.92410997926
G1 F1500.0 X-7.11443632499 Y-22.0469653936 Z7.68644296423 E8.95542927541
G1 F1500.0 X-6.92225768948 Y-11.0133610432 Z7.49421681200 E8.82956156492
G1 F1500.0 X3.50566184275 Y-10.5449548767 Z7.30366031497 E8.35213876842
G1 F1500.0 X13.8681782775 Y-14.7244425515 Z7.19380664176 E8.93933087119
G1 F1500.0 X23.3727394477 Y-20.6268240263 Z7.12846207281 E8.95067586363
G1 F1500.0 X32.4954735090 Y-27.1158127991 Z7.07984226799 E8.9561997631
G1 F1500.0 X41.9739778125 Y-33.0526852648 Z7.01554420161 E8.94758542614
G1 F1500.0 X47.9126915431 Y-28.4203165232 Z6.83229590983 E6.02717795954
G1 F1500.0 X44.1105244172 Y-17.9266887616 Z6.71923281185 E8.92942933781
G1 F1500.0 X38.0046263996 Y-8.57533942739 Z6.66604846393 E8.93469833116
G1 F1500.0 X29.9118777068 Y-0.864722467902 Z6.67572796825 E8.94235008014
G1 F1500.0 X24.3649217293 Y7.46039757031 Z6.63032540092 E8.00313561192
G1 F1500.0 X34.9445342997 Y10.7611878654 Z6.38863165321 E8.86816633422
G1 F1500.0 X45.9921475420 Y12.5725594385 Z6.16424000685 E8.95789893003
G1 F1500.0 X56.7931227444 Y15.3874212433 Z5.92698898076 E8.93141154718
G1 F1500.0 X55.3333952929 Y23.7802193916 Z5.80888179223 E6.81569080513
G1 F1500.0 X44.5588710752 Y26.4198853181 Z7.93640626579 E9.03626714814
G1 F1500.0 X33.3717031896 Y26.5825258991 Z8.19380010199 E8.95304833346
G1 F1500.0 X22.2652487687 Y25.2670431653 Z8.48304480292 E8.95026210556
G1 F1500.0 X11.6320384970 Y21.8341986308 Z8.80956791849 E8.94270472286
G1 F1500.0 X1.34225556645 Y17.4425582281 Z9.14995779140 E8.95435548816
G1 F1500.0 X-6.28040683339 Y22.9989133756 Z9.20105807157 E7.54636551778
G1 F1500.0 X-2.95969305614 Y33.3958588046 Z8.88626754669 E8.73513209312
G1 F1500.0 X0.358244354111 Y43.4394390648 Z8.57960655252 E8.46550663590
G1 F1500.0 X-7.61780505879 Y51.0930103236 Z8.5910907603 E8.84333508631
G1 F1500.0 X-18.1556956889 Y54.5449038863 Z8.75826114351 E8.87209211990
G1 F1500.0 X-28.8426017989 Y51.7949671003 Z9.07045173937 E8.83156439143
G1 F1500.0 X-36.8590912936 Y44.1404938249 Z9.43225001263 E8.87192291875
G1 F1500.0 X-38.9571432929 Y33.4095314892 Z9.72612706692 E8.75046928349
G1 F1500.0 X-35.1829704307 Y22.9100557210 Z9.87766471044 E8.92659257218
G1 F1500.0 X-30.4925108003 Y12.7509987658 Z10.0000471871 E8.95220472453
G1 F1500.0 X-27.8077988969 Y1.90525428827 Z10.1849153503 E8.93969225469
G1 F1500.0 X-26.7218963199 Y-9.23514069036 Z10.4138240334 E8.95642728313
G1 F1500.0 X-26.2622598537 Y-20.4190838805 Z10.6583434981 E8.95684375584
G1 F1500.0 X-26.5196203302 Y-31.6101848129 Z10.9197608525 E8.95768947096
G1 F1500.0 X-26.0986979327 Y-42.7804703439 Z11.1648721899 E8.94472033150
