;_project: : hilbert_TPMS
;_project_by: : WenqianYang, JonasWard
;_project_gcode_generator_by: : JonasWard
;library_path : /Users/jonas/Documents/HilbertAndCo/src/spacemapping_curve
/Users/jonas/Documents/HilbertAndCo/src/spacemapping_curve/gcode/GCodeDefinitions/startGcode.txt
/Users/jonas/Documents/HilbertAndCo/src/spacemapping_curve/gcode/GCodeDefinitions/endGcode.txt
;Sliced by ideaMaker 3.3.0.2343, 2020-02-08 22:55:15 UTC+0100
;Dimension: 250.000 210.000 210.000 0.400
;Plate Shape: 0
;Extruder Offset #1: 25.000 0.000
;Filament Diameter #1: 1.750
;Filament Diameter #2: 1.750
;Filament Compensation #1: 94.00
;Filament Compensation #2: 94.00
;Filament Density #1: 1240.00
;Filament Density #2: 1240.00
;Model Gap: 0.200
M221 T0 S94.00
M140 S60.00
M104 T0 S205.00
M109 T0 S205.00
T0
M190 S60.00
M115 U3.1.0 ; tell printer latest fw version
M83  ; extruder relative mode
M104 S205 ; set extruder temp
M140 S60 ; set bed temp
M190 S60 ; wait for bed temp
M109 S205 ; wait for extruder temp
G28 W ; home all without mesh bed level
G80 ; mesh bed leveling
G1 Y-3.0 F1000.0 ; go outside print area
G92 E0.0
G1 X60.0 E9.0  F1000.0 ; intro line
G1 X100.0 E12.5  F1000.0 ; intro line
G92 E0.0
M83
M1001
M106 S0
;LAYER:-2
;Z:0.500
;HEIGHT:0.500
G0 F6000 X93.481 Y70.719
G0 F1500 Z0.500
;TYPE:RAFT
;WIDTH:0.800
G1 F1500.0 X-21.6093811817 Y43.5983338080
G1 X-23.8145654241 Y42.8322819447 E1.86756277539
G1 F1500.0 X-29.5965039760 Y39.0534156317 E5.52583135632
G1 F1500.0 X-35.3414218506 Y33.9426902521 E6.15134952575
G1 F1500.0 X-40.2161170520 Y27.9961827579 E6.15135001426
G1 F1500.0 X-44.1005578665 Y21.3603163745 E6.15134993182
G1 F1500.0 X-46.8990965724 Y14.1984879683 E6.15135003113
G1 F1500.0 X-48.5428237182 Y6.68704608347 E6.15134967272
G1 F1500.0 X-48.9912654682 Y-0.989053651325 E6.15135014209
G1 F1500.0 X-48.2333794430 Y-8.64080017474 E6.15135060738
G1 F1500.0 X-46.2878280471 Y-16.0797790830 E6.15134859654
G1 F1500.0 X-43.2025165281 Y-23.1228217492 E6.15134962321
G1 F1500.0 X-39.0534156317 Y-29.5965039760 E6.15134976128
G1 F1500.0 X-33.9426902521 Y-35.3414218506 E6.15134952575
G1 F1500.0 X-27.9961827579 Y-40.2161170520 E6.15135001426
G1 F1500.0 X-21.3603163745 Y-44.1005578665 E6.15134993182
G1 F1500.0 X-14.1984879683 Y-46.8990965724 E6.15135003113
G1 F1500.0 X-6.68704608347 Y-48.5428237182 E6.15134967272
G1 F1500.0 X0.989053651326 Y-48.9912654682 E6.15135014209
G1 F1500.0 X8.64080017474 Y-48.2333794430 E6.15135060738
G1 F1500.0 X16.0797790830 Y-46.2878280471 E6.15134859654
G1 F1500.0 X23.1228217492 Y-43.2025165281 E6.15134962321
G1 F1500.0 X29.5965039760 Y-39.0534156317 E6.15134976128
G1 F1500.0 X35.3414218506 Y-33.9426902521 E6.15134952575
G1 F1500.0 X40.2161170520 Y-27.9961827579 E6.15135001426
G1 F1500.0 X44.1005578665 Y-21.3603163745 E6.15134993182
G1 F1500.0 X46.8990965724 Y-14.1984879683 E6.15135003113
G1 F1500.0 X48.5428237182 Y-6.68704608347 E6.15134967272
G1 F1500.0 X48.9912654682 Y0.989053651326 E6.15135014209
G1 F1500.0 X48.2333794430 Y8.64080017474 E6.15135060738
G1 F1500.0 X46.2878280471 Y16.0797790830 E6.15134859654
G1 F1500.0 X43.2025165281 Y23.1228217492 E6.15134962321
G1 F1500.0 X39.0534156317 Y29.5965039760 E6.15134976128
G1 F1500.0 X33.9426902521 Y35.3414218506 E6.15134952575
G1 F1500.0 X27.9961827579 Y40.2161170520 E6.15135001426
G1 F1500.0 X21.3603163745 Y44.1005578665 E6.15134993182
G1 F1500.0 X14.1984879683 Y46.8990965724 E6.15135003113
G1 F1500.0 X6.68704608347 Y48.5428237182 E6.15134967272
G1 F1500.0 X-0.989053651326 Y48.9912654682 E6.15135014209
G1 F1500.0 X-7.86850408847 Y48.3717329188 E5.52583221732
G1 F1500.0 X-21.6093811817 Y43.5983338080 E11.6371004598
G1 F1500.0 X-18.4185452866 Y34.4130796858 E7.77895939570
G1 F1500.0 X-23.5751741340 Y31.1081022964 E4.89987406299
G1 F1500.0 X-28.1513037470 Y27.0371404050 E4.89987382403
G1 F1500.0 X-32.0342552269 Y22.3004339866 E4.89987427690
G1 F1500.0 X-35.1284169036 Y17.0146169448 E4.89987417185
G1 F1500.0 X-37.3576003771 Y11.3098434119 E4.89987428545
G1 F1500.0 X-38.6669156062 Y5.32658440599 E4.89987393802
G1 F1500.0 X-39.0241230861 Y-0.787833290524 E4.89987434622
G1 F1500.0 X-38.4204269243 Y-6.88285252571 E4.89987484138
G1 F1500.0 X-36.8706928128 Y-12.8083908215 E4.89987297214
G1 F1500.0 X-34.4130796858 Y-18.4185452866 E4.89987398399
G1 F1500.0 X-31.1081022964 Y-23.5751741340 E4.89987406299
G1 F1500.0 X-27.0371404050 Y-28.1513037470 E4.89987382403
G1 F1500.0 X-22.3004339866 Y-32.0342552269 E4.89987427690
G1 F1500.0 X-17.0146169448 Y-35.1284169036 E4.89987417185
G1 F1500.0 X-11.3098434119 Y-37.3576003771 E4.89987428545
G1 F1500.0 X-5.32658440599 Y-38.6669156062 E4.89987393802
G1 F1500.0 X0.787833290524 Y-39.0241230861 E4.89987434622
G1 F1500.0 X6.88285252571 Y-38.4204269243 E4.89987484138
G1 F1500.0 X12.8083908215 Y-36.8706928128 E4.89987297214
G1 F1500.0 X18.4185452866 Y-34.4130796858 E4.89987398399
G1 F1500.0 X23.5751741340 Y-31.1081022964 E4.89987406299
G1 F1500.0 X28.1513037470 Y-27.0371404050 E4.89987382403
G1 F1500.0 X32.0342552269 Y-22.3004339866 E4.89987427690
G1 F1500.0 X35.1284169036 Y-17.0146169448 E4.89987417185
G1 F1500.0 X37.3576003771 Y-11.3098434119 E4.89987428545
G1 F1500.0 X38.6669156062 Y-5.32658440599 E4.89987393802
G1 F1500.0 X39.0241230861 Y0.787833290524 E4.89987434622
G1 F1500.0 X38.4204269243 Y6.88285252571 E4.89987484138
G1 F1500.0 X36.8706928128 Y12.8083908215 E4.89987297214
G1 F1500.0 X34.4130796858 Y18.4185452866 E4.89987398399
G1 F1500.0 X31.1081022964 Y23.5751741340 E4.89987406299
G1 F1500.0 X27.0371404050 Y28.1513037470 E4.89987382403
G1 F1500.0 X22.3004339866 Y32.0342552269 E4.89987427690
G1 F1500.0 X17.0146169448 Y35.1284169036 E4.89987417185
G1 F1500.0 X11.3098434119 Y37.3576003771 E4.89987428545
G1 F1500.0 X5.32658440599 Y38.6669156062 E4.89987393802
G1 F1500.0 X-0.787833290524 Y39.0241230861 E4.89987434622
G1 F1500.0 X-6.88285252571 Y38.4204269243 E4.89987484138
G1 F1500.0 X-12.8083908215 Y36.8706928128 E4.89987297214
G1 F1500.0 X-18.4185452866 Y34.4130796858 Z2.5 E5.29233077755
G1 F1500.0 X-23.5751741340 Y31.1081022964 Z2.67024643740 E4.90176656898
G1 F1500.0 X-28.1513037470 Y27.0371404050 Z2.80338137289 E4.90103126235
G1 F1500.0 X-32.0342552269 Y22.3004339866 Z2.87038312772 E4.90016745019
G1 F1500.0 X-35.1284169036 Y17.0146169448 Z2.85664619361 E4.89988649564
G1 F1500.0 X-37.3576003771 Y11.3098434119 Z2.76516504294 E4.90042080293
G1 F1500.0 X-38.6669156062 Y5.32658440599 Z2.61588137289 E4.90132914642
G1 F1500.0 X-39.0241230861 Y-0.787833290524 Z2.44133707561 E4.90186359094
G1 F1500.0 X-38.4204269243 Y-6.88285252571 Z2.27958053039 E4.90158333361
G1 F1500.0 X-36.8706928128 Y-12.8083908215 Z2.16587255343 E4.90071729706
G1 F1500.0 X-34.4130796858 Y-18.4185452866 Z2.125 E4.89998308375
G1 F1500.0 X-31.1081022964 Y-23.5751741340 Z2.16587255343 E4.89998316274
G1 F1500.0 X-27.0371404050 Y-28.1513037470 Z2.27958053039 E4.90071814880
G1 F1500.0 X-22.3004339866 Y-32.0342552269 Z2.44133707561 E4.90158276933
G1 F1500.0 X-17.0146169448 Y-35.1284169036 Z2.61588137289 E4.90186341665
G1 F1500.0 X-11.3098434119 Y-37.3576003771 Z2.76516504294 E4.90132949375
G1 F1500.0 X-5.32658440599 Y-38.6669156062 Z2.85664619361 E4.90042045555
G1 F1500.0 X0.787833290524 Y-39.0241230861 Z2.87038312772 E4.89988667000
G1 F1500.0 X6.88285252571 Y-38.4204269243 Z2.80338137289 E4.90016801464
G1 F1500.0 X12.8083908215 Y-36.8706928128 Z2.67024643740 E4.90103041066
G1 F1500.0 X18.4185452866 Y-34.4130796858 Z2.5 E4.90176649002
G1 F1500.0 X23.5751741340 Y-31.1081022964 Z2.32975356260 E4.90176656898
G1 F1500.0 X28.1513037470 Y-27.0371404050 Z2.19661862711 E4.90103126235
G1 F1500.0 X32.0342552269 Y-22.3004339866 Z2.12961687228 E4.90016745019
G1 F1500.0 X35.1284169036 Y-17.0146169448 Z2.14335380639 E4.89988649564
G1 F1500.0 X37.3576003771 Y-11.3098434119 Z2.23483495706 E4.90042080293
G1 F1500.0 X38.6669156062 Y-5.32658440599 Z2.38411862711 E4.90132914642
G1 F1500.0 X39.0241230861 Y0.787833290524 Z2.55866292439 E4.90186359094
G1 F1500.0 X38.4204269243 Y6.88285252571 Z2.72041946961 E4.90158333361
G1 F1500.0 X36.8706928128 Y12.8083908215 Z2.83412744657 E4.90071729706
G1 F1500.0 X34.4130796858 Y18.4185452866 Z2.875 E4.89998308375
G1 F1500.0 X31.1081022964 Y23.5751741340 Z2.83412744657 E4.89998316274
G1 F1500.0 X27.0371404050 Y28.1513037470 Z2.72041946961 E4.90071814880
G1 F1500.0 X22.3004339866 Y32.0342552269 Z2.55866292439 E4.90158276933
G1 F1500.0 X17.0146169448 Y35.1284169036 Z2.38411862711 E4.90186341665
G1 F1500.0 X11.3098434119 Y37.3576003771 Z2.23483495706 E4.90132949375
G1 F1500.0 X5.32658440599 Y38.6669156062 Z2.14335380639 E4.90042045555
G1 F1500.0 X-0.787833290524 Y39.0241230861 Z2.12961687228 E4.89988667000
G1 F1500.0 X-6.88285252571 Y38.4204269243 Z2.19661862711 E4.90016801464
G1 F1500.0 X-12.8083908215 Y36.8706928128 Z2.32975356260 E4.90103041066
G1 F1500.0 X-18.4185452866 Y34.4130796858 Z5.0 E5.34528795504
G1 F1500.0 X-23.5751741340 Y31.1081022964 Z5.34049287480 E4.90743970801
G1 F1500.0 X-28.1513037470 Y27.0371404050 Z5.60676274578 E4.90450193839
G1 F1500.0 X-32.0342552269 Y22.3004339866 Z5.74076625545 E4.90104686484
G1 F1500.0 X-35.1284169036 Y17.0146169448 Z5.71329238722 E4.89992346681
G1 F1500.0 X-37.3576003771 Y11.3098434119 Z5.53033008589 E4.9020599898
G1 F1500.0 X-38.6669156062 Y5.32658440599 Z5.23176274578 E4.90569218161
G1 F1500.0 X-39.0241230861 Y-0.787833290524 Z4.88267415122 E4.90782648743
G1 F1500.0 X-38.4204269243 Y-6.88285252571 Z4.55916106078 E4.90670524097
G1 F1500.0 X-36.8706928128 Y-12.8083908215 Z4.33174510686 E4.90324939947
G1 F1500.0 X-34.4130796858 Y-18.4185452866 Z4.25 E4.90031036843
G1 F1500.0 X-31.1081022964 Y-23.5751741340 Z4.33174510686 E4.90031044742
G1 F1500.0 X-27.0371404050 Y-28.1513037470 Z4.55916106078 E4.90325025078
G1 F1500.0 X-22.3004339866 Y-32.0342552269 Z4.88267415122 E4.90670467728
G1 F1500.0 X-17.0146169448 Y-35.1284169036 Z5.23176274578 E4.90782631334
G1 F1500.0 X-11.3098434119 Y-37.3576003771 Z5.53033008589 E4.90569252863
G1 F1500.0 X-5.32658440599 Y-38.6669156062 Z5.71329238722 E4.90205964253
G1 F1500.0 X0.787833290524 Y-39.0241230861 Z5.74076625545 E4.89992364117
G1 F1500.0 X6.88285252571 Y-38.4204269243 Z5.60676274578 E4.90104742919
G1 F1500.0 X12.8083908215 Y-36.8706928128 Z5.34049287480 E4.90450108731
G1 F1500.0 X18.4185452866 Y-34.4130796858 Z5.0 E4.90743962913
G1 F1500.0 X23.5751741340 Y-31.1081022964 Z4.65950712520 E4.90743970801
G1 F1500.0 X28.1513037470 Y-27.0371404050 Z4.39323725422 E4.90450193839
G1 F1500.0 X32.0342552269 Y-22.3004339866 Z4.25923374455 E4.90104686484
G1 F1500.0 X35.1284169036 Y-17.0146169448 Z4.28670761278 E4.89992346681
G1 F1500.0 X37.3576003771 Y-11.3098434119 Z4.46966991411 E4.9020599898
G1 F1500.0 X38.6669156062 Y-5.32658440599 Z4.76823725422 E4.90569218161
G1 F1500.0 X39.0241230861 Y0.787833290524 Z5.11732584878 E4.90782648743
G1 F1500.0 X38.4204269243 Y6.88285252571 Z5.44083893922 E4.90670524097
G1 F1500.0 X36.8706928128 Y12.8083908215 Z5.66825489314 E4.90324939947
G1 F1500.0 X34.4130796858 Y18.4185452866 Z5.75 E4.90031036843
G1 F1500.0 X31.1081022964 Y23.5751741340 Z5.66825489314 E4.90031044742
G1 F1500.0 X27.0371404050 Y28.1513037470 Z5.44083893922 E4.90325025078
G1 F1500.0 X22.3004339866 Y32.0342552269 Z5.11732584878 E4.90670467728
G1 F1500.0 X17.0146169448 Y35.1284169036 Z4.76823725422 E4.90782631334
G1 F1500.0 X11.3098434119 Y37.3576003771 Z4.46966991411 E4.90569252863
G1 F1500.0 X5.32658440599 Y38.6669156062 Z4.28670761278 E4.90205964253
G1 F1500.0 X-0.787833290524 Y39.0241230861 Z4.25923374455 E4.89992364117
G1 F1500.0 X-6.88285252571 Y38.4204269243 Z4.39323725422 E4.90104742919
G1 F1500.0 X-12.8083908215 Y36.8706928128 Z4.65950712520 E4.90450108731
G1 F1500.0 X-18.4185452866 Y34.4130796858 Z7.5 E5.40116107082
G1 F1500.0 X-23.5751741340 Y31.1081022964 Z8.01073931221 E4.9168803937
G1 F1500.0 X-28.1513037470 Y27.0371404050 Z8.41014411867 E4.91028094706
G1 F1500.0 X-32.0342552269 Y22.3004339866 Z8.61114938317 E4.90251220538
G1 F1500.0 X-35.1284169036 Y17.0146169448 Z8.56993858083 E4.89998508480
G1 F1500.0 X-37.3576003771 Y11.3098434119 Z8.29549512883 E4.90479075054
G1 F1500.0 X-38.6669156062 Y5.32658440599 Z7.84764411867 E4.91295529656
G1 F1500.0 X-39.0241230861 Y-0.787833290524 Z7.32401122683 E4.91774858123
G1 F1500.0 X-38.4204269243 Y-6.88285252571 Z6.83874159117 E4.91522989264
G1 F1500.0 X-36.8706928128 Y-12.8083908215 Z6.49761766029 E4.90746666685
G1 F1500.0 X-34.4130796858 Y-18.4185452866 Z6.375 E4.90085579435
G1 F1500.0 X-31.1081022964 Y-23.5751741340 Z6.49761766029 E4.90085587333
G1 F1500.0 X-27.0371404050 Y-28.1513037470 Z6.83874159117 E4.90746751743
G1 F1500.0 X-22.3004339866 Y-32.0342552269 Z7.32401122683 E4.91522932992
G1 F1500.0 X-17.0146169448 Y-35.1284169036 Z7.84764411867 E4.91774840750
G1 F1500.0 X-11.3098434119 Y-37.3576003771 Z8.29549512883 E4.91295564306
G1 F1500.0 X-5.32658440599 Y-38.6669156062 Z8.56993858083 E4.90479040346
G1 F1500.0 X0.787833290524 Y-39.0241230861 Z8.61114938317 E4.89998525917
G1 F1500.0 X6.88285252571 Y-38.4204269243 Z8.41014411867 E4.90251276955
G1 F1500.0 X12.8083908215 Y-36.8706928128 Z8.01073931221 E4.91028009697
G1 F1500.0 X18.4185452866 Y-34.4130796858 Z7.5 E4.91688031498
G1 F1500.0 X23.5751741340 Y-31.1081022964 Z6.98926068779 E4.9168803937
G1 F1500.0 X28.1513037470 Y-27.0371404050 Z6.58985588133 E4.91028094706
G1 F1500.0 X32.0342552269 Y-22.3004339866 Z6.38885061683 E4.90251220538
G1 F1500.0 X35.1284169036 Y-17.0146169448 Z6.43006141917 E4.89998508480
G1 F1500.0 X37.3576003771 Y-11.3098434119 Z6.70450487117 E4.90479075054
G1 F1500.0 X38.6669156062 Y-5.32658440599 Z7.15235588133 E4.91295529656
G1 F1500.0 X39.0241230861 Y0.787833290524 Z7.67598877317 E4.91774858123
G1 F1500.0 X38.4204269243 Y6.88285252571 Z8.16125840883 E4.91522989264
G1 F1500.0 X36.8706928128 Y12.8083908215 Z8.50238233971 E4.90746666685
G1 F1500.0 X34.4130796858 Y18.4185452866 Z8.625 E4.90085579435
G1 F1500.0 X31.1081022964 Y23.5751741340 Z8.50238233971 E4.90085587333
G1 F1500.0 X27.0371404050 Y28.1513037470 Z8.16125840883 E4.90746751743
G1 F1500.0 X22.3004339866 Y32.0342552269 Z7.67598877317 E4.91522932992
G1 F1500.0 X17.0146169448 Y35.1284169036 Z7.15235588133 E4.91774840750
G1 F1500.0 X11.3098434119 Y37.3576003771 Z6.70450487117 E4.91295564306
G1 F1500.0 X5.32658440599 Y38.6669156062 Z6.43006141917 E4.90479040346
G1 F1500.0 X-0.787833290524 Y39.0241230861 Z6.38885061683 E4.89998525917
G1 F1500.0 X-6.88285252571 Y38.4204269243 Z6.58985588133 E4.90251276955
G1 F1500.0 X-12.8083908215 Y36.8706928128 Z6.98926068779 E4.91028009697
G1 F1500.0 X-18.4185452866 Y34.4130796858 Z10.0 E5.45986060544
G1 F1500.0 X-23.5751741340 Y31.1081022964 Z10.6809857496 E4.93006698245
G1 F1500.0 X-28.1513037470 Y27.0371404050 Z11.2135254916 E4.91836015157
G1 F1500.0 X-32.0342552269 Y22.3004339866 Z11.4815325109 E4.90456294662
G1 F1500.0 X-35.1284169036 Y17.0146169448 Z11.4265847744 E4.9000713487
G1 F1500.0 X-37.3576003771 Y11.3098434119 Z11.0606601718 E4.90861126335
G1 F1500.0 X-38.6669156062 Y5.32658440599 Z10.4635254916 E4.92310565572
G1 F1500.0 X-39.0241230861 Y-0.787833290524 Z9.76534830244 E4.93160597541
G1 F1500.0 X-38.4204269243 Y-6.88285252571 Z9.11832212156 E4.92713962696
G1 F1500.0 X-36.8706928128 Y-12.8083908215 Z8.66349021372 E4.91336475995
G1 F1500.0 X-34.4130796858 Y-18.4185452866 Z8.5 E4.90161928866
G1 F1500.0 X-31.1081022964 Y-23.5751741340 Z8.66349021372 E4.90161936763
G1 F1500.0 X-27.0371404050 Y-28.1513037470 Z9.11832212156 E4.91336560950
G1 F1500.0 X-22.3004339866 Y-32.0342552269 Z9.76534830244 E4.92713906560
G1 F1500.0 X-17.0146169448 Y-35.1284169036 Z10.4635254916 E4.93160580216
G1 F1500.0 X-11.3098434119 Y-37.3576003771 Z11.0606601718 E4.92310600151
G1 F1500.0 X-5.32658440599 Y-38.6669156062 Z11.4265847744 E4.90861091655
G1 F1500.0 X0.787833290524 Y-39.0241230861 Z11.4815325109 E4.90007152306
G1 F1500.0 X6.88285252571 Y-38.4204269243 Z11.2135254916 E4.90456351056
G1 F1500.0 X12.8083908215 Y-36.8706928128 Z10.6809857496 E4.91835930288
G1 F1500.0 X18.4185452866 Y-34.4130796858 Z10.0 E4.93006690394
