;_project: : hilbert_TPMS
;_project_by: : WenqianYang, JonasWard
;_project_gcode_generator_by: : JonasWard
;library_path : /Users/jonas/Documents/HilbertAndCo/src
/Users/jonas/Documents/HilbertAndCo/src/spacemapping_curve/gcode/GCodeDefinitions/startGcode.txt
/Users/jonas/Documents/HilbertAndCo/src/spacemapping_curve/gcode/GCodeDefinitions/endGcode.txt
;Sliced by ideaMaker 3.3.0.2343, 2020-02-08 22:55:15 UTC+0100
;Dimension: 250.000 210.000 210.000 0.400
;Plate Shape: 0
;Extruder Offset #1: 25.000 0.000
;Filament Diameter #1: 1.750
;Filament Diameter #2: 1.750
;Filament Compensation #1: 94.00
;Filament Compensation #2: 94.00
;Filament Density #1: 1240.00
;Filament Density #2: 1240.00
;Model Gap: 0.200
M221 T0 S94.00
M140 S60.00
M104 T0 S205.00
M109 T0 S205.00
T0
M190 S60.00
M115 U3.1.0 ; tell printer latest fw version
M83  ; extruder relative mode
M104 S205 ; set extruder temp
M140 S60 ; set bed temp
M190 S60 ; wait for bed temp
M109 S205 ; wait for extruder temp
G28 W ; home all without mesh bed level
G80 ; mesh bed leveling
G1 Y-3.0 F1000.0 ; go outside print area
G92 E0.0
G1 X60.0 E9.0  F1000.0 ; intro line
G1 X100.0 E12.5  F1000.0 ; intro line
G92 E0.0
M83
M1001
M106 S0
;LAYER:-2
;Z:0.500
;HEIGHT:0.500
G0 F6000 X93.481 Y70.719
G0 F1500 Z0.500
;TYPE:RAFT
;WIDTH:0.800
G1 F1500.0 X-147.65625 Y-147.65625
G1 X-142.96875 Y-147.65625 E3.75
G1 F1500.0 X-142.96875 Y-142.96875 E3.75
G1 F1500.0 X-147.65625 Y-142.96875 E3.75
G1 F1500.0 X-147.65625 Y-138.28125 E3.75
G1 F1500.0 X-147.65625 Y-133.59375 E3.75
G1 F1500.0 X-142.96875 Y-133.59375 E3.75
G1 F1500.0 X-142.96875 Y-138.28125 E3.75
G1 F1500.0 X-138.28125 Y-138.28125 E3.75
G1 F1500.0 X-138.28125 Y-133.59375 E3.75
G1 F1500.0 X-133.59375 Y-133.59375 E3.75
G1 F1500.0 X-133.59375 Y-138.28125 E3.75
G1 F1500.0 X-133.59375 Y-142.96875 E3.75
G1 F1500.0 X-138.28125 Y-142.96875 E3.75
G1 F1500.0 X-138.28125 Y-147.65625 E3.75
G1 F1500.0 X-133.59375 Y-147.65625 E3.75
G1 F1500.0 X-126.5625 Y-145.3125 E5.92927061282
G1 F1500.0 X-117.1875 Y-145.3125 E7.5
G1 F1500.0 X-117.1875 Y-135.9375 E7.5
G1 F1500.0 X-126.5625 Y-135.9375 E7.5
G1 F1500.0 X-128.90625 Y-128.90625 E5.92927061282
G1 F1500.0 X-128.90625 Y-124.21875 E3.75
G1 F1500.0 X-124.21875 Y-124.21875 E3.75
G1 F1500.0 X-124.21875 Y-128.90625 E3.75
G1 F1500.0 X-119.53125 Y-128.90625 E3.75
G1 F1500.0 X-114.84375 Y-128.90625 E3.75
G1 F1500.0 X-114.84375 Y-124.21875 E3.75
G1 F1500.0 X-119.53125 Y-124.21875 E3.75
G1 F1500.0 X-119.53125 Y-119.53125 E3.75
G1 F1500.0 X-114.84375 Y-119.53125 E3.75
G1 F1500.0 X-114.84375 Y-114.84375 E3.75
G1 F1500.0 X-119.53125 Y-114.84375 E3.75
G1 F1500.0 X-124.21875 Y-114.84375 E3.75
G1 F1500.0 X-124.21875 Y-119.53125 E3.75
G1 F1500.0 X-128.90625 Y-119.53125 E3.75
G1 F1500.0 X-128.90625 Y-114.84375 E3.75
G1 F1500.0 X-133.59375 Y-114.84375 E3.75
G1 F1500.0 X-138.28125 Y-114.84375 E3.75
G1 F1500.0 X-138.28125 Y-119.53125 E3.75
G1 F1500.0 X-133.59375 Y-119.53125 E3.75
G1 F1500.0 X-133.59375 Y-124.21875 E3.75
G1 F1500.0 X-133.59375 Y-128.90625 E3.75
G1 F1500.0 X-138.28125 Y-128.90625 E3.75
G1 F1500.0 X-138.28125 Y-124.21875 E3.75
G1 F1500.0 X-142.96875 Y-124.21875 E3.75
G1 F1500.0 X-142.96875 Y-128.90625 E3.75
G1 F1500.0 X-147.65625 Y-128.90625 E3.75
G1 F1500.0 X-147.65625 Y-124.21875 E3.75
G1 F1500.0 X-147.65625 Y-119.53125 E3.75
G1 F1500.0 X-142.96875 Y-119.53125 E3.75
G1 F1500.0 X-142.96875 Y-114.84375 E3.75
G1 F1500.0 X-147.65625 Y-114.84375 E3.75
G1 F1500.0 X-145.3125 Y-107.8125 E5.92927061282
G1 F1500.0 X-135.9375 Y-107.8125 E7.5
G1 F1500.0 X-135.9375 Y-98.4375 E7.5
G1 F1500.0 X-145.3125 Y-98.4375 E7.5
G1 F1500.0 X-145.3125 Y-89.0625 E7.5
G1 F1500.0 X-145.3125 Y-79.6875 E7.5
G1 F1500.0 X-135.9375 Y-79.6875 E7.5
G1 F1500.0 X-135.9375 Y-89.0625 E7.5
G1 F1500.0 X-128.90625 Y-91.40625 E5.92927061282
G1 F1500.0 X-124.21875 Y-91.40625 E3.75
G1 F1500.0 X-124.21875 Y-86.71875 E3.75
G1 F1500.0 X-128.90625 Y-86.71875 E3.75
G1 F1500.0 X-128.90625 Y-82.03125 E3.75
G1 F1500.0 X-128.90625 Y-77.34375 E3.75
G1 F1500.0 X-124.21875 Y-77.34375 E3.75
G1 F1500.0 X-124.21875 Y-82.03125 E3.75
G1 F1500.0 X-119.53125 Y-82.03125 E3.75
G1 F1500.0 X-119.53125 Y-77.34375 E3.75
G1 F1500.0 X-114.84375 Y-77.34375 E3.75
G1 F1500.0 X-114.84375 Y-82.03125 E3.75
G1 F1500.0 X-114.84375 Y-86.71875 E3.75
G1 F1500.0 X-119.53125 Y-86.71875 E3.75
G1 F1500.0 X-119.53125 Y-91.40625 E3.75
G1 F1500.0 X-114.84375 Y-91.40625 E3.75
G1 F1500.0 X-114.84375 Y-96.09375 E3.75
G1 F1500.0 X-114.84375 Y-100.78125 E3.75
G1 F1500.0 X-119.53125 Y-100.78125 E3.75
G1 F1500.0 X-119.53125 Y-96.09375 E3.75
G1 F1500.0 X-124.21875 Y-96.09375 E3.75
G1 F1500.0 X-128.90625 Y-96.09375 E3.75
G1 F1500.0 X-128.90625 Y-100.78125 E3.75
G1 F1500.0 X-124.21875 Y-100.78125 E3.75
G1 F1500.0 X-124.21875 Y-105.46875 E3.75
G1 F1500.0 X-128.90625 Y-105.46875 E3.75
G1 F1500.0 X-128.90625 Y-110.15625 E3.75
G1 F1500.0 X-124.21875 Y-110.15625 E3.75
G1 F1500.0 X-119.53125 Y-110.15625 E3.75
G1 F1500.0 X-119.53125 Y-105.46875 E3.75
G1 F1500.0 X-114.84375 Y-105.46875 E3.75
G1 F1500.0 X-114.84375 Y-110.15625 E3.75
G1 F1500.0 X-110.15625 Y-110.15625 E3.75
G1 F1500.0 X-110.15625 Y-105.46875 E3.75
G1 F1500.0 X-105.46875 Y-105.46875 E3.75
G1 F1500.0 X-105.46875 Y-110.15625 E3.75
G1 F1500.0 X-100.78125 Y-110.15625 E3.75
G1 F1500.0 X-96.09375 Y-110.15625 E3.75
G1 F1500.0 X-96.09375 Y-105.46875 E3.75
G1 F1500.0 X-100.78125 Y-105.46875 E3.75
G1 F1500.0 X-100.78125 Y-100.78125 E3.75
G1 F1500.0 X-96.09375 Y-100.78125 E3.75
G1 F1500.0 X-96.09375 Y-96.09375 E3.75
G1 F1500.0 X-100.78125 Y-96.09375 E3.75
G1 F1500.0 X-105.46875 Y-96.09375 E3.75
G1 F1500.0 X-105.46875 Y-100.78125 E3.75
G1 F1500.0 X-110.15625 Y-100.78125 E3.75
G1 F1500.0 X-110.15625 Y-96.09375 E3.75
G1 F1500.0 X-110.15625 Y-91.40625 E3.75
G1 F1500.0 X-105.46875 Y-91.40625 E3.75
G1 F1500.0 X-105.46875 Y-86.71875 E3.75
G1 F1500.0 X-110.15625 Y-86.71875 E3.75
G1 F1500.0 X-110.15625 Y-82.03125 E3.75
G1 F1500.0 X-110.15625 Y-77.34375 E3.75
G1 F1500.0 X-105.46875 Y-77.34375 E3.75
G1 F1500.0 X-105.46875 Y-82.03125 E3.75
G1 F1500.0 X-100.78125 Y-82.03125 E3.75
G1 F1500.0 X-100.78125 Y-77.34375 E3.75
G1 F1500.0 X-96.09375 Y-77.34375 E3.75
G1 F1500.0 X-96.09375 Y-82.03125 E3.75
G1 F1500.0 X-96.09375 Y-86.71875 E3.75
G1 F1500.0 X-100.78125 Y-86.71875 E3.75
G1 F1500.0 X-100.78125 Y-91.40625 E3.75
G1 F1500.0 X-96.09375 Y-91.40625 E3.75
G1 F1500.0 X-89.0625 Y-89.0625 E5.92927061282
G1 F1500.0 X-89.0625 Y-79.6875 E7.5
G1 F1500.0 X-79.6875 Y-79.6875 E7.5
G1 F1500.0 X-79.6875 Y-89.0625 E7.5
G1 F1500.0 X-79.6875 Y-98.4375 E7.5
G1 F1500.0 X-89.0625 Y-98.4375 E7.5
G1 F1500.0 X-89.0625 Y-107.8125 E7.5
G1 F1500.0 X-79.6875 Y-107.8125 E7.5
G1 F1500.0 X-84.375 Y-121.875 E11.8585412256
G1 F1500.0 X-103.125 Y-121.875 E15.0
G1 F1500.0 X-103.125 Y-140.625 E15.0
G1 F1500.0 X-84.375 Y-140.625 E15.0
G1 F1500.0 X-56.25 Y-131.25 E23.7170824513
G1 F1500.0 X-18.75 Y-131.25 E30.0
G1 F1500.0 X-18.75 Y-93.75 E30.0
G1 F1500.0 X-56.25 Y-93.75 E30.0
G1 F1500.0 X-65.625 Y-65.625 E23.7170824513
G1 F1500.0 X-65.625 Y-46.875 E15.0
G1 F1500.0 X-46.875 Y-46.875 E15.0
G1 F1500.0 X-46.875 Y-65.625 E15.0
G1 F1500.0 X-28.125 Y-65.625 E15.0
G1 F1500.0 X-9.375 Y-65.625 E15.0
G1 F1500.0 X-9.375 Y-46.875 E15.0
G1 F1500.0 X-28.125 Y-46.875 E15.0
G1 F1500.0 X-28.125 Y-28.125 E15.0
G1 F1500.0 X-9.375 Y-28.125 E15.0
G1 F1500.0 X-9.375 Y-9.375 E15.0
G1 F1500.0 X-28.125 Y-9.375 E15.0
G1 F1500.0 X-39.84375 Y-2.34375 E10.9330348028
G1 F1500.0 X-39.84375 Y-7.03125 E3.75
G1 F1500.0 X-44.53125 Y-7.03125 E3.75
G1 F1500.0 X-44.53125 Y-2.34375 E3.75
G1 F1500.0 X-49.21875 Y-2.34375 E3.75
G1 F1500.0 X-53.90625 Y-2.34375 E3.75
G1 F1500.0 X-53.90625 Y-7.03125 E3.75
G1 F1500.0 X-49.21875 Y-7.03125 E3.75
G1 F1500.0 X-49.21875 Y-11.71875 E3.75
G1 F1500.0 X-53.90625 Y-11.71875 E3.75
G1 F1500.0 X-53.90625 Y-16.40625 E3.75
G1 F1500.0 X-49.21875 Y-16.40625 E3.75
G1 F1500.0 X-44.53125 Y-16.40625 E3.75
G1 F1500.0 X-44.53125 Y-11.71875 E3.75
G1 F1500.0 X-39.84375 Y-11.71875 E3.75
G1 F1500.0 X-39.84375 Y-16.40625 E3.75
G1 F1500.0 X-42.1875 Y-23.4375 E5.92927061282
G1 F1500.0 X-42.1875 Y-32.8125 E7.5
G1 F1500.0 X-51.5625 Y-32.8125 E7.5
G1 F1500.0 X-51.5625 Y-23.4375 E7.5
G1 F1500.0 X-58.59375 Y-21.09375 E5.92927061282
G1 F1500.0 X-63.28125 Y-21.09375 E3.75
G1 F1500.0 X-63.28125 Y-25.78125 E3.75
G1 F1500.0 X-58.59375 Y-25.78125 E3.75
G1 F1500.0 X-58.59375 Y-30.46875 E3.75
G1 F1500.0 X-58.59375 Y-35.15625 E3.75
G1 F1500.0 X-63.28125 Y-35.15625 E3.75
G1 F1500.0 X-63.28125 Y-30.46875 E3.75
G1 F1500.0 X-67.96875 Y-30.46875 E3.75
G1 F1500.0 X-67.96875 Y-35.15625 E3.75
G1 F1500.0 X-72.65625 Y-35.15625 E3.75
G1 F1500.0 X-72.65625 Y-30.46875 E3.75
G1 F1500.0 X-72.65625 Y-25.78125 E3.75
G1 F1500.0 X-67.96875 Y-25.78125 E3.75
G1 F1500.0 X-67.96875 Y-21.09375 E3.75
G1 F1500.0 X-72.65625 Y-21.09375 E3.75
G1 F1500.0 X-72.65625 Y-16.40625 E3.75
G1 F1500.0 X-72.65625 Y-11.71875 E3.75
G1 F1500.0 X-67.96875 Y-11.71875 E3.75
G1 F1500.0 X-67.96875 Y-16.40625 E3.75
G1 F1500.0 X-63.28125 Y-16.40625 E3.75
G1 F1500.0 X-58.59375 Y-16.40625 E3.75
G1 F1500.0 X-58.59375 Y-11.71875 E3.75
G1 F1500.0 X-63.28125 Y-11.71875 E3.75
G1 F1500.0 X-63.28125 Y-7.03125 E3.75
G1 F1500.0 X-58.59375 Y-7.03125 E3.75
G1 F1500.0 X-58.59375 Y-2.34375 E3.75
G1 F1500.0 X-63.28125 Y-2.34375 E3.75
G1 F1500.0 X-67.96875 Y-2.34375 E3.75
G1 F1500.0 X-67.96875 Y-7.03125 E3.75
G1 F1500.0 X-72.65625 Y-7.03125 E3.75
G1 F1500.0 X-72.65625 Y-2.34375 E3.75
G1 F1500.0 X-79.6875 Y-4.6875 E5.92927061282
G1 F1500.0 X-79.6875 Y-14.0625 E7.5
G1 F1500.0 X-89.0625 Y-14.0625 E7.5
G1 F1500.0 X-89.0625 Y-4.6875 E7.5
G1 F1500.0 X-98.4375 Y-4.6875 E7.5
G1 F1500.0 X-107.8125 Y-4.6875 E7.5
G1 F1500.0 X-107.8125 Y-14.0625 E7.5
G1 F1500.0 X-98.4375 Y-14.0625 E7.5
G1 F1500.0 X-98.4375 Y-23.4375 E7.5
G1 F1500.0 X-107.8125 Y-23.4375 E7.5
G1 F1500.0 X-107.8125 Y-32.8125 E7.5
G1 F1500.0 X-98.4375 Y-32.8125 E7.5
G1 F1500.0 X-91.40625 Y-35.15625 E5.92927061282
G1 F1500.0 X-86.71875 Y-35.15625 E3.75
G1 F1500.0 X-86.71875 Y-30.46875 E3.75
G1 F1500.0 X-91.40625 Y-30.46875 E3.75
G1 F1500.0 X-91.40625 Y-25.78125 E3.75
G1 F1500.0 X-91.40625 Y-21.09375 E3.75
G1 F1500.0 X-86.71875 Y-21.09375 E3.75
G1 F1500.0 X-86.71875 Y-25.78125 E3.75
G1 F1500.0 X-82.03125 Y-25.78125 E3.75
G1 F1500.0 X-82.03125 Y-21.09375 E3.75
G1 F1500.0 X-77.34375 Y-21.09375 E3.75
G1 F1500.0 X-77.34375 Y-25.78125 E3.75
G1 F1500.0 X-77.34375 Y-30.46875 E3.75
G1 F1500.0 X-82.03125 Y-30.46875 E3.75
G1 F1500.0 X-82.03125 Y-35.15625 E3.75
G1 F1500.0 X-77.34375 Y-35.15625 E3.75
G1 F1500.0 X-77.34375 Y-39.84375 E3.75
G1 F1500.0 X-77.34375 Y-44.53125 E3.75
G1 F1500.0 X-82.03125 Y-44.53125 E3.75
G1 F1500.0 X-82.03125 Y-39.84375 E3.75
G1 F1500.0 X-86.71875 Y-39.84375 E3.75
G1 F1500.0 X-91.40625 Y-39.84375 E3.75
G1 F1500.0 X-91.40625 Y-44.53125 E3.75
G1 F1500.0 X-86.71875 Y-44.53125 E3.75
G1 F1500.0 X-86.71875 Y-49.21875 E3.75
G1 F1500.0 X-91.40625 Y-49.21875 E3.75
G1 F1500.0 X-91.40625 Y-53.90625 E3.75
G1 F1500.0 X-86.71875 Y-53.90625 E3.75
G1 F1500.0 X-82.03125 Y-53.90625 E3.75
G1 F1500.0 X-82.03125 Y-49.21875 E3.75
G1 F1500.0 X-77.34375 Y-49.21875 E3.75
G1 F1500.0 X-77.34375 Y-53.90625 E3.75
G1 F1500.0 X-77.34375 Y-58.59375 E3.75
G1 F1500.0 X-82.03125 Y-58.59375 E3.75
G1 F1500.0 X-82.03125 Y-63.28125 E3.75
G1 F1500.0 X-77.34375 Y-63.28125 E3.75
G1 F1500.0 X-77.34375 Y-67.96875 E3.75
G1 F1500.0 X-77.34375 Y-72.65625 E3.75
G1 F1500.0 X-82.03125 Y-72.65625 E3.75
G1 F1500.0 X-82.03125 Y-67.96875 E3.75
G1 F1500.0 X-86.71875 Y-67.96875 E3.75
G1 F1500.0 X-86.71875 Y-72.65625 E3.75
G1 F1500.0 X-91.40625 Y-72.65625 E3.75
G1 F1500.0 X-91.40625 Y-67.96875 E3.75
G1 F1500.0 X-91.40625 Y-63.28125 E3.75
G1 F1500.0 X-86.71875 Y-63.28125 E3.75
G1 F1500.0 X-86.71875 Y-58.59375 E3.75
G1 F1500.0 X-91.40625 Y-58.59375 E3.75
G1 F1500.0 X-96.09375 Y-58.59375 E3.75
G1 F1500.0 X-100.78125 Y-58.59375 E3.75
G1 F1500.0 X-100.78125 Y-63.28125 E3.75
G1 F1500.0 X-96.09375 Y-63.28125 E3.75
G1 F1500.0 X-96.09375 Y-67.96875 E3.75
G1 F1500.0 X-96.09375 Y-72.65625 E3.75
G1 F1500.0 X-100.78125 Y-72.65625 E3.75
G1 F1500.0 X-100.78125 Y-67.96875 E3.75
G1 F1500.0 X-105.46875 Y-67.96875 E3.75
G1 F1500.0 X-105.46875 Y-72.65625 E3.75
G1 F1500.0 X-110.15625 Y-72.65625 E3.75
G1 F1500.0 X-110.15625 Y-67.96875 E3.75
G1 F1500.0 X-110.15625 Y-63.28125 E3.75
G1 F1500.0 X-105.46875 Y-63.28125 E3.75
G1 F1500.0 X-105.46875 Y-58.59375 E3.75
G1 F1500.0 X-110.15625 Y-58.59375 E3.75
G1 F1500.0 X-107.8125 Y-51.5625 E5.92927061282
G1 F1500.0 X-98.4375 Y-51.5625 E7.5
G1 F1500.0 X-98.4375 Y-42.1875 E7.5
G1 F1500.0 X-107.8125 Y-42.1875 E7.5
G1 F1500.0 X-121.875 Y-46.875 E11.8585412256
G1 F1500.0 X-121.875 Y-65.625 E15.0
G1 F1500.0 X-140.625 Y-65.625 E15.0
G1 F1500.0 X-140.625 Y-46.875 E15.0
G1 F1500.0 X-140.625 Y-28.125 E15.0
G1 F1500.0 X-121.875 Y-28.125 E15.0
G1 F1500.0 X-121.875 Y-9.375 E15.0
G1 F1500.0 X-140.625 Y-9.375 E15.0
G1 F1500.0 X-131.25 Y18.75 E23.7170824513
G1 F1500.0 X-93.75 Y18.75 E30.0
G1 F1500.0 X-93.75 Y56.25 E30.0
G1 F1500.0 X-131.25 Y56.25 E30.0
G1 F1500.0 X-131.25 Y93.75 E30.0
G1 F1500.0 X-131.25 Y131.25 E30.0
G1 F1500.0 X-93.75 Y131.25 E30.0
G1 F1500.0 X-93.75 Y93.75 E30.0
G1 F1500.0 X-65.625 Y84.375 E23.7170824513
G1 F1500.0 X-46.875 Y84.375 E15.0
G1 F1500.0 X-46.875 Y103.125 E15.0
G1 F1500.0 X-65.625 Y103.125 E15.0
G1 F1500.0 X-65.625 Y121.875 E15.0
G1 F1500.0 X-65.625 Y140.625 E15.0
G1 F1500.0 X-46.875 Y140.625 E15.0
G1 F1500.0 X-46.875 Y121.875 E15.0
G1 F1500.0 X-28.125 Y121.875 E15.0
G1 F1500.0 X-28.125 Y140.625 E15.0
G1 F1500.0 X-9.375 Y140.625 E15.0
G1 F1500.0 X-9.375 Y121.875 E15.0
G1 F1500.0 X-4.6875 Y107.8125 E11.8585412256
G1 F1500.0 X-4.6875 Y98.4375 E7.5
G1 F1500.0 X-14.0625 Y98.4375 E7.5
G1 F1500.0 X-14.0625 Y107.8125 E7.5
G1 F1500.0 X-23.4375 Y107.8125 E7.5
G1 F1500.0 X-32.8125 Y107.8125 E7.5
G1 F1500.0 X-32.8125 Y98.4375 E7.5
G1 F1500.0 X-23.4375 Y98.4375 E7.5
G1 F1500.0 X-23.4375 Y89.0625 E7.5
G1 F1500.0 X-32.8125 Y89.0625 E7.5
G1 F1500.0 X-32.8125 Y79.6875 E7.5
G1 F1500.0 X-23.4375 Y79.6875 E7.5
G1 F1500.0 X-16.40625 Y77.34375 E5.92927061282
G1 F1500.0 X-11.71875 Y77.34375 E3.75
G1 F1500.0 X-11.71875 Y82.03125 E3.75
G1 F1500.0 X-16.40625 Y82.03125 E3.75
G1 F1500.0 X-16.40625 Y86.71875 E3.75
G1 F1500.0 X-16.40625 Y91.40625 E3.75
G1 F1500.0 X-11.71875 Y91.40625 E3.75
G1 F1500.0 X-11.71875 Y86.71875 E3.75
G1 F1500.0 X-7.03125 Y86.71875 E3.75
G1 F1500.0 X-7.03125 Y91.40625 E3.75
G1 F1500.0 X-2.34375 Y91.40625 E3.75
G1 F1500.0 X-2.34375 Y86.71875 E3.75
G1 F1500.0 X-2.34375 Y82.03125 E3.75
G1 F1500.0 X-7.03125 Y82.03125 E3.75
G1 F1500.0 X-7.03125 Y77.34375 E3.75
G1 F1500.0 X-2.34375 Y77.34375 E3.75
G1 F1500.0 X-2.34375 Y72.65625 E3.75
G1 F1500.0 X-2.34375 Y67.96875 E3.75
G1 F1500.0 X-7.03125 Y67.96875 E3.75
G1 F1500.0 X-7.03125 Y72.65625 E3.75
G1 F1500.0 X-11.71875 Y72.65625 E3.75
G1 F1500.0 X-16.40625 Y72.65625 E3.75
G1 F1500.0 X-16.40625 Y67.96875 E3.75
G1 F1500.0 X-11.71875 Y67.96875 E3.75
G1 F1500.0 X-11.71875 Y63.28125 E3.75
G1 F1500.0 X-16.40625 Y63.28125 E3.75
G1 F1500.0 X-16.40625 Y58.59375 E3.75
G1 F1500.0 X-11.71875 Y58.59375 E3.75
G1 F1500.0 X-7.03125 Y58.59375 E3.75
G1 F1500.0 X-7.03125 Y63.28125 E3.75
G1 F1500.0 X-2.34375 Y63.28125 E3.75
G1 F1500.0 X-2.34375 Y58.59375 E3.75
G1 F1500.0 X-4.6875 Y51.5625 E5.92927061282
G1 F1500.0 X-4.6875 Y42.1875 E7.5
G1 F1500.0 X-14.0625 Y42.1875 E7.5
G1 F1500.0 X-14.0625 Y51.5625 E7.5
G1 F1500.0 X-21.09375 Y53.90625 E5.92927061282
G1 F1500.0 X-25.78125 Y53.90625 E3.75
G1 F1500.0 X-25.78125 Y49.21875 E3.75
G1 F1500.0 X-21.09375 Y49.21875 E3.75
G1 F1500.0 X-21.09375 Y44.53125 E3.75
G1 F1500.0 X-21.09375 Y39.84375 E3.75
G1 F1500.0 X-25.78125 Y39.84375 E3.75
G1 F1500.0 X-25.78125 Y44.53125 E3.75
G1 F1500.0 X-30.46875 Y44.53125 E3.75
G1 F1500.0 X-30.46875 Y39.84375 E3.75
G1 F1500.0 X-35.15625 Y39.84375 E3.75
G1 F1500.0 X-35.15625 Y44.53125 E3.75
G1 F1500.0 X-35.15625 Y49.21875 E3.75
G1 F1500.0 X-30.46875 Y49.21875 E3.75
G1 F1500.0 X-30.46875 Y53.90625 E3.75
G1 F1500.0 X-35.15625 Y53.90625 E3.75
G1 F1500.0 X-35.15625 Y58.59375 E3.75
G1 F1500.0 X-35.15625 Y63.28125 E3.75
G1 F1500.0 X-30.46875 Y63.28125 E3.75
