;_project: : hilbert_TPMS
;_project_by: : WenqianYang, JonasWard
;_project_gcode_generator_by: : JonasWard
;library_path : /Users/jonas/Documents/HilbertAndCo/src
/Users/jonas/Documents/HilbertAndCo/src/spacemapping_curve/gcode/GCodeDefinitions/startGcode.txt
/Users/jonas/Documents/HilbertAndCo/src/spacemapping_curve/gcode/GCodeDefinitions/endGcode.txt
;Sliced by ideaMaker 3.3.0.2343, 2020-02-08 22:55:15 UTC+0100
;Dimension: 250.000 210.000 210.000 0.400
;Plate Shape: 0
;Extruder Offset #1: 25.000 0.000
;Filament Diameter #1: 1.750
;Filament Diameter #2: 1.750
;Filament Compensation #1: 94.00
;Filament Compensation #2: 94.00
;Filament Density #1: 1240.00
;Filament Density #2: 1240.00
;Model Gap: 0.200
M221 T0 S94.00
M140 S60.00
M104 T0 S205.00
M109 T0 S205.00
T0
M190 S60.00
M115 U3.1.0 ; tell printer latest fw version
M83  ; extruder relative mode
M104 S205 ; set extruder temp
M140 S60 ; set bed temp
M190 S60 ; wait for bed temp
M109 S205 ; wait for extruder temp
G28 W ; home all without mesh bed level
G80 ; mesh bed leveling
G1 Y-3.0 F1000.0 ; go outside print area
G92 E0.0
G1 X60.0 E9.0  F1000.0 ; intro line
G1 X100.0 E12.5  F1000.0 ; intro line
G92 E0.0
M83
M1001
M106 S0
;LAYER:-2
;Z:0.500
;HEIGHT:0.500
G0 F6000 X93.481 Y70.719
G0 F1500 Z0.500
;TYPE:RAFT
;WIDTH:0.800
G1 F1500.0 X-145.3125 Y-145.3125
G1 X-145.3125 Y-135.9375 E7.5
G1 F1500.0 X-135.9375 Y-135.9375 E7.5
G1 F1500.0 X-135.9375 Y-145.3125 E7.5
G1 F1500.0 X-126.5625 Y-145.3125 E7.5
G1 F1500.0 X-117.1875 Y-145.3125 E7.5
G1 F1500.0 X-117.1875 Y-135.9375 E7.5
G1 F1500.0 X-126.5625 Y-135.9375 E7.5
G1 F1500.0 X-126.5625 Y-126.5625 E7.5
G1 F1500.0 X-117.1875 Y-126.5625 E7.5
G1 F1500.0 X-117.1875 Y-117.1875 E7.5
G1 F1500.0 X-126.5625 Y-117.1875 E7.5
G1 F1500.0 X-135.9375 Y-117.1875 E7.5
G1 F1500.0 X-135.9375 Y-126.5625 E7.5
G1 F1500.0 X-145.3125 Y-126.5625 E7.5
G1 F1500.0 X-145.3125 Y-117.1875 E7.5
G1 F1500.0 X-145.3125 Y-107.8125 E7.5
G1 F1500.0 X-135.9375 Y-107.8125 E7.5
G1 F1500.0 X-135.9375 Y-98.4375 E7.5
G1 F1500.0 X-145.3125 Y-98.4375 E7.5
G1 F1500.0 X-145.3125 Y-89.0625 E7.5
G1 F1500.0 X-145.3125 Y-79.6875 E7.5
G1 F1500.0 X-135.9375 Y-79.6875 E7.5
G1 F1500.0 X-135.9375 Y-89.0625 E7.5
G1 F1500.0 X-126.5625 Y-89.0625 E7.5
G1 F1500.0 X-126.5625 Y-79.6875 E7.5
G1 F1500.0 X-117.1875 Y-79.6875 E7.5
G1 F1500.0 X-117.1875 Y-89.0625 E7.5
G1 F1500.0 X-117.1875 Y-98.4375 E7.5
G1 F1500.0 X-126.5625 Y-98.4375 E7.5
G1 F1500.0 X-126.5625 Y-107.8125 E7.5
G1 F1500.0 X-117.1875 Y-107.8125 E7.5
G1 F1500.0 X-107.8125 Y-107.8125 E7.5
G1 F1500.0 X-98.4375 Y-107.8125 E7.5
G1 F1500.0 X-98.4375 Y-98.4375 E7.5
G1 F1500.0 X-107.8125 Y-98.4375 E7.5
G1 F1500.0 X-107.8125 Y-89.0625 E7.5
G1 F1500.0 X-107.8125 Y-79.6875 E7.5
G1 F1500.0 X-98.4375 Y-79.6875 E7.5
G1 F1500.0 X-98.4375 Y-89.0625 E7.5
G1 F1500.0 X-89.0625 Y-89.0625 E7.5
G1 F1500.0 X-89.0625 Y-79.6875 E7.5
G1 F1500.0 X-79.6875 Y-79.6875 E7.5
G1 F1500.0 X-79.6875 Y-89.0625 E7.5
G1 F1500.0 X-79.6875 Y-98.4375 E7.5
G1 F1500.0 X-89.0625 Y-98.4375 E7.5
G1 F1500.0 X-89.0625 Y-107.8125 E7.5
G1 F1500.0 X-79.6875 Y-107.8125 E7.5
G1 F1500.0 X-84.375 Y-121.875 E11.8585412256
G1 F1500.0 X-103.125 Y-121.875 E15.0
G1 F1500.0 X-103.125 Y-140.625 E15.0
G1 F1500.0 X-84.375 Y-140.625 E15.0
G1 F1500.0 X-56.25 Y-131.25 E23.7170824513
G1 F1500.0 X-18.75 Y-131.25 E30.0
G1 F1500.0 X-18.75 Y-93.75 E30.0
G1 F1500.0 X-56.25 Y-93.75 E30.0
G1 F1500.0 X-65.625 Y-65.625 E23.7170824513
G1 F1500.0 X-65.625 Y-46.875 E15.0
G1 F1500.0 X-46.875 Y-46.875 E15.0
G1 F1500.0 X-46.875 Y-65.625 E15.0
G1 F1500.0 X-28.125 Y-65.625 E15.0
G1 F1500.0 X-9.375 Y-65.625 E15.0
G1 F1500.0 X-9.375 Y-46.875 E15.0
G1 F1500.0 X-28.125 Y-46.875 E15.0
G1 F1500.0 X-28.125 Y-28.125 E15.0
G1 F1500.0 X-9.375 Y-28.125 E15.0
G1 F1500.0 X-9.375 Y-9.375 E15.0
G1 F1500.0 X-28.125 Y-9.375 E15.0
G1 F1500.0 X-42.1875 Y-4.6875 E11.8585412256
G1 F1500.0 X-51.5625 Y-4.6875 E7.5
G1 F1500.0 X-51.5625 Y-14.0625 E7.5
G1 F1500.0 X-42.1875 Y-14.0625 E7.5
G1 F1500.0 X-42.1875 Y-23.4375 E7.5
G1 F1500.0 X-42.1875 Y-32.8125 E7.5
G1 F1500.0 X-51.5625 Y-32.8125 E7.5
G1 F1500.0 X-51.5625 Y-23.4375 E7.5
G1 F1500.0 X-60.9375 Y-23.4375 E7.5
G1 F1500.0 X-60.9375 Y-32.8125 E7.5
G1 F1500.0 X-70.3125 Y-32.8125 E7.5
G1 F1500.0 X-70.3125 Y-23.4375 E7.5
G1 F1500.0 X-70.3125 Y-14.0625 E7.5
G1 F1500.0 X-60.9375 Y-14.0625 E7.5
G1 F1500.0 X-60.9375 Y-4.6875 E7.5
G1 F1500.0 X-70.3125 Y-4.6875 E7.5
G1 F1500.0 X-84.375 Y-9.375 E11.8585412256
G1 F1500.0 X-103.125 Y-9.375 E15.0
G1 F1500.0 X-103.125 Y-28.125 E15.0
G1 F1500.0 X-84.375 Y-28.125 E15.0
G1 F1500.0 X-79.6875 Y-42.1875 E11.8585412256
G1 F1500.0 X-89.0625 Y-42.1875 E7.5
G1 F1500.0 X-89.0625 Y-51.5625 E7.5
G1 F1500.0 X-79.6875 Y-51.5625 E7.5
G1 F1500.0 X-79.6875 Y-60.9375 E7.5
G1 F1500.0 X-79.6875 Y-70.3125 E7.5
G1 F1500.0 X-89.0625 Y-70.3125 E7.5
G1 F1500.0 X-89.0625 Y-60.9375 E7.5
G1 F1500.0 X-98.4375 Y-60.9375 E7.5
G1 F1500.0 X-98.4375 Y-70.3125 E7.5
G1 F1500.0 X-107.8125 Y-70.3125 E7.5
G1 F1500.0 X-107.8125 Y-60.9375 E7.5
G1 F1500.0 X-107.8125 Y-51.5625 E7.5
G1 F1500.0 X-98.4375 Y-51.5625 E7.5
G1 F1500.0 X-98.4375 Y-42.1875 E7.5
G1 F1500.0 X-107.8125 Y-42.1875 E7.5
G1 F1500.0 X-121.875 Y-46.875 E11.8585412256
G1 F1500.0 X-121.875 Y-65.625 E15.0
G1 F1500.0 X-140.625 Y-65.625 E15.0
G1 F1500.0 X-140.625 Y-46.875 E15.0
G1 F1500.0 X-140.625 Y-28.125 E15.0
G1 F1500.0 X-121.875 Y-28.125 E15.0
G1 F1500.0 X-121.875 Y-9.375 E15.0
G1 F1500.0 X-140.625 Y-9.375 E15.0
G1 F1500.0 X-131.25 Y18.75 E23.7170824513
G1 F1500.0 X-93.75 Y18.75 E30.0
G1 F1500.0 X-93.75 Y56.25 E30.0
G1 F1500.0 X-131.25 Y56.25 E30.0
G1 F1500.0 X-131.25 Y93.75 E30.0
G1 F1500.0 X-131.25 Y131.25 E30.0
G1 F1500.0 X-93.75 Y131.25 E30.0
G1 F1500.0 X-93.75 Y93.75 E30.0
G1 F1500.0 X-65.625 Y84.375 E23.7170824513
G1 F1500.0 X-46.875 Y84.375 E15.0
G1 F1500.0 X-46.875 Y103.125 E15.0
G1 F1500.0 X-65.625 Y103.125 E15.0
G1 F1500.0 X-65.625 Y121.875 E15.0
G1 F1500.0 X-65.625 Y140.625 E15.0
G1 F1500.0 X-46.875 Y140.625 E15.0
G1 F1500.0 X-46.875 Y121.875 E15.0
G1 F1500.0 X-28.125 Y121.875 E15.0
G1 F1500.0 X-28.125 Y140.625 E15.0
G1 F1500.0 X-9.375 Y140.625 E15.0
G1 F1500.0 X-9.375 Y121.875 E15.0
G1 F1500.0 X-4.6875 Y107.8125 E11.8585412256
G1 F1500.0 X-4.6875 Y98.4375 E7.5
G1 F1500.0 X-14.0625 Y98.4375 E7.5
G1 F1500.0 X-14.0625 Y107.8125 E7.5
G1 F1500.0 X-23.4375 Y107.8125 E7.5
G1 F1500.0 X-32.8125 Y107.8125 E7.5
G1 F1500.0 X-32.8125 Y98.4375 E7.5
G1 F1500.0 X-23.4375 Y98.4375 E7.5
G1 F1500.0 X-23.4375 Y89.0625 E7.5
G1 F1500.0 X-32.8125 Y89.0625 E7.5
G1 F1500.0 X-32.8125 Y79.6875 E7.5
G1 F1500.0 X-23.4375 Y79.6875 E7.5
G1 F1500.0 X-14.0625 Y79.6875 E7.5
G1 F1500.0 X-14.0625 Y89.0625 E7.5
G1 F1500.0 X-4.6875 Y89.0625 E7.5
G1 F1500.0 X-4.6875 Y79.6875 E7.5
G1 F1500.0 X-4.6875 Y70.3125 E7.5
G1 F1500.0 X-14.0625 Y70.3125 E7.5
G1 F1500.0 X-14.0625 Y60.9375 E7.5
G1 F1500.0 X-4.6875 Y60.9375 E7.5
G1 F1500.0 X-4.6875 Y51.5625 E7.5
G1 F1500.0 X-4.6875 Y42.1875 E7.5
G1 F1500.0 X-14.0625 Y42.1875 E7.5
G1 F1500.0 X-14.0625 Y51.5625 E7.5
G1 F1500.0 X-23.4375 Y51.5625 E7.5
G1 F1500.0 X-23.4375 Y42.1875 E7.5
G1 F1500.0 X-32.8125 Y42.1875 E7.5
G1 F1500.0 X-32.8125 Y51.5625 E7.5
G1 F1500.0 X-32.8125 Y60.9375 E7.5
G1 F1500.0 X-23.4375 Y60.9375 E7.5
G1 F1500.0 X-23.4375 Y70.3125 E7.5
G1 F1500.0 X-32.8125 Y70.3125 E7.5
G1 F1500.0 X-46.875 Y65.625 E11.8585412256
G1 F1500.0 X-65.625 Y65.625 E15.0
G1 F1500.0 X-65.625 Y46.875 E15.0
G1 F1500.0 X-46.875 Y46.875 E15.0
G1 F1500.0 X-42.1875 Y32.8125 E11.8585412256
G1 F1500.0 X-42.1875 Y23.4375 E7.5
G1 F1500.0 X-51.5625 Y23.4375 E7.5
G1 F1500.0 X-51.5625 Y32.8125 E7.5
G1 F1500.0 X-60.9375 Y32.8125 E7.5
G1 F1500.0 X-70.3125 Y32.8125 E7.5
G1 F1500.0 X-70.3125 Y23.4375 E7.5
G1 F1500.0 X-60.9375 Y23.4375 E7.5
G1 F1500.0 X-60.9375 Y14.0625 E7.5
G1 F1500.0 X-70.3125 Y14.0625 E7.5
G1 F1500.0 X-70.3125 Y4.6875 E7.5
G1 F1500.0 X-60.9375 Y4.6875 E7.5
G1 F1500.0 X-51.5625 Y4.6875 E7.5
G1 F1500.0 X-51.5625 Y14.0625 E7.5
G1 F1500.0 X-42.1875 Y14.0625 E7.5
G1 F1500.0 X-42.1875 Y4.6875 E7.5
G1 F1500.0 X-32.8125 Y4.6875 E7.5
G1 F1500.0 X-23.4375 Y4.6875 E7.5
G1 F1500.0 X-23.4375 Y14.0625 E7.5
G1 F1500.0 X-32.8125 Y14.0625 E7.5
G1 F1500.0 X-32.8125 Y23.4375 E7.5
G1 F1500.0 X-32.8125 Y32.8125 E7.5
G1 F1500.0 X-23.4375 Y32.8125 E7.5
G1 F1500.0 X-23.4375 Y23.4375 E7.5
G1 F1500.0 X-14.0625 Y23.4375 E7.5
G1 F1500.0 X-14.0625 Y32.8125 E7.5
G1 F1500.0 X-4.6875 Y32.8125 E7.5
G1 F1500.0 X-4.6875 Y23.4375 E7.5
G1 F1500.0 X-4.6875 Y14.0625 E7.5
G1 F1500.0 X-14.0625 Y14.0625 E7.5
G1 F1500.0 X-14.0625 Y4.6875 E7.5
G1 F1500.0 X-4.6875 Y4.6875 E7.5
G1 F1500.0 X4.6875 Y4.6875 E7.5
G1 F1500.0 X14.0625 Y4.6875 E7.5
G1 F1500.0 X14.0625 Y14.0625 E7.5
G1 F1500.0 X4.6875 Y14.0625 E7.5
G1 F1500.0 X4.6875 Y23.4375 E7.5
G1 F1500.0 X4.6875 Y32.8125 E7.5
G1 F1500.0 X14.0625 Y32.8125 E7.5
G1 F1500.0 X14.0625 Y23.4375 E7.5
G1 F1500.0 X23.4375 Y23.4375 E7.5
G1 F1500.0 X23.4375 Y32.8125 E7.5
G1 F1500.0 X32.8125 Y32.8125 E7.5
G1 F1500.0 X32.8125 Y23.4375 E7.5
G1 F1500.0 X32.8125 Y14.0625 E7.5
G1 F1500.0 X23.4375 Y14.0625 E7.5
G1 F1500.0 X23.4375 Y4.6875 E7.5
G1 F1500.0 X32.8125 Y4.6875 E7.5
G1 F1500.0 X42.1875 Y4.6875 E7.5
G1 F1500.0 X42.1875 Y14.0625 E7.5
G1 F1500.0 X51.5625 Y14.0625 E7.5
G1 F1500.0 X51.5625 Y4.6875 E7.5
G1 F1500.0 X60.9375 Y4.6875 E7.5
G1 F1500.0 X70.3125 Y4.6875 E7.5
G1 F1500.0 X70.3125 Y14.0625 E7.5
G1 F1500.0 X60.9375 Y14.0625 E7.5
G1 F1500.0 X60.9375 Y23.4375 E7.5
G1 F1500.0 X70.3125 Y23.4375 E7.5
G1 F1500.0 X70.3125 Y32.8125 E7.5
G1 F1500.0 X60.9375 Y32.8125 E7.5
G1 F1500.0 X51.5625 Y32.8125 E7.5
G1 F1500.0 X51.5625 Y23.4375 E7.5
G1 F1500.0 X42.1875 Y23.4375 E7.5
G1 F1500.0 X42.1875 Y32.8125 E7.5
G1 F1500.0 X46.875 Y46.875 E11.8585412256
G1 F1500.0 X65.625 Y46.875 E15.0
G1 F1500.0 X65.625 Y65.625 E15.0
G1 F1500.0 X46.875 Y65.625 E15.0
G1 F1500.0 X32.8125 Y70.3125 E11.8585412256
G1 F1500.0 X23.4375 Y70.3125 E7.5
G1 F1500.0 X23.4375 Y60.9375 E7.5
G1 F1500.0 X32.8125 Y60.9375 E7.5
G1 F1500.0 X32.8125 Y51.5625 E7.5
G1 F1500.0 X32.8125 Y42.1875 E7.5
G1 F1500.0 X23.4375 Y42.1875 E7.5
G1 F1500.0 X23.4375 Y51.5625 E7.5
G1 F1500.0 X14.0625 Y51.5625 E7.5
G1 F1500.0 X14.0625 Y42.1875 E7.5
G1 F1500.0 X4.6875 Y42.1875 E7.5
G1 F1500.0 X4.6875 Y51.5625 E7.5
G1 F1500.0 X4.6875 Y60.9375 E7.5
G1 F1500.0 X14.0625 Y60.9375 E7.5
G1 F1500.0 X14.0625 Y70.3125 E7.5
G1 F1500.0 X4.6875 Y70.3125 E7.5
G1 F1500.0 X4.6875 Y79.6875 E7.5
G1 F1500.0 X4.6875 Y89.0625 E7.5
G1 F1500.0 X14.0625 Y89.0625 E7.5
G1 F1500.0 X14.0625 Y79.6875 E7.5
G1 F1500.0 X23.4375 Y79.6875 E7.5
G1 F1500.0 X32.8125 Y79.6875 E7.5
G1 F1500.0 X32.8125 Y89.0625 E7.5
G1 F1500.0 X23.4375 Y89.0625 E7.5
G1 F1500.0 X23.4375 Y98.4375 E7.5
G1 F1500.0 X32.8125 Y98.4375 E7.5
G1 F1500.0 X32.8125 Y107.8125 E7.5
G1 F1500.0 X23.4375 Y107.8125 E7.5
G1 F1500.0 X14.0625 Y107.8125 E7.5
G1 F1500.0 X14.0625 Y98.4375 E7.5
G1 F1500.0 X4.6875 Y98.4375 E7.5
G1 F1500.0 X4.6875 Y107.8125 E7.5
G1 F1500.0 X9.375 Y121.875 E11.8585412256
G1 F1500.0 X9.375 Y140.625 E15.0
G1 F1500.0 X28.125 Y140.625 E15.0
G1 F1500.0 X28.125 Y121.875 E15.0
G1 F1500.0 X46.875 Y121.875 E15.0
G1 F1500.0 X46.875 Y140.625 E15.0
G1 F1500.0 X65.625 Y140.625 E15.0
G1 F1500.0 X65.625 Y121.875 E15.0
G1 F1500.0 X65.625 Y103.125 E15.0
G1 F1500.0 X46.875 Y103.125 E15.0
G1 F1500.0 X46.875 Y84.375 E15.0
G1 F1500.0 X65.625 Y84.375 E15.0
G1 F1500.0 X93.75 Y93.75 E23.7170824513
G1 F1500.0 X93.75 Y131.25 E30.0
G1 F1500.0 X131.25 Y131.25 E30.0
G1 F1500.0 X131.25 Y93.75 E30.0
G1 F1500.0 X131.25 Y56.25 E30.0
G1 F1500.0 X93.75 Y56.25 E30.0
G1 F1500.0 X93.75 Y18.75 E30.0
G1 F1500.0 X131.25 Y18.75 E30.0
G1 F1500.0 X140.625 Y-9.375 E23.7170824513
G1 F1500.0 X121.875 Y-9.375 E15.0
G1 F1500.0 X121.875 Y-28.125 E15.0
G1 F1500.0 X140.625 Y-28.125 E15.0
G1 F1500.0 X140.625 Y-46.875 E15.0
G1 F1500.0 X140.625 Y-65.625 E15.0
G1 F1500.0 X121.875 Y-65.625 E15.0
G1 F1500.0 X121.875 Y-46.875 E15.0
G1 F1500.0 X107.8125 Y-42.1875 E11.8585412256
G1 F1500.0 X98.4375 Y-42.1875 E7.5
G1 F1500.0 X98.4375 Y-51.5625 E7.5
G1 F1500.0 X107.8125 Y-51.5625 E7.5
G1 F1500.0 X107.8125 Y-60.9375 E7.5
G1 F1500.0 X107.8125 Y-70.3125 E7.5
G1 F1500.0 X98.4375 Y-70.3125 E7.5
G1 F1500.0 X98.4375 Y-60.9375 E7.5
G1 F1500.0 X89.0625 Y-60.9375 E7.5
G1 F1500.0 X89.0625 Y-70.3125 E7.5
G1 F1500.0 X79.6875 Y-70.3125 E7.5
G1 F1500.0 X79.6875 Y-60.9375 E7.5
G1 F1500.0 X79.6875 Y-51.5625 E7.5
G1 F1500.0 X89.0625 Y-51.5625 E7.5
G1 F1500.0 X89.0625 Y-42.1875 E7.5
G1 F1500.0 X79.6875 Y-42.1875 E7.5
G1 F1500.0 X84.375 Y-28.125 E11.8585412256
G1 F1500.0 X103.125 Y-28.125 E15.0
G1 F1500.0 X103.125 Y-9.375 E15.0
G1 F1500.0 X84.375 Y-9.375 E15.0
G1 F1500.0 X70.3125 Y-4.6875 E11.8585412256
G1 F1500.0 X60.9375 Y-4.6875 E7.5
G1 F1500.0 X60.9375 Y-14.0625 E7.5
G1 F1500.0 X70.3125 Y-14.0625 E7.5
G1 F1500.0 X70.3125 Y-23.4375 E7.5
G1 F1500.0 X70.3125 Y-32.8125 E7.5
G1 F1500.0 X60.9375 Y-32.8125 E7.5
G1 F1500.0 X60.9375 Y-23.4375 E7.5
G1 F1500.0 X51.5625 Y-23.4375 E7.5
G1 F1500.0 X51.5625 Y-32.8125 E7.5
G1 F1500.0 X42.1875 Y-32.8125 E7.5
G1 F1500.0 X42.1875 Y-23.4375 E7.5
G1 F1500.0 X42.1875 Y-14.0625 E7.5
G1 F1500.0 X51.5625 Y-14.0625 E7.5
G1 F1500.0 X51.5625 Y-4.6875 E7.5
G1 F1500.0 X42.1875 Y-4.6875 E7.5
G1 F1500.0 X28.125 Y-9.375 E11.8585412256
G1 F1500.0 X9.375 Y-9.375 E15.0
G1 F1500.0 X9.375 Y-28.125 E15.0
G1 F1500.0 X28.125 Y-28.125 E15.0
G1 F1500.0 X28.125 Y-46.875 E15.0
G1 F1500.0 X9.375 Y-46.875 E15.0
G1 F1500.0 X9.375 Y-65.625 E15.0
G1 F1500.0 X28.125 Y-65.625 E15.0
G1 F1500.0 X46.875 Y-65.625 E15.0
G1 F1500.0 X46.875 Y-46.875 E15.0
G1 F1500.0 X65.625 Y-46.875 E15.0
G1 F1500.0 X65.625 Y-65.625 E15.0
G1 F1500.0 X56.25 Y-93.75 E23.7170824513
G1 F1500.0 X18.75 Y-93.75 E30.0
G1 F1500.0 X18.75 Y-131.25 E30.0
G1 F1500.0 X56.25 Y-131.25 E30.0
G1 F1500.0 X84.375 Y-140.625 E23.7170824513
G1 F1500.0 X103.125 Y-140.625 E15.0
G1 F1500.0 X103.125 Y-121.875 E15.0
G1 F1500.0 X84.375 Y-121.875 E15.0
G1 F1500.0 X79.6875 Y-107.8125 E11.8585412256
G1 F1500.0 X89.0625 Y-107.8125 E7.5
G1 F1500.0 X89.0625 Y-98.4375 E7.5
G1 F1500.0 X79.6875 Y-98.4375 E7.5
G1 F1500.0 X79.6875 Y-89.0625 E7.5
G1 F1500.0 X79.6875 Y-79.6875 E7.5
G1 F1500.0 X89.0625 Y-79.6875 E7.5
G1 F1500.0 X89.0625 Y-89.0625 E7.5
G1 F1500.0 X98.4375 Y-89.0625 E7.5
G1 F1500.0 X98.4375 Y-79.6875 E7.5
G1 F1500.0 X107.8125 Y-79.6875 E7.5
G1 F1500.0 X107.8125 Y-89.0625 E7.5
G1 F1500.0 X107.8125 Y-98.4375 E7.5
G1 F1500.0 X98.4375 Y-98.4375 E7.5
G1 F1500.0 X98.4375 Y-107.8125 E7.5
G1 F1500.0 X107.8125 Y-107.8125 E7.5
G1 F1500.0 X117.1875 Y-107.8125 E7.5
G1 F1500.0 X126.5625 Y-107.8125 E7.5
G1 F1500.0 X126.5625 Y-98.4375 E7.5
G1 F1500.0 X117.1875 Y-98.4375 E7.5
G1 F1500.0 X117.1875 Y-89.0625 E7.5
G1 F1500.0 X117.1875 Y-79.6875 E7.5
G1 F1500.0 X126.5625 Y-79.6875 E7.5
G1 F1500.0 X126.5625 Y-89.0625 E7.5
G1 F1500.0 X135.9375 Y-89.0625 E7.5
G1 F1500.0 X135.9375 Y-79.6875 E7.5
G1 F1500.0 X145.3125 Y-79.6875 E7.5
G1 F1500.0 X145.3125 Y-89.0625 E7.5
G1 F1500.0 X145.3125 Y-98.4375 E7.5
G1 F1500.0 X135.9375 Y-98.4375 E7.5
G1 F1500.0 X135.9375 Y-107.8125 E7.5
G1 F1500.0 X145.3125 Y-107.8125 E7.5
G1 F1500.0 X145.3125 Y-117.1875 E7.5
G1 F1500.0 X145.3125 Y-126.5625 E7.5
G1 F1500.0 X135.9375 Y-126.5625 E7.5
G1 F1500.0 X135.9375 Y-117.1875 E7.5
G1 F1500.0 X126.5625 Y-117.1875 E7.5
G1 F1500.0 X117.1875 Y-117.1875 E7.5
G1 F1500.0 X117.1875 Y-126.5625 E7.5
G1 F1500.0 X126.5625 Y-126.5625 E7.5
G1 F1500.0 X126.5625 Y-135.9375 E7.5
G1 F1500.0 X117.1875 Y-135.9375 E7.5
G1 F1500.0 X117.1875 Y-145.3125 E7.5
G1 F1500.0 X126.5625 Y-145.3125 E7.5
G1 F1500.0 X135.9375 Y-145.3125 E7.5
G1 F1500.0 X135.9375 Y-135.9375 E7.5
G1 F1500.0 X145.3125 Y-135.9375 E7.5
G1 F1500.0 X145.3125 Y-145.3125 E7.5
G1 F1500.0 X145.3125 Y-145.3125 Z2.5 E2.0
G1 F1500.0 X145.3125 Y-135.9375 Z2.5 E7.5
G1 F1500.0 X135.9375 Y-135.9375 Z2.5 E7.5
G1 F1500.0 X135.9375 Y-145.3125 Z2.5 E7.5
G1 F1500.0 X126.5625 Y-145.3125 Z2.5 E7.5
G1 F1500.0 X117.1875 Y-145.3125 Z2.5 E7.5
G1 F1500.0 X117.1875 Y-135.9375 Z2.5 E7.5
G1 F1500.0 X126.5625 Y-135.9375 Z2.5 E7.5
G1 F1500.0 X126.5625 Y-126.5625 Z2.5 E7.5
G1 F1500.0 X117.1875 Y-126.5625 Z2.5 E7.5
G1 F1500.0 X117.1875 Y-117.1875 Z2.5 E7.5
