;_project: : hilbert_TPMS
;_project_by: : WenqianYang, JonasWard
;_project_gcode_generator_by: : JonasWard
;library_path : /Users/jonas/Documents/HilbertAndCo/src
;path_length : 9694.82178726
;pattern_edge_easing : False
;pattern_periodic : True
;pattern_random_dots : True
;pattern_random_seed : 100
;pattern_split : None
;pattern_y_scale_factor : 0.5
;shell_count : 1
;shell_direction : outside
;shell_spacing : 1.6
;shell_split_distance : 1.6
;shell_split_type : detached
/Users/jonas/Documents/HilbertAndCo/src/spacemapping_curve/gcode/GCodeDefinitions/startGcode.txt
/Users/jonas/Documents/HilbertAndCo/src/spacemapping_curve/gcode/GCodeDefinitions/endGcode.txt
;Sliced by ideaMaker 3.3.0.2343, 2020-02-08 22:55:15 UTC+0100
;Dimension: 250.000 210.000 210.000 0.400
;Plate Shape: 0
;Extruder Offset #1: 25.000 0.000
;Filament Diameter #1: 1.750
;Filament Diameter #2: 1.750
;Filament Compensation #1: 94.00
;Filament Compensation #2: 94.00
;Filament Density #1: 1240.00
;Filament Density #2: 1240.00
;Model Gap: 0.200
M221 T0 S94.00
M140 S60.00
M104 T0 S205.00
M109 T0 S205.00
T0
M190 S60.00
M115 U3.1.0 ; tell printer latest fw version
M83  ; extruder relative mode
M104 S205 ; set extruder temp
M140 S60 ; set bed temp
M190 S60 ; wait for bed temp
M109 S205 ; wait for extruder temp
G28 W ; home all without mesh bed level
G80 ; mesh bed leveling
G1 Y-3.0 F1000.0 ; go outside print area
G92 E0.0
G1 X60.0 E9.0  F1000.0 ; intro line
G1 X100.0 E12.5  F1000.0 ; intro line
G92 E0.0
M83
M1001
M106 S0
;LAYER:-2
;Z:0.500
;HEIGHT:0.500
G0 F6000 X93.481 Y70.719
G0 F1500 Z0.500
;TYPE:RAFT
;WIDTH:0.800
G1 F1500.0 X-27.2519610993 Y-14.3448992646 Z0.01
G1 X-27.5865150333 Y-13.3653772464 Z0.0152521008403 E0.828074316845
G1 F1500.0 X-28.2074616480 Y-11.4595552524 Z0.0205042016807 E1.60354801723
G1 F1500.0 X-28.8983972161 Y-9.11087160727 Z0.025756302521 E1.95856836021
G1 F1500.0 X-29.1525204207 Y-8.12575709675 Z0.0310084033613 E0.813901924905
G1 F1500.0 X-29.3498585517 Y-7.26143838145 Z0.0362605042017 E0.709260691877
G1 F1500.0 X-29.5167827287 Y-6.37861191213 Z0.041512605042 E0.718787352308
G1 F1500.0 X-29.6003792159 Y-5.78503643517 Z0.0467647058824 E0.479565005618
G1 F1500.0 X-29.6022062267 Y-5.76904982484 Z0.0520168067227 E0.0135409126189
G1 F1500.0 X-29.6441122813 Y-5.27343068887 Z0.057268907563 E0.397932279604
G1 F1500.0 X-29.6501679163 Y-4.91701419155 Z0.0625210084034 E0.285205301314
G1 F1500.0 X-29.4038063280 Y-5.01139477415 Z0.0677731092437 E0.211098932081
G1 F1500.0 X-29.2140073485 Y-5.08938195917 Z0.073025210084 E0.164211060685
G1 F1500.0 X-28.8173507080 Y-5.25585157082 Z0.0782773109244 E0.34416387409
G1 F1500.0 X-27.3054332863 Y-5.86522931702 Z0.0835294117647 E1.30408910424
G1 F1500.0 X-26.5827234390 Y-6.12060808658 Z0.088781512605 E0.613217311687
G1 F1500.0 X-25.8706833696 Y-6.32980932746 Z0.0940336134454 E0.593723870731
G1 F1500.0 X-25.1574970662 Y-6.48059110290 Z0.0992857142857 E0.583176093725
G1 F1500.0 X-24.7965751576 Y-6.52762318227 Z0.104537815126 E0.291209038472
G1 F1500.0 X-24.4990184480 Y-6.54947210111 Z0.109789915966 E0.23872321081
G1 F1500.0 X-23.7557423887 Y-6.52583783087 Z0.115042016807 E0.594936212253
G1 F1500.0 X-23.0034702085 Y-6.36515989036 Z0.120294117647 E0.61540668477
G1 F1500.0 X-22.9619438869 Y-6.35161857062 Z0.125546218487 E0.0351944294745
G1 F1500.0 X-22.3035779689 Y-6.06274083462 Z0.130798319328 E0.575179200121
G1 F1500.0 X-21.9887751883 Y-5.87105039751 Z0.136050420168 E0.294888289566
G1 F1500.0 X-21.6658146377 Y-5.63370535583 Z0.141302521008 E0.3206630836
G1 F1500.0 X-21.1479032037 Y-5.15585202880 Z0.146554621849 E0.563760879895
G1 F1500.0 X-20.7036367974 Y-4.63421934321 Z0.151806722689 E0.548161075898
G1 F1500.0 X-20.3164015853 Y-4.08232696698 Z0.157058823529 E0.539370826981
G1 F1500.0 X-19.9739031926 Y-3.50723034929 Z0.16231092437 E0.535503563048
G1 F1500.0 X-19.3947851294 Y-2.32888812879 Z0.16756302521 E1.05037767055
G1 F1500.0 X-19.1476143202 Y-1.74511785645 Z0.17281512605 E0.507170172219
G1 F1500.0 X-18.9215186519 Y-1.17849814369 Z0.178067226891 E0.488068673621
G1 F1500.0 X-18.6570593621 Y-0.501248401015 Z0.183319327731 E0.581657501689
G1 F1500.0 X-18.5269542606 Y-0.17395369067 Z0.188571428571 E0.281796237796
G1 F1500.0 X-18.4581472643 Y-0.00522282560322 Z0.193823529412 E0.145837371617
G1 F1500.0 X-18.2643091146 Y0.445873666532 Z0.199075620808 E0.392806401536
G1 F1500.0 X-18.0737342873 Y0.843319986764 Z0.204327731092 E0.352644797571
G1 F1500.0 X-17.8883063821 Y1.17475492570 Z0.209579831933 E0.303852818417
G1 F1500.0 X-17.7135691739 Y1.43232164779 Z0.214831932773 E0.249031779904
G1 F1500.0 X-17.5456190341 Y1.62771681005 Z0.220084033613 E0.206167471241
G1 F1500.0 X-17.3897812274 Y1.76869794932 Z0.225336134454 E0.168168845071
G1 F1500.0 X-17.2555927123 Y1.85875636903 Z0.230588235294 E0.129354486195
G1 F1500.0 X-17.1589431527 Y1.90415681666 Z0.235840336134 E0.0855286528387
G1 F1500.0 X-17.0769532995 Y1.92683341623 Z0.241092436975 E0.0681839805585
G1 F1500.0 X-17.0103882147 Y1.93179996261 Z0.246344537815 E0.0535651328684
G1 F1500.0 X-16.9377079418 Y1.92215842009 Z0.251596638655 E0.0588038963329
G1 F1500.0 X-16.8361956294 Y1.88758042156 Z0.256848739496 E0.0858947155731
G1 F1500.0 X-16.7602305989 Y1.84999489257 Z0.262100840336 E0.067933814379
G1 F1500.0 X-16.6579170586 Y1.78995691522 Z0.267352941176 E0.0949954232841
G1 F1500.0 X-16.5309527866 Y1.70509202760 Z0.272605042017 E0.122244502752
G1 F1500.0 X-16.3667953030 Y1.58405537781 Z0.277857142857 E0.163217909923
G1 F1500.0 X-16.0038425625 Y1.29084210220 Z0.283109243697 E0.373297780472
G1 F1500.0 X-15.5341152080 Y0.892745747596 Z0.288361344538 E0.492602609598
G1 F1500.0 X-15.0074451749 Y0.449652579599 Z0.293613445378 E0.550630453998
G1 F1500.0 X-14.3974984650 Y-0.0385604359716 Z0.298865546218 E0.6250322345
G1 F1500.0 X-12.8857463918 Y-1.09642893970 Z0.304117647059 E1.47610464379
G1 F1500.0 X-12.8647182362 Y-1.10959451162 Z0.309369747899 E0.0202875358804
G1 F1500.0 X-11.9279077956 Y-1.64761397869 Z0.314621848739 E0.86426156522
G1 F1500.0 X-10.8257447618 Y-2.14250768150 Z0.31987394958 E0.966547907513
G1 F1500.0 X-9.47950872375 Y-2.54915208292 Z0.32512605042 E1.12505679111
G1 F1500.0 X-7.89156007543 Y-2.78355469635 Z0.330378151261 E1.28413160184
G1 F1500.0 X-6.11870428764 Y-2.78424946954 Z0.335630252101 E1.41829096289
G1 F1500.0 X-5.34074984068 Y-2.71096888959 Z0.340882352941 E0.625132689661
G1 F1500.0 X-4.10589303570 Y-2.51476948914 Z0.346134453782 E1.00028575697
G1 F1500.0 X-1.83730525687 Y-1.93519568776 Z0.351386554622 E1.87316611305
G1 F1500.0 X-0.122052062169 Y-1.33941943445 Z0.356638655462 E1.45262696117
G1 F1500.0 X0.639330364462 Y-1.89440002850 Z0.361890756303 E0.753757199705
G1 F1500.0 X1.90657391155 Y-2.71047177987 Z0.367142857143 E1.20582768801
G1 F1500.0 X2.11307517681 Y-2.83274517306 Z0.372394957983 E0.192035229762
G1 F1500.0 X3.53344959609 Y-3.61059795705 Z0.377647058824 E1.29554214853
G1 F1500.0 X4.46536206059 Y-4.07612708175 Z0.382899159664 E0.833385689142
G1 F1500.0 X4.89470885211 Y-4.28303220112 Z0.388151260504 E0.38130385186
G1 F1500.0 X5.81335712356 Y-4.72084895184 Z0.393403361345 E0.814125587718
G1 F1500.0 X6.49237074944 Y-5.05149797523 Z0.398655462185 E0.604207045505
G1 F1500.0 X6.95538675201 Y-5.29036973694 Z0.403907563025 E0.416823125452
G1 F1500.0 X7.35380667179 Y-5.51411937338 Z0.409159663866 E0.365583296637
G1 F1500.0 X7.67972624791 Y-5.72064446032 Z0.414411764706 E0.308704406139
G1 F1500.0 X7.94275980117 Y-5.91500891836 Z0.419663865546 E0.261676780476
G1 F1500.0 X8.15007796344 Y-6.09649303515 Z0.424915966387 E0.220464802987
G1 F1500.0 X8.30752736924 Y-6.26273781489 Z0.430168067227 E0.183224848513
G1 F1500.0 X8.50835945905 Y-6.55437236903 Z0.435420168067 E0.283308257307
G1 F1500.0 X8.56943194739 Y-6.68903107379 Z0.440672268908 E0.118363237976
G1 F1500.0 X8.57266608346 Y-6.69754025299 Z0.445924369748 E0.00840762815649
G1 F1500.0 X8.61349654061 Y-6.82717291792 Z0.451176470588 E0.108809819006
G1 F1500.0 X8.64339052349 Y-6.97820824008 Z0.456428571429 E0.123243896897
G1 F1500.0 X8.65938462068 Y-7.15083138433 Z0.461680672269 E0.13875364214
G1 F1500.0 X8.65778746396 Y-7.37460524685 Z0.466932773109 E0.179072949639
G1 F1500.0 X8.59611671711 Y-7.86425442170 Z0.47218487395 E0.394836415761
G1 F1500.0 X8.45332486422 Y-8.46383589057 Z0.47743697479 E0.493097984986
G1 F1500.0 X8.23600076788 Y-9.15211048277 Z0.48268907563 E0.577431145227
G1 F1500.0 X7.95702012116 Y-9.91073791205 Z0.487941176471 E0.646652110375
G1 F1500.0 X7.63156302178 Y-10.7275554909 Z0.493193277311 E0.70342743314
G1 F1500.0 X7.17112268490 Y-11.8486659876 Z0.498445378151 E0.969592618534
G1 F1500.0 X6.79993528668 Y-12.7706618000 Z0.503697478992 E0.795138809465
G1 F1500.0 X6.43705249807 Y-13.7286571439 Z0.508949579832 E0.819547809669
G1 F1500.0 X6.29628553521 Y-14.1267919295 Z0.514201680672 E0.337856044945
G1 F1500.0 X6.24786078926 Y-14.2692315854 Z0.519453781513 E0.120430152157
G1 F1500.0 X5.94122837706 Y-15.2991273016 Z0.524705882353 E0.859669222715
G1 F1500.0 X5.82281472301 Y-15.8340635178 Z0.529957983193 E0.438328558699
G1 F1500.0 X5.74096369564 Y-16.3844127964 Z0.535210084034 E0.445141957578
G1 F1500.0 X5.70904008388 Y-16.9539022059 Z0.540462184874 E0.456326121301
G1 F1500.0 X5.74333045682 Y-17.5163269586 Z0.545714285714 E0.450794865449
G1 F1500.0 X5.87310958989 Y-18.1272746279 Z0.550966386555 E0.499681346509
G1 F1500.0 X6.12838112247 Y-18.7375787618 Z0.556218487395 E0.529248388206
G1 F1500.0 X6.52684919706 Y-19.3059398749 Z0.561470588235 E0.555316844174
G1 F1500.0 X6.77687793925 Y-19.5580905727 Z0.566722689076 E0.28410919693
G1 F1500.0 X7.05626359925 Y-19.7827490428 Z0.571974789916 E0.286836940129
G1 F1500.0 X7.35903605178 Y-19.9765688434 Z0.577226890756 E0.287627378601
G1 F1500.0 X7.67966588197 Y-20.1388286172 Z0.582478991597 E0.287509923892
G1 F1500.0 X8.33238881009 Y-20.3680558982 Z0.587731092437 E0.553458913685
G1 F1500.0 X8.61340971213 Y-20.4341648013 Z0.592983193277 E0.230991904992
G1 F1500.0 X9.07077842584 Y-20.5093376346 Z0.598235294118 E0.370827985749
G1 F1500.0 X9.85008086937 Y-20.5668518220 Z0.603487394958 E0.625151637193
G1 F1500.0 X10.2571334505 Y-20.5708230030 Z0.608739495798 E0.325684665821
G1 F1500.0 X10.6740696605 Y-20.5615196644 Z0.613991596639 E0.333658450363
G1 F1500.0 X11.5495496397 Y-20.5072780791 Z0.619243697479 E0.701739520091
G1 F1500.0 X13.2659523575 Y-20.3126046896 Z0.624495798319 E1.38193223629
G1 F1500.0 X15.3379532538 Y-19.9923967449 Z0.62974789916 E1.67728321790
G1 F1500.0 X16.4136312355 Y-19.8082989456 Z0.635 E0.873064562865
G1 F1500.0 X17.8142909292 Y-19.5615581485 Z0.64025210084 E1.13778906532
G1 F1500.0 X20.2266268960 Y-19.1430306705 Z0.645504201681 E1.95870286073
G1 F1500.0 X22.4724795633 Y-18.7931713838 Z0.650756302521 E1.81835676299
G1 F1500.0 X23.6691699476 Y-18.6376490429 Z0.656008403361 E0.965412296218
G1 F1500.0 X24.1780740598 Y-18.5830694208 Z0.661260504202 E0.409479603484
G1 F1500.0 X24.7211483551 Y-18.535491174 Z0.666512605042 E0.436143803382
G1 F1500.0 X25.7448300632 Y-18.4842602778 Z0.671764705882 E0.819981045159
G1 F1500.0 X26.7514246388 Y-18.4958926389 Z0.677016806723 E0.805340389506
G1 F1500.0 X27.7475442343 Y-18.5824804202 Z0.682268907563 E0.799911705941
G1 F1500.0 X28.7421479153 Y-18.7556285196 Z0.687521008403 E0.807661050123
G1 F1500.0 X29.7524471730 Y-19.0297374820 Z0.692773109244 E0.837469673911
G1 F1500.0 X30.7925465975 Y-19.4212204935 Z0.698025210084 E0.88907802874
G1 F1500.0 X31.7950469202 Y-19.9056185369 Z0.703277310924 E0.890725886868
G1 F1500.0 X31.8751118163 Y-19.9488156546 Z0.708529411765 E0.0729008669439
G1 F1500.0 X33.0105499029 Y-20.6321288087 Z0.713781512605 E1.06016273457
G1 F1500.0 X33.8383221075 Y-21.2117023307 Z0.719033613445 E0.80841172668
G1 F1500.0 X35.0848901548 Y-22.2079924350 Z0.724285714286 E1.27663393727
G1 F1500.0 X36.4019280230 Y-23.4120629197 Z0.729537815126 E1.42759144027
G1 F1500.0 X37.7847412479 Y-24.8310443449 Z0.734789915966 E1.58507201793
G1 F1500.0 X39.9857320191 Y-22.7947599286 Z0.740042016807 E2.39877864703
G1 F1500.0 X38.4911259116 Y-21.2583065257 Z0.745294117647 E1.71479473956
G1 F1500.0 X37.0368243171 Y-19.9268083924 Z0.750546218487 E1.57742230062
G1 F1500.0 X35.6248184554 Y-18.7972495193 Z0.755798319328 E1.44658303838
G1 F1500.0 X34.6636170343 Y-18.1234918793 Z0.761050420168 E0.939066809602
G1 F1500.0 X33.3105681645 Y-17.3083401052 Z0.766302521008 E1.26370660985
G1 F1500.0 X31.9824438763 Y-16.6605073867 Z0.771554621849 E1.18216856752
G1 F1500.0 X30.6770350842 Y-16.1685308787 Z0.776806722689 E1.11603887628
G1 F1500.0 X29.3943633842 Y-15.8200289949 Z0.782058823529 E1.06334651737
G1 F1500.0 X28.5658609547 Y-15.6623509348 Z0.78731092437 E0.674711781309
G1 F1500.0 X28.1359041691 Y-15.6002869394 Z0.79256302521 E0.347555911183
G1 F1500.0 X26.8988588254 Y-15.4922326856 Z0.79781512605 E0.993413344354
G1 F1500.0 X25.6869668156 Y-15.4776788639 Z0.803067226891 E0.96959262098
G1 F1500.0 X24.5014051517 Y-15.5366750734 Z0.808319327731 E0.949632213862
G1 F1500.0 X23.3333876810 Y-15.6497965882 Z0.813571428571 E0.938795440452
G1 F1500.0 X22.0613383838 Y-15.8149852450 Z0.818823529412 E1.02619274336
G1 F1500.0 X19.7426398973 Y-16.1761244672 Z0.824075630252 E1.87732776790
G1 F1500.0 X17.3039691595 Y-16.5995029007 Z0.829327731092 E1.98012393142
G1 F1500.0 X14.8431798521 Y-17.0281585960 Z0.834579831933 E1.99828042958
G1 F1500.0 X13.6558407136 Y-17.2191983853 Z0.839831932773 E0.962097048096
G1 F1500.0 X12.8665493307 Y-17.3339560466 Z0.845084033613 E0.638086034284
G1 F1500.0 X11.9779324312 Y-17.4456781510 Z0.850336134454 E0.716502352169
G1 F1500.0 X11.3160015567 Y-17.5111154067 Z0.855588235294 E0.532142598416
G1 F1500.0 X10.5799481269 Y-17.5571123524 Z0.860840336134 E0.590006348504
G1 F1500.0 X9.95391192409 Y-17.5616590647 Z0.866092436975 E0.500859794752
G1 F1500.0 X9.68840321846 Y-17.5484976767 Z0.871344537815 E0.212709273087
G1 F1500.0 X9.46183429734 Y-17.5267944150 Z0.876596638655 E0.182133300012
G1 F1500.0 X9.12216521546 Y-17.4632508823 Z0.881848739496 E0.276481261923
G1 F1500.0 X8.92288255807 Y-17.3950620146 Z0.887100840336 E0.168553153668
G1 F1500.0 X8.86130856688 Y-17.3642914723 Z0.892352941176 E0.0552276291956
G1 F1500.0 X8.82322353128 Y-17.3400885973 Z0.897605042017 E0.0363435488221
G1 F1500.0 X8.80250493878 Y-17.3237131877 Z0.902857142857 E0.0215406396132
G1 F1500.0 X8.79244367332 Y-17.3136926137 Z0.908109243697 E0.012112156647
G1 F1500.0 X8.78070955057 Y-17.2967005586 Z0.913361344538 E0.0170458982336
G1 F1500.0 X8.77229670074 Y-17.2788125639 Z0.918613445378 E0.0163627080457
G1 F1500.0 X8.76136421692 Y-17.2477176094 Z0.923865546218 E0.0267013104069
G1 F1500.0 X8.73818295849 Y-17.1334056587 Z0.929117647059 E0.0934055325801
G1 F1500.0 X8.72822118873 Y-16.9546215428 Z0.934369747899 E0.143310753888
G1 F1500.0 X8.74298303658 Y-16.6994249868 Z0.939621848739 E0.204541679101
G1 F1500.0 X8.78996102150 Y-16.3868523063 Z0.94487394958 E0.252901493796
G1 F1500.0 X8.86915757399 Y-16.0296057069 Z0.95012605042 E0.292765911978
G1 F1500.0 X8.97759986763 Y-15.6387363903 Z0.955378151261 E0.32453401748
G1 F1500.0 X9.11015481461 Y-15.2234966452 Z0.960630252101 E0.348732511304
G1 F1500.0 X9.27620780492 Y-14.7492819000 Z0.965882352941 E0.401979744573
G1 F1500.0 X9.61000293680 Y-13.8683586119 Z0.971134453782 E0.753646119214
G1 F1500.0 X10.4298659848 Y-11.8546184948 Z0.976386554622 E1.73939801288
G1 F1500.0 X10.7752845815 Y-10.9871982583 Z0.981638655462 E0.746944477999
G1 F1500.0 X11.0910232809 Y-10.1271305243 Z0.986890756303 E0.73296549133
G1 F1500.0 X11.3601831899 Y-9.27185365056 Z0.992142857143 E0.717316408637
G1 F1500.0 X11.5632235500 Y-8.41187547452 Z0.997394957983 E0.706910092455
G1 F1500.0 X11.6603169344 Y-7.68828537524 Z1.00264705882 E0.584075250839
G1 F1500.0 X11.6707429144 Y-7.52601490122 Z1.00789915966 E0.130151892459
G1 F1500.0 X11.6724502207 Y-7.01835186978 Z1.01315126050 E0.406154455702
G1 F1500.0 X11.5347420270 Y-6.08303657011 Z1.01840336134 E0.756330442481
G1 F1500.0 X11.3855686386 Y-5.6169208997 Z1.02365546218 E0.391545943204
