;_project: : hilbert_TPMS
;_project_by: : WenqianYang, JonasWard
;_project_gcode_generator_by: : JonasWard
;library_path : /Users/jonas/Documents/reps/spacemapping_curve/src/spacemapping_curve
/Users/jonas/Documents/reps/spacemapping_curve/src/spacemapping_curve/gcode/GCodeDefinitions/startGcode.txt
/Users/jonas/Documents/reps/spacemapping_curve/src/spacemapping_curve/gcode/GCodeDefinitions/endGcode.txt
;Sliced by ideaMaker 3.3.0.2343, 2020-02-08 22:55:15 UTC+0100
;Dimension: 250.000 210.000 210.000 0.400
;Plate Shape: 0
;Extruder Offset #1: 25.000 0.000
;Filament Diameter #1: 1.750
;Filament Diameter #2: 1.750
;Filament Compensation #1: 94.00
;Filament Compensation #2: 94.00
;Filament Density #1: 1240.00
;Filament Density #2: 1240.00
;Model Gap: 0.200
M221 T0 S94.00
M140 S60.00
M104 T0 S205.00
M109 T0 S205.00
T0
M190 S60.00
M115 U3.1.0 ; tell printer latest fw version
M83  ; extruder relative mode
M104 S205 ; set extruder temp
M140 S60 ; set bed temp
M190 S60 ; wait for bed temp
M109 S205 ; wait for extruder temp
G28 W ; home all without mesh bed level
G80 ; mesh bed leveling
G1 Y-3.0 F1000.0 ; go outside print area
G92 E0.0
G1 X60.0 E9.0  F1000.0 ; intro line
G1 X100.0 E12.5  F1000.0 ; intro line
G92 E0.0
M83
M1001
M106 S0
;LAYER:-2
;Z:0.500
;HEIGHT:0.500
G0 F6000 X93.481 Y70.719
G0 F1500 Z0.500
;TYPE:RAFT
;WIDTH:0.800
G1 F1500.0 X-98.4375 Y-98.4375 Z1.4
G1 X-95.3125 Y-98.4375 Z1.4 E2.5
G1 F1500.0 X-95.3125 Y-95.3125 Z1.4 E2.5
G1 F1500.0 X-98.4375 Y-95.3125 Z1.4 E2.5
G1 F1500.0 X-98.4375 Y-92.1875 Z1.4 E2.5
G1 F1500.0 X-98.4375 Y-89.0625 Z1.4 E2.5
G1 F1500.0 X-95.3125 Y-89.0625 Z1.4 E2.5
G1 F1500.0 X-95.3125 Y-92.1875 Z1.4 E2.5
G1 F1500.0 X-92.1875 Y-92.1875 Z1.4 E2.5
G1 F1500.0 X-92.1875 Y-89.0625 Z1.4 E2.5
G1 F1500.0 X-89.0625 Y-89.0625 Z1.4 E2.5
G1 F1500.0 X-89.0625 Y-92.1875 Z1.4 E2.5
G1 F1500.0 X-89.0625 Y-95.3125 Z1.4 E2.5
G1 F1500.0 X-92.1875 Y-95.3125 Z1.4 E2.5
G1 F1500.0 X-92.1875 Y-98.4375 Z1.4 E2.5
G1 F1500.0 X-89.0625 Y-98.4375 Z1.4 E2.5
G1 F1500.0 X-85.9375 Y-98.4375 Z1.4 E2.5
G1 F1500.0 X-85.9375 Y-95.3125 Z1.4 E2.5
G1 F1500.0 X-82.8125 Y-95.3125 Z1.4 E2.5
G1 F1500.0 X-82.8125 Y-98.4375 Z1.4 E2.5
G1 F1500.0 X-79.6875 Y-98.4375 Z1.4 E2.5
G1 F1500.0 X-76.5625 Y-98.4375 Z1.4 E2.5
G1 F1500.0 X-76.5625 Y-95.3125 Z1.4 E2.5
G1 F1500.0 X-79.6875 Y-95.3125 Z1.4 E2.5
G1 F1500.0 X-79.6875 Y-92.1875 Z1.4 E2.5
G1 F1500.0 X-76.5625 Y-92.1875 Z1.4 E2.5
G1 F1500.0 X-76.5625 Y-89.0625 Z1.4 E2.5
G1 F1500.0 X-79.6875 Y-89.0625 Z1.4 E2.5
G1 F1500.0 X-82.8125 Y-89.0625 Z1.4 E2.5
G1 F1500.0 X-82.8125 Y-92.1875 Z1.4 E2.5
G1 F1500.0 X-85.9375 Y-92.1875 Z1.4 E2.5
G1 F1500.0 X-85.9375 Y-89.0625 Z1.4 E2.5
G1 F1500.0 X-85.9375 Y-85.9375 Z1.4 E2.5
G1 F1500.0 X-85.9375 Y-82.8125 Z1.4 E2.5
G1 F1500.0 X-82.8125 Y-82.8125 Z1.4 E2.5
G1 F1500.0 X-82.8125 Y-85.9375 Z1.4 E2.5
G1 F1500.0 X-79.6875 Y-85.9375 Z1.4 E2.5
G1 F1500.0 X-76.5625 Y-85.9375 Z1.4 E2.5
G1 F1500.0 X-76.5625 Y-82.8125 Z1.4 E2.5
G1 F1500.0 X-79.6875 Y-82.8125 Z1.4 E2.5
G1 F1500.0 X-79.6875 Y-79.6875 Z1.4 E2.5
G1 F1500.0 X-76.5625 Y-79.6875 Z1.4 E2.5
G1 F1500.0 X-76.5625 Y-76.5625 Z1.4 E2.5
G1 F1500.0 X-79.6875 Y-76.5625 Z1.4 E2.5
G1 F1500.0 X-82.8125 Y-76.5625 Z1.4 E2.5
G1 F1500.0 X-82.8125 Y-79.6875 Z1.4 E2.5
G1 F1500.0 X-85.9375 Y-79.6875 Z1.4 E2.5
G1 F1500.0 X-85.9375 Y-76.5625 Z1.4 E2.5
G1 F1500.0 X-90.625 Y-78.125 Z1.4 E3.95284707521
G1 F1500.0 X-90.625 Y-84.375 Z1.4 E5.0
G1 F1500.0 X-96.875 Y-84.375 Z1.4 E5.0
G1 F1500.0 X-96.875 Y-78.125 Z1.4 E5.0
G1 F1500.0 X-96.875 Y-71.875 Z1.4 E5.0
G1 F1500.0 X-90.625 Y-71.875 Z1.4 E5.0
G1 F1500.0 X-90.625 Y-65.625 Z1.4 E5.0
G1 F1500.0 X-96.875 Y-65.625 Z1.4 E5.0
G1 F1500.0 X-96.875 Y-59.375 Z1.4 E5.0
G1 F1500.0 X-96.875 Y-53.125 Z1.4 E5.0
G1 F1500.0 X-90.625 Y-53.125 Z1.4 E5.0
G1 F1500.0 X-90.625 Y-59.375 Z1.4 E5.0
G1 F1500.0 X-84.375 Y-59.375 Z1.4 E5.0
G1 F1500.0 X-84.375 Y-53.125 Z1.4 E5.0
G1 F1500.0 X-78.125 Y-53.125 Z1.4 E5.0
G1 F1500.0 X-78.125 Y-59.375 Z1.4 E5.0
G1 F1500.0 X-78.125 Y-65.625 Z1.4 E5.0
G1 F1500.0 X-84.375 Y-65.625 Z1.4 E5.0
G1 F1500.0 X-84.375 Y-71.875 Z1.4 E5.0
G1 F1500.0 X-78.125 Y-71.875 Z1.4 E5.0
G1 F1500.0 X-73.4375 Y-73.4375 Z1.4 E3.95284707521
G1 F1500.0 X-73.4375 Y-70.3125 Z1.4 E2.5
G1 F1500.0 X-70.3125 Y-70.3125 Z1.4 E2.5
G1 F1500.0 X-70.3125 Y-73.4375 Z1.4 E2.5
G1 F1500.0 X-67.1875 Y-73.4375 Z1.4 E2.5
G1 F1500.0 X-64.0625 Y-73.4375 Z1.4 E2.5
G1 F1500.0 X-64.0625 Y-70.3125 Z1.4 E2.5
G1 F1500.0 X-67.1875 Y-70.3125 Z1.4 E2.5
G1 F1500.0 X-67.1875 Y-67.1875 Z1.4 E2.5
G1 F1500.0 X-64.0625 Y-67.1875 Z1.4 E2.5
G1 F1500.0 X-64.0625 Y-64.0625 Z1.4 E2.5
G1 F1500.0 X-67.1875 Y-64.0625 Z1.4 E2.5
G1 F1500.0 X-70.3125 Y-64.0625 Z1.4 E2.5
G1 F1500.0 X-70.3125 Y-67.1875 Z1.4 E2.5
G1 F1500.0 X-73.4375 Y-67.1875 Z1.4 E2.5
G1 F1500.0 X-73.4375 Y-64.0625 Z1.4 E2.5
G1 F1500.0 X-71.875 Y-59.375 Z1.4 E3.95284707521
G1 F1500.0 X-71.875 Y-53.125 Z1.4 E5.0
G1 F1500.0 X-65.625 Y-53.125 Z1.4 E5.0
G1 F1500.0 X-65.625 Y-59.375 Z1.4 E5.0
G1 F1500.0 X-60.9375 Y-60.9375 Z1.4 E3.95284707521
G1 F1500.0 X-57.8125 Y-60.9375 Z1.4 E2.5
G1 F1500.0 X-57.8125 Y-57.8125 Z1.4 E2.5
G1 F1500.0 X-60.9375 Y-57.8125 Z1.4 E2.5
G1 F1500.0 X-60.9375 Y-54.6875 Z1.4 E2.5
G1 F1500.0 X-60.9375 Y-51.5625 Z1.4 E2.5
G1 F1500.0 X-57.8125 Y-51.5625 Z1.4 E2.5
G1 F1500.0 X-57.8125 Y-54.6875 Z1.4 E2.5
G1 F1500.0 X-54.6875 Y-54.6875 Z1.4 E2.5
G1 F1500.0 X-54.6875 Y-51.5625 Z1.4 E2.5
G1 F1500.0 X-51.5625 Y-51.5625 Z1.4 E2.5
G1 F1500.0 X-51.5625 Y-54.6875 Z1.4 E2.5
G1 F1500.0 X-51.5625 Y-57.8125 Z1.4 E2.5
G1 F1500.0 X-54.6875 Y-57.8125 Z1.4 E2.5
G1 F1500.0 X-54.6875 Y-60.9375 Z1.4 E2.5
G1 F1500.0 X-51.5625 Y-60.9375 Z1.4 E2.5
G1 F1500.0 X-51.5625 Y-64.0625 Z1.4 E2.5
G1 F1500.0 X-51.5625 Y-67.1875 Z1.4 E2.5
G1 F1500.0 X-54.6875 Y-67.1875 Z1.4 E2.5
G1 F1500.0 X-54.6875 Y-64.0625 Z1.4 E2.5
G1 F1500.0 X-57.8125 Y-64.0625 Z1.4 E2.5
G1 F1500.0 X-60.9375 Y-64.0625 Z1.4 E2.5
G1 F1500.0 X-60.9375 Y-67.1875 Z1.4 E2.5
G1 F1500.0 X-57.8125 Y-67.1875 Z1.4 E2.5
G1 F1500.0 X-57.8125 Y-70.3125 Z1.4 E2.5
G1 F1500.0 X-60.9375 Y-70.3125 Z1.4 E2.5
G1 F1500.0 X-60.9375 Y-73.4375 Z1.4 E2.5
G1 F1500.0 X-57.8125 Y-73.4375 Z1.4 E2.5
G1 F1500.0 X-54.6875 Y-73.4375 Z1.4 E2.5
G1 F1500.0 X-54.6875 Y-70.3125 Z1.4 E2.5
G1 F1500.0 X-51.5625 Y-70.3125 Z1.4 E2.5
G1 F1500.0 X-51.5625 Y-73.4375 Z1.4 E2.5
G1 F1500.0 X-51.5625 Y-76.5625 Z1.4 E2.5
G1 F1500.0 X-54.6875 Y-76.5625 Z1.4 E2.5
G1 F1500.0 X-54.6875 Y-79.6875 Z1.4 E2.5
G1 F1500.0 X-51.5625 Y-79.6875 Z1.4 E2.5
G1 F1500.0 X-51.5625 Y-82.8125 Z1.4 E2.5
G1 F1500.0 X-51.5625 Y-85.9375 Z1.4 E2.5
G1 F1500.0 X-54.6875 Y-85.9375 Z1.4 E2.5
G1 F1500.0 X-54.6875 Y-82.8125 Z1.4 E2.5
G1 F1500.0 X-57.8125 Y-82.8125 Z1.4 E2.5
G1 F1500.0 X-57.8125 Y-85.9375 Z1.4 E2.5
G1 F1500.0 X-60.9375 Y-85.9375 Z1.4 E2.5
G1 F1500.0 X-60.9375 Y-82.8125 Z1.4 E2.5
G1 F1500.0 X-60.9375 Y-79.6875 Z1.4 E2.5
G1 F1500.0 X-57.8125 Y-79.6875 Z1.4 E2.5
G1 F1500.0 X-57.8125 Y-76.5625 Z1.4 E2.5
G1 F1500.0 X-60.9375 Y-76.5625 Z1.4 E2.5
G1 F1500.0 X-64.0625 Y-76.5625 Z1.4 E2.5
G1 F1500.0 X-64.0625 Y-79.6875 Z1.4 E2.5
G1 F1500.0 X-67.1875 Y-79.6875 Z1.4 E2.5
G1 F1500.0 X-67.1875 Y-76.5625 Z1.4 E2.5
G1 F1500.0 X-70.3125 Y-76.5625 Z1.4 E2.5
G1 F1500.0 X-73.4375 Y-76.5625 Z1.4 E2.5
G1 F1500.0 X-73.4375 Y-79.6875 Z1.4 E2.5
G1 F1500.0 X-70.3125 Y-79.6875 Z1.4 E2.5
G1 F1500.0 X-70.3125 Y-82.8125 Z1.4 E2.5
G1 F1500.0 X-73.4375 Y-82.8125 Z1.4 E2.5
G1 F1500.0 X-73.4375 Y-85.9375 Z1.4 E2.5
G1 F1500.0 X-70.3125 Y-85.9375 Z1.4 E2.5
G1 F1500.0 X-67.1875 Y-85.9375 Z1.4 E2.5
G1 F1500.0 X-67.1875 Y-82.8125 Z1.4 E2.5
G1 F1500.0 X-64.0625 Y-82.8125 Z1.4 E2.5
G1 F1500.0 X-64.0625 Y-85.9375 Z1.4 E2.5
G1 F1500.0 X-64.0625 Y-89.0625 Z1.4 E2.5
G1 F1500.0 X-64.0625 Y-92.1875 Z1.4 E2.5
G1 F1500.0 X-67.1875 Y-92.1875 Z1.4 E2.5
G1 F1500.0 X-67.1875 Y-89.0625 Z1.4 E2.5
G1 F1500.0 X-70.3125 Y-89.0625 Z1.4 E2.5
G1 F1500.0 X-73.4375 Y-89.0625 Z1.4 E2.5
G1 F1500.0 X-73.4375 Y-92.1875 Z1.4 E2.5
G1 F1500.0 X-70.3125 Y-92.1875 Z1.4 E2.5
G1 F1500.0 X-70.3125 Y-95.3125 Z1.4 E2.5
G1 F1500.0 X-73.4375 Y-95.3125 Z1.4 E2.5
G1 F1500.0 X-73.4375 Y-98.4375 Z1.4 E2.5
G1 F1500.0 X-70.3125 Y-98.4375 Z1.4 E2.5
G1 F1500.0 X-67.1875 Y-98.4375 Z1.4 E2.5
G1 F1500.0 X-67.1875 Y-95.3125 Z1.4 E2.5
G1 F1500.0 X-64.0625 Y-95.3125 Z1.4 E2.5
G1 F1500.0 X-64.0625 Y-98.4375 Z1.4 E2.5
G1 F1500.0 X-59.375 Y-96.875 Z1.4 E3.95284707521
G1 F1500.0 X-59.375 Y-90.625 Z1.4 E5.0
G1 F1500.0 X-53.125 Y-90.625 Z1.4 E5.0
G1 F1500.0 X-53.125 Y-96.875 Z1.4 E5.0
G1 F1500.0 X-43.75 Y-93.75 Z1.4 E7.90569415042
G1 F1500.0 X-43.75 Y-81.25 Z1.4 E10.0
G1 F1500.0 X-31.25 Y-81.25 Z1.4 E10.0
G1 F1500.0 X-31.25 Y-93.75 Z1.4 E10.0
G1 F1500.0 X-18.75 Y-93.75 Z1.4 E10.0
G1 F1500.0 X-6.25 Y-93.75 Z1.4 E10.0
G1 F1500.0 X-6.25 Y-81.25 Z1.4 E10.0
G1 F1500.0 X-18.75 Y-81.25 Z1.4 E10.0
G1 F1500.0 X-18.75 Y-68.75 Z1.4 E10.0
G1 F1500.0 X-6.25 Y-68.75 Z1.4 E10.0
G1 F1500.0 X-6.25 Y-56.25 Z1.4 E10.0
G1 F1500.0 X-18.75 Y-56.25 Z1.4 E10.0
G1 F1500.0 X-26.5625 Y-51.5625 Z1.4 E7.28868986856
G1 F1500.0 X-26.5625 Y-54.6875 Z1.4 E2.5
G1 F1500.0 X-29.6875 Y-54.6875 Z1.4 E2.5
G1 F1500.0 X-29.6875 Y-51.5625 Z1.4 E2.5
G1 F1500.0 X-32.8125 Y-51.5625 Z1.4 E2.5
G1 F1500.0 X-35.9375 Y-51.5625 Z1.4 E2.5
G1 F1500.0 X-35.9375 Y-54.6875 Z1.4 E2.5
G1 F1500.0 X-32.8125 Y-54.6875 Z1.4 E2.5
G1 F1500.0 X-32.8125 Y-57.8125 Z1.4 E2.5
G1 F1500.0 X-35.9375 Y-57.8125 Z1.4 E2.5
G1 F1500.0 X-35.9375 Y-60.9375 Z1.4 E2.5
G1 F1500.0 X-32.8125 Y-60.9375 Z1.4 E2.5
G1 F1500.0 X-29.6875 Y-60.9375 Z1.4 E2.5
G1 F1500.0 X-29.6875 Y-57.8125 Z1.4 E2.5
G1 F1500.0 X-26.5625 Y-57.8125 Z1.4 E2.5
G1 F1500.0 X-26.5625 Y-60.9375 Z1.4 E2.5
G1 F1500.0 X-28.125 Y-65.625 Z1.4 E3.95284707521
G1 F1500.0 X-28.125 Y-71.875 Z1.4 E5.0
G1 F1500.0 X-34.375 Y-71.875 Z1.4 E5.0
G1 F1500.0 X-34.375 Y-65.625 Z1.4 E5.0
G1 F1500.0 X-39.0625 Y-64.0625 Z1.4 E3.95284707521
G1 F1500.0 X-42.1875 Y-64.0625 Z1.4 E2.5
G1 F1500.0 X-42.1875 Y-67.1875 Z1.4 E2.5
G1 F1500.0 X-39.0625 Y-67.1875 Z1.4 E2.5
G1 F1500.0 X-39.0625 Y-70.3125 Z1.4 E2.5
G1 F1500.0 X-39.0625 Y-73.4375 Z1.4 E2.5
G1 F1500.0 X-42.1875 Y-73.4375 Z1.4 E2.5
G1 F1500.0 X-42.1875 Y-70.3125 Z1.4 E2.5
G1 F1500.0 X-45.3125 Y-70.3125 Z1.4 E2.5
G1 F1500.0 X-45.3125 Y-73.4375 Z1.4 E2.5
G1 F1500.0 X-48.4375 Y-73.4375 Z1.4 E2.5
G1 F1500.0 X-48.4375 Y-70.3125 Z1.4 E2.5
G1 F1500.0 X-48.4375 Y-67.1875 Z1.4 E2.5
G1 F1500.0 X-45.3125 Y-67.1875 Z1.4 E2.5
G1 F1500.0 X-45.3125 Y-64.0625 Z1.4 E2.5
G1 F1500.0 X-48.4375 Y-64.0625 Z1.4 E2.5
G1 F1500.0 X-48.4375 Y-60.9375 Z1.4 E2.5
G1 F1500.0 X-48.4375 Y-57.8125 Z1.4 E2.5
G1 F1500.0 X-45.3125 Y-57.8125 Z1.4 E2.5
G1 F1500.0 X-45.3125 Y-60.9375 Z1.4 E2.5
G1 F1500.0 X-42.1875 Y-60.9375 Z1.4 E2.5
G1 F1500.0 X-39.0625 Y-60.9375 Z1.4 E2.5
G1 F1500.0 X-39.0625 Y-57.8125 Z1.4 E2.5
G1 F1500.0 X-42.1875 Y-57.8125 Z1.4 E2.5
G1 F1500.0 X-42.1875 Y-54.6875 Z1.4 E2.5
G1 F1500.0 X-39.0625 Y-54.6875 Z1.4 E2.5
G1 F1500.0 X-39.0625 Y-51.5625 Z1.4 E2.5
G1 F1500.0 X-42.1875 Y-51.5625 Z1.4 E2.5
G1 F1500.0 X-45.3125 Y-51.5625 Z1.4 E2.5
G1 F1500.0 X-45.3125 Y-54.6875 Z1.4 E2.5
G1 F1500.0 X-48.4375 Y-54.6875 Z1.4 E2.5
G1 F1500.0 X-48.4375 Y-51.5625 Z1.4 E2.5
G1 F1500.0 X-48.4375 Y-48.4375 Z1.4 E2.5
G1 F1500.0 X-48.4375 Y-45.3125 Z1.4 E2.5
G1 F1500.0 X-45.3125 Y-45.3125 Z1.4 E2.5
G1 F1500.0 X-45.3125 Y-48.4375 Z1.4 E2.5
G1 F1500.0 X-42.1875 Y-48.4375 Z1.4 E2.5
G1 F1500.0 X-39.0625 Y-48.4375 Z1.4 E2.5
G1 F1500.0 X-39.0625 Y-45.3125 Z1.4 E2.5
G1 F1500.0 X-42.1875 Y-45.3125 Z1.4 E2.5
G1 F1500.0 X-42.1875 Y-42.1875 Z1.4 E2.5
G1 F1500.0 X-39.0625 Y-42.1875 Z1.4 E2.5
G1 F1500.0 X-39.0625 Y-39.0625 Z1.4 E2.5
G1 F1500.0 X-42.1875 Y-39.0625 Z1.4 E2.5
G1 F1500.0 X-45.3125 Y-39.0625 Z1.4 E2.5
G1 F1500.0 X-45.3125 Y-42.1875 Z1.4 E2.5
G1 F1500.0 X-48.4375 Y-42.1875 Z1.4 E2.5
G1 F1500.0 X-48.4375 Y-39.0625 Z1.4 E2.5
G1 F1500.0 X-46.875 Y-34.375 Z1.4 E3.95284707521
G1 F1500.0 X-46.875 Y-28.125 Z1.4 E5.0
G1 F1500.0 X-40.625 Y-28.125 Z1.4 E5.0
G1 F1500.0 X-40.625 Y-34.375 Z1.4 E5.0
G1 F1500.0 X-35.9375 Y-35.9375 Z1.4 E3.95284707521
G1 F1500.0 X-32.8125 Y-35.9375 Z1.4 E2.5
G1 F1500.0 X-32.8125 Y-32.8125 Z1.4 E2.5
G1 F1500.0 X-35.9375 Y-32.8125 Z1.4 E2.5
G1 F1500.0 X-35.9375 Y-29.6875 Z1.4 E2.5
G1 F1500.0 X-35.9375 Y-26.5625 Z1.4 E2.5
G1 F1500.0 X-32.8125 Y-26.5625 Z1.4 E2.5
G1 F1500.0 X-32.8125 Y-29.6875 Z1.4 E2.5
G1 F1500.0 X-29.6875 Y-29.6875 Z1.4 E2.5
G1 F1500.0 X-29.6875 Y-26.5625 Z1.4 E2.5
G1 F1500.0 X-26.5625 Y-26.5625 Z1.4 E2.5
G1 F1500.0 X-26.5625 Y-29.6875 Z1.4 E2.5
G1 F1500.0 X-26.5625 Y-32.8125 Z1.4 E2.5
G1 F1500.0 X-29.6875 Y-32.8125 Z1.4 E2.5
G1 F1500.0 X-29.6875 Y-35.9375 Z1.4 E2.5
G1 F1500.0 X-26.5625 Y-35.9375 Z1.4 E2.5
G1 F1500.0 X-26.5625 Y-39.0625 Z1.4 E2.5
G1 F1500.0 X-26.5625 Y-42.1875 Z1.4 E2.5
G1 F1500.0 X-29.6875 Y-42.1875 Z1.4 E2.5
G1 F1500.0 X-29.6875 Y-39.0625 Z1.4 E2.5
G1 F1500.0 X-32.8125 Y-39.0625 Z1.4 E2.5
G1 F1500.0 X-35.9375 Y-39.0625 Z1.4 E2.5
G1 F1500.0 X-35.9375 Y-42.1875 Z1.4 E2.5
G1 F1500.0 X-32.8125 Y-42.1875 Z1.4 E2.5
G1 F1500.0 X-32.8125 Y-45.3125 Z1.4 E2.5
G1 F1500.0 X-35.9375 Y-45.3125 Z1.4 E2.5
G1 F1500.0 X-35.9375 Y-48.4375 Z1.4 E2.5
G1 F1500.0 X-32.8125 Y-48.4375 Z1.4 E2.5
G1 F1500.0 X-29.6875 Y-48.4375 Z1.4 E2.5
G1 F1500.0 X-29.6875 Y-45.3125 Z1.4 E2.5
G1 F1500.0 X-26.5625 Y-45.3125 Z1.4 E2.5
G1 F1500.0 X-26.5625 Y-48.4375 Z1.4 E2.5
G1 F1500.0 X-23.4375 Y-48.4375 Z1.4 E2.5
G1 F1500.0 X-20.3125 Y-48.4375 Z1.4 E2.5
G1 F1500.0 X-20.3125 Y-45.3125 Z1.4 E2.5
G1 F1500.0 X-23.4375 Y-45.3125 Z1.4 E2.5
G1 F1500.0 X-23.4375 Y-42.1875 Z1.4 E2.5
G1 F1500.0 X-23.4375 Y-39.0625 Z1.4 E2.5
G1 F1500.0 X-20.3125 Y-39.0625 Z1.4 E2.5
G1 F1500.0 X-20.3125 Y-42.1875 Z1.4 E2.5
G1 F1500.0 X-17.1875 Y-42.1875 Z1.4 E2.5
G1 F1500.0 X-17.1875 Y-39.0625 Z1.4 E2.5
G1 F1500.0 X-14.0625 Y-39.0625 Z1.4 E2.5
G1 F1500.0 X-14.0625 Y-42.1875 Z1.4 E2.5
G1 F1500.0 X-14.0625 Y-45.3125 Z1.4 E2.5
G1 F1500.0 X-17.1875 Y-45.3125 Z1.4 E2.5
G1 F1500.0 X-17.1875 Y-48.4375 Z1.4 E2.5
G1 F1500.0 X-14.0625 Y-48.4375 Z1.4 E2.5
G1 F1500.0 X-9.375 Y-46.875 Z1.4 E3.95284707521
G1 F1500.0 X-3.125 Y-46.875 Z1.4 E5.0
G1 F1500.0 X-3.125 Y-40.625 Z1.4 E5.0
G1 F1500.0 X-9.375 Y-40.625 Z1.4 E5.0
G1 F1500.0 X-10.9375 Y-35.9375 Z1.4 E3.95284707521
G1 F1500.0 X-10.9375 Y-32.8125 Z1.4 E2.5
G1 F1500.0 X-7.8125 Y-32.8125 Z1.4 E2.5
G1 F1500.0 X-7.8125 Y-35.9375 Z1.4 E2.5
G1 F1500.0 X-4.6875 Y-35.9375 Z1.4 E2.5
G1 F1500.0 X-1.5625 Y-35.9375 Z1.4 E2.5
G1 F1500.0 X-1.5625 Y-32.8125 Z1.4 E2.5
G1 F1500.0 X-4.6875 Y-32.8125 Z1.4 E2.5
G1 F1500.0 X-4.6875 Y-29.6875 Z1.4 E2.5
G1 F1500.0 X-1.5625 Y-29.6875 Z1.4 E2.5
G1 F1500.0 X-1.5625 Y-26.5625 Z1.4 E2.5
G1 F1500.0 X-4.6875 Y-26.5625 Z1.4 E2.5
G1 F1500.0 X-7.8125 Y-26.5625 Z1.4 E2.5
G1 F1500.0 X-7.8125 Y-29.6875 Z1.4 E2.5
G1 F1500.0 X-10.9375 Y-29.6875 Z1.4 E2.5
G1 F1500.0 X-10.9375 Y-26.5625 Z1.4 E2.5
G1 F1500.0 X-14.0625 Y-26.5625 Z1.4 E2.5
G1 F1500.0 X-17.1875 Y-26.5625 Z1.4 E2.5
G1 F1500.0 X-17.1875 Y-29.6875 Z1.4 E2.5
G1 F1500.0 X-14.0625 Y-29.6875 Z1.4 E2.5
G1 F1500.0 X-14.0625 Y-32.8125 Z1.4 E2.5
G1 F1500.0 X-14.0625 Y-35.9375 Z1.4 E2.5
G1 F1500.0 X-17.1875 Y-35.9375 Z1.4 E2.5
G1 F1500.0 X-17.1875 Y-32.8125 Z1.4 E2.5
G1 F1500.0 X-20.3125 Y-32.8125 Z1.4 E2.5
G1 F1500.0 X-20.3125 Y-35.9375 Z1.4 E2.5
G1 F1500.0 X-23.4375 Y-35.9375 Z1.4 E2.5
G1 F1500.0 X-23.4375 Y-32.8125 Z1.4 E2.5
G1 F1500.0 X-23.4375 Y-29.6875 Z1.4 E2.5
G1 F1500.0 X-20.3125 Y-29.6875 Z1.4 E2.5
G1 F1500.0 X-20.3125 Y-26.5625 Z1.4 E2.5
G1 F1500.0 X-23.4375 Y-26.5625 Z1.4 E2.5
G1 F1500.0 X-23.4375 Y-23.4375 Z1.4 E2.5
G1 F1500.0 X-20.3125 Y-23.4375 Z1.4 E2.5
G1 F1500.0 X-20.3125 Y-20.3125 Z1.4 E2.5
G1 F1500.0 X-23.4375 Y-20.3125 Z1.4 E2.5
G1 F1500.0 X-23.4375 Y-17.1875 Z1.4 E2.5
G1 F1500.0 X-23.4375 Y-14.0625 Z1.4 E2.5
G1 F1500.0 X-20.3125 Y-14.0625 Z1.4 E2.5
G1 F1500.0 X-20.3125 Y-17.1875 Z1.4 E2.5
G1 F1500.0 X-17.1875 Y-17.1875 Z1.4 E2.5
G1 F1500.0 X-17.1875 Y-14.0625 Z1.4 E2.5
G1 F1500.0 X-14.0625 Y-14.0625 Z1.4 E2.5
G1 F1500.0 X-14.0625 Y-17.1875 Z1.4 E2.5
G1 F1500.0 X-14.0625 Y-20.3125 Z1.4 E2.5
G1 F1500.0 X-17.1875 Y-20.3125 Z1.4 E2.5
G1 F1500.0 X-17.1875 Y-23.4375 Z1.4 E2.5
G1 F1500.0 X-14.0625 Y-23.4375 Z1.4 E2.5
G1 F1500.0 X-10.9375 Y-23.4375 Z1.4 E2.5
