;_project: : hilbert_TPMS
;_project_by: : WenqianYang, JonasWard
;_project_gcode_generator_by: : JonasWard
;library_path : /Users/jonas/Documents/HilbertAndCo/src/spacemapping_curve
/Users/jonas/Documents/HilbertAndCo/src/spacemapping_curve/gcode/GCodeDefinitions/startGcode.txt
/Users/jonas/Documents/HilbertAndCo/src/spacemapping_curve/gcode/GCodeDefinitions/endGcode.txt
;Sliced by ideaMaker 3.3.0.2343, 2020-02-08 22:55:15 UTC+0100
;Dimension: 250.000 210.000 210.000 0.400
;Plate Shape: 0
;Extruder Offset #1: 25.000 0.000
;Filament Diameter #1: 1.750
;Filament Diameter #2: 1.750
;Filament Compensation #1: 94.00
;Filament Compensation #2: 94.00
;Filament Density #1: 1240.00
;Filament Density #2: 1240.00
;Model Gap: 0.200
M221 T0 S94.00
M140 S60.00
M104 T0 S205.00
M109 T0 S205.00
T0
M190 S60.00
M115 U3.1.0 ; tell printer latest fw version
M83  ; extruder relative mode
M104 S205 ; set extruder temp
M140 S60 ; set bed temp
M190 S60 ; wait for bed temp
M109 S205 ; wait for extruder temp
G28 W ; home all without mesh bed level
G80 ; mesh bed leveling
G1 Y-3.0 F1000.0 ; go outside print area
G92 E0.0
G1 X60.0 E9.0  F1000.0 ; intro line
G1 X100.0 E12.5  F1000.0 ; intro line
G92 E0.0
M82
M1001
M106 S0
;LAYER:-2
;Z:0.500
;HEIGHT:0.500
G0 F6000 X93.481 Y70.719
G0 F1500 Z0.500
;TYPE:RAFT
;WIDTH:0.800
G1 F1500.0 X17.8125 Y17.8125 Z0.5
G1 X17.8125 Y23.4375 Z0.5 E0.93375
G1 F1500.0 X23.4375 Y23.4375 Z0.5 E0.93375
G1 F1500.0 X23.4375 Y17.8125 Z0.5 E0.93375
G1 F1500.0 X29.0625 Y17.8125 Z0.5 E0.93375
G1 F1500.0 X34.6875 Y17.8125 Z0.5 E0.93375
G1 F1500.0 X34.6875 Y23.4375 Z0.5 E0.93375
G1 F1500.0 X29.0625 Y23.4375 Z0.5 E0.93375
G1 F1500.0 X29.0625 Y29.0625 Z0.5 E0.93375
G1 F1500.0 X34.6875 Y29.0625 Z0.5 E0.93375
G1 F1500.0 X34.6875 Y34.6875 Z0.5 E0.93375
G1 F1500.0 X29.0625 Y34.6875 Z0.5 E0.93375
G1 F1500.0 X23.4375 Y34.6875 Z0.5 E0.93375
G1 F1500.0 X23.4375 Y29.0625 Z0.5 E0.93375
G1 F1500.0 X17.8125 Y29.0625 Z0.5 E0.93375
G1 F1500.0 X17.8125 Y34.6875 Z0.5 E0.93375
G1 F1500.0 X16.40625 Y38.90625 Z0.5 E0.738194191296
G1 F1500.0 X16.40625 Y41.71875 Z0.5 E0.466875
G1 F1500.0 X19.21875 Y41.71875 Z0.5 E0.466875
G1 F1500.0 X19.21875 Y38.90625 Z0.5 E0.466875
G1 F1500.0 X22.03125 Y38.90625 Z0.5 E0.466875
G1 F1500.0 X24.84375 Y38.90625 Z0.5 E0.466875
G1 F1500.0 X24.84375 Y41.71875 Z0.5 E0.466875
G1 F1500.0 X22.03125 Y41.71875 Z0.5 E0.466875
G1 F1500.0 X22.03125 Y44.53125 Z0.5 E0.466875
G1 F1500.0 X24.84375 Y44.53125 Z0.5 E0.466875
G1 F1500.0 X24.84375 Y47.34375 Z0.5 E0.466875
G1 F1500.0 X22.03125 Y47.34375 Z0.5 E0.466875
G1 F1500.0 X19.21875 Y47.34375 Z0.5 E0.466875
G1 F1500.0 X19.21875 Y44.53125 Z0.5 E0.466875
G1 F1500.0 X16.40625 Y44.53125 Z0.5 E0.466875
G1 F1500.0 X16.40625 Y47.34375 Z0.5 E0.466875
G1 F1500.0 X16.40625 Y50.15625 Z0.5 E0.466875
G1 F1500.0 X19.21875 Y50.15625 Z0.5 E0.466875
G1 F1500.0 X19.21875 Y52.96875 Z0.5 E0.466875
G1 F1500.0 X16.40625 Y52.96875 Z0.5 E0.466875
G1 F1500.0 X16.40625 Y55.78125 Z0.5 E0.466875
G1 F1500.0 X16.40625 Y58.59375 Z0.5 E0.466875
G1 F1500.0 X19.21875 Y58.59375 Z0.5 E0.466875
G1 F1500.0 X19.21875 Y55.78125 Z0.5 E0.466875
G1 F1500.0 X22.03125 Y55.78125 Z0.5 E0.466875
G1 F1500.0 X22.03125 Y58.59375 Z0.5 E0.466875
G1 F1500.0 X24.84375 Y58.59375 Z0.5 E0.466875
G1 F1500.0 X24.84375 Y55.78125 Z0.5 E0.466875
G1 F1500.0 X25.546875 Y53.671875 Z0.5 E0.369097095648
G1 F1500.0 X25.546875 Y52.265625 Z0.5 E0.2334375
G1 F1500.0 X24.140625 Y52.265625 Z0.5 E0.2334375
G1 F1500.0 X24.140625 Y53.671875 Z0.5 E0.2334375
G1 F1500.0 X22.734375 Y53.671875 Z0.5 E0.2334375
G1 F1500.0 X21.328125 Y53.671875 Z0.5 E0.2334375
G1 F1500.0 X21.328125 Y52.265625 Z0.5 E0.2334375
G1 F1500.0 X22.734375 Y52.265625 Z0.5 E0.2334375
G1 F1500.0 X22.734375 Y50.859375 Z0.5 E0.2334375
G1 F1500.0 X21.328125 Y50.859375 Z0.5 E0.2334375
G1 F1500.0 X21.328125 Y49.453125 Z0.5 E0.2334375
G1 F1500.0 X22.734375 Y49.453125 Z0.5 E0.2334375
G1 F1500.0 X24.140625 Y49.453125 Z0.5 E0.2334375
G1 F1500.0 X24.140625 Y50.859375 Z0.5 E0.2334375
G1 F1500.0 X25.546875 Y50.859375 Z0.5 E0.2334375
G1 F1500.0 X25.546875 Y49.453125 Z0.5 E0.2334375
G1 F1500.0 X26.6015625 Y49.1015625 Z0.5 E0.184548547824
G1 F1500.0 X27.3046875 Y49.1015625 Z0.5 E0.11671875
G1 F1500.0 X27.3046875 Y49.8046875 Z0.5 E0.11671875
G1 F1500.0 X26.6015625 Y49.8046875 Z0.5 E0.11671875
G1 F1500.0 X26.6015625 Y50.5078125 Z0.5 E0.11671875
G1 F1500.0 X26.6015625 Y51.2109375 Z0.5 E0.11671875
G1 F1500.0 X27.3046875 Y51.2109375 Z0.5 E0.11671875
G1 F1500.0 X27.3046875 Y50.5078125 Z0.5 E0.11671875
G1 F1500.0 X28.0078125 Y50.5078125 Z0.5 E0.11671875
G1 F1500.0 X28.0078125 Y51.2109375 Z0.5 E0.11671875
G1 F1500.0 X28.7109375 Y51.2109375 Z0.5 E0.11671875
G1 F1500.0 X28.7109375 Y50.5078125 Z0.5 E0.11671875
G1 F1500.0 X28.7109375 Y49.8046875 Z0.5 E0.11671875
G1 F1500.0 X28.0078125 Y49.8046875 Z0.5 E0.11671875
G1 F1500.0 X28.0078125 Y49.1015625 Z0.5 E0.11671875
G1 F1500.0 X28.7109375 Y49.1015625 Z0.5 E0.11671875
G1 F1500.0 X29.23828125 Y48.92578125 Z0.5 E0.0922742739119
G1 F1500.0 X29.58984375 Y48.92578125 Z0.5 E0.058359375
G1 F1500.0 X29.58984375 Y49.27734375 Z0.5 E0.058359375
G1 F1500.0 X29.23828125 Y49.27734375 Z0.5 E0.058359375
G1 F1500.0 X29.23828125 Y49.62890625 Z0.5 E0.058359375
G1 F1500.0 X29.23828125 Y49.98046875 Z0.5 E0.058359375
G1 F1500.0 X29.58984375 Y49.98046875 Z0.5 E0.058359375
G1 F1500.0 X29.58984375 Y49.62890625 Z0.5 E0.058359375
G1 F1500.0 X29.94140625 Y49.62890625 Z0.5 E0.058359375
G1 F1500.0 X29.94140625 Y49.98046875 Z0.5 E0.058359375
G1 F1500.0 X30.29296875 Y49.98046875 Z0.5 E0.058359375
G1 F1500.0 X30.29296875 Y49.62890625 Z0.5 E0.058359375
G1 F1500.0 X30.29296875 Y49.27734375 Z0.5 E0.058359375
G1 F1500.0 X29.94140625 Y49.27734375 Z0.5 E0.058359375
G1 F1500.0 X29.94140625 Y48.92578125 Z0.5 E0.058359375
G1 F1500.0 X30.29296875 Y48.92578125 Z0.5 E0.058359375
G1 F1500.0 X30.64453125 Y48.92578125 Z0.5 E0.058359375
G1 F1500.0 X30.64453125 Y49.27734375 Z0.5 E0.058359375
G1 F1500.0 X30.99609375 Y49.27734375 Z0.5 E0.058359375
G1 F1500.0 X30.99609375 Y48.92578125 Z0.5 E0.058359375
G1 F1500.0 X31.34765625 Y48.92578125 Z0.5 E0.058359375
G1 F1500.0 X31.69921875 Y48.92578125 Z0.5 E0.058359375
G1 F1500.0 X31.69921875 Y49.27734375 Z0.5 E0.058359375
G1 F1500.0 X31.34765625 Y49.27734375 Z0.5 E0.058359375
G1 F1500.0 X31.34765625 Y49.62890625 Z0.5 E0.058359375
G1 F1500.0 X31.69921875 Y49.62890625 Z0.5 E0.058359375
G1 F1500.0 X31.69921875 Y49.98046875 Z0.5 E0.058359375
G1 F1500.0 X31.34765625 Y49.98046875 Z0.5 E0.058359375
G1 F1500.0 X30.99609375 Y49.98046875 Z0.5 E0.058359375
G1 F1500.0 X30.99609375 Y49.62890625 Z0.5 E0.058359375
G1 F1500.0 X30.64453125 Y49.62890625 Z0.5 E0.058359375
G1 F1500.0 X30.64453125 Y49.98046875 Z0.5 E0.058359375
G1 F1500.0 X30.64453125 Y50.33203125 Z0.5 E0.058359375
G1 F1500.0 X30.64453125 Y50.68359375 Z0.5 E0.058359375
G1 F1500.0 X30.99609375 Y50.68359375 Z0.5 E0.058359375
G1 F1500.0 X30.99609375 Y50.33203125 Z0.5 E0.058359375
G1 F1500.0 X31.34765625 Y50.33203125 Z0.5 E0.058359375
G1 F1500.0 X31.69921875 Y50.33203125 Z0.5 E0.058359375
G1 F1500.0 X31.69921875 Y50.68359375 Z0.5 E0.058359375
G1 F1500.0 X31.34765625 Y50.68359375 Z0.5 E0.058359375
G1 F1500.0 X31.34765625 Y51.03515625 Z0.5 E0.058359375
G1 F1500.0 X31.69921875 Y51.03515625 Z0.5 E0.058359375
G1 F1500.0 X31.69921875 Y51.38671875 Z0.5 E0.058359375
G1 F1500.0 X31.34765625 Y51.38671875 Z0.5 E0.058359375
G1 F1500.0 X30.99609375 Y51.38671875 Z0.5 E0.058359375
G1 F1500.0 X30.99609375 Y51.03515625 Z0.5 E0.058359375
G1 F1500.0 X30.64453125 Y51.03515625 Z0.5 E0.058359375
G1 F1500.0 X30.64453125 Y51.38671875 Z0.5 E0.058359375
G1 F1500.0 X30.29296875 Y51.38671875 Z0.5 E0.058359375
G1 F1500.0 X29.94140625 Y51.38671875 Z0.5 E0.058359375
G1 F1500.0 X29.94140625 Y51.03515625 Z0.5 E0.058359375
G1 F1500.0 X30.29296875 Y51.03515625 Z0.5 E0.058359375
G1 F1500.0 X30.29296875 Y50.68359375 Z0.5 E0.058359375
G1 F1500.0 X30.29296875 Y50.33203125 Z0.5 E0.058359375
G1 F1500.0 X29.94140625 Y50.33203125 Z0.5 E0.058359375
G1 F1500.0 X29.94140625 Y50.68359375 Z0.5 E0.058359375
G1 F1500.0 X29.58984375 Y50.68359375 Z0.5 E0.058359375
G1 F1500.0 X29.58984375 Y50.33203125 Z0.5 E0.058359375
G1 F1500.0 X29.23828125 Y50.33203125 Z0.5 E0.058359375
G1 F1500.0 X29.23828125 Y50.68359375 Z0.5 E0.058359375
G1 F1500.0 X29.23828125 Y51.03515625 Z0.5 E0.058359375
G1 F1500.0 X29.58984375 Y51.03515625 Z0.5 E0.058359375
G1 F1500.0 X29.58984375 Y51.38671875 Z0.5 E0.058359375
G1 F1500.0 X29.23828125 Y51.38671875 Z0.5 E0.058359375
G1 F1500.0 X29.23828125 Y51.73828125 Z0.5 E0.058359375
G1 F1500.0 X29.58984375 Y51.73828125 Z0.5 E0.058359375
G1 F1500.0 X29.58984375 Y52.08984375 Z0.5 E0.058359375
G1 F1500.0 X29.23828125 Y52.08984375 Z0.5 E0.058359375
G1 F1500.0 X29.23828125 Y52.44140625 Z0.5 E0.058359375
G1 F1500.0 X29.23828125 Y52.79296875 Z0.5 E0.058359375
G1 F1500.0 X29.58984375 Y52.79296875 Z0.5 E0.058359375
G1 F1500.0 X29.58984375 Y52.44140625 Z0.5 E0.058359375
G1 F1500.0 X29.94140625 Y52.44140625 Z0.5 E0.058359375
G1 F1500.0 X29.94140625 Y52.79296875 Z0.5 E0.058359375
G1 F1500.0 X30.29296875 Y52.79296875 Z0.5 E0.058359375
G1 F1500.0 X30.29296875 Y52.44140625 Z0.5 E0.058359375
G1 F1500.0 X30.29296875 Y52.08984375 Z0.5 E0.058359375
G1 F1500.0 X29.94140625 Y52.08984375 Z0.5 E0.058359375
G1 F1500.0 X29.94140625 Y51.73828125 Z0.5 E0.058359375
G1 F1500.0 X30.29296875 Y51.73828125 Z0.5 E0.058359375
G1 F1500.0 X30.64453125 Y51.73828125 Z0.5 E0.058359375
G1 F1500.0 X30.64453125 Y52.08984375 Z0.5 E0.058359375
G1 F1500.0 X30.99609375 Y52.08984375 Z0.5 E0.058359375
G1 F1500.0 X30.99609375 Y51.73828125 Z0.5 E0.058359375
G1 F1500.0 X31.34765625 Y51.73828125 Z0.5 E0.058359375
G1 F1500.0 X31.69921875 Y51.73828125 Z0.5 E0.058359375
G1 F1500.0 X31.69921875 Y52.08984375 Z0.5 E0.058359375
G1 F1500.0 X31.34765625 Y52.08984375 Z0.5 E0.058359375
G1 F1500.0 X31.34765625 Y52.44140625 Z0.5 E0.058359375
G1 F1500.0 X31.69921875 Y52.44140625 Z0.5 E0.058359375
G1 F1500.0 X31.69921875 Y52.79296875 Z0.5 E0.058359375
G1 F1500.0 X31.34765625 Y52.79296875 Z0.5 E0.058359375
G1 F1500.0 X30.99609375 Y52.79296875 Z0.5 E0.058359375
G1 F1500.0 X30.99609375 Y52.44140625 Z0.5 E0.058359375
G1 F1500.0 X30.64453125 Y52.44140625 Z0.5 E0.058359375
G1 F1500.0 X30.64453125 Y52.79296875 Z0.5 E0.058359375
G1 F1500.0 X30.64453125 Y53.14453125 Z0.5 E0.058359375
G1 F1500.0 X30.64453125 Y53.49609375 Z0.5 E0.058359375
G1 F1500.0 X30.99609375 Y53.49609375 Z0.5 E0.058359375
G1 F1500.0 X30.99609375 Y53.14453125 Z0.5 E0.058359375
G1 F1500.0 X31.34765625 Y53.14453125 Z0.5 E0.058359375
G1 F1500.0 X31.69921875 Y53.14453125 Z0.5 E0.058359375
G1 F1500.0 X31.69921875 Y53.49609375 Z0.5 E0.058359375
G1 F1500.0 X31.34765625 Y53.49609375 Z0.5 E0.058359375
G1 F1500.0 X31.34765625 Y53.84765625 Z0.5 E0.058359375
G1 F1500.0 X31.69921875 Y53.84765625 Z0.5 E0.058359375
G1 F1500.0 X31.69921875 Y54.19921875 Z0.5 E0.058359375
G1 F1500.0 X31.34765625 Y54.19921875 Z0.5 E0.058359375
G1 F1500.0 X30.99609375 Y54.19921875 Z0.5 E0.058359375
G1 F1500.0 X30.99609375 Y53.84765625 Z0.5 E0.058359375
G1 F1500.0 X30.64453125 Y53.84765625 Z0.5 E0.058359375
G1 F1500.0 X30.64453125 Y54.19921875 Z0.5 E0.058359375
G1 F1500.0 X30.29296875 Y54.19921875 Z0.5 E0.058359375
G1 F1500.0 X29.94140625 Y54.19921875 Z0.5 E0.058359375
G1 F1500.0 X29.94140625 Y53.84765625 Z0.5 E0.058359375
G1 F1500.0 X30.29296875 Y53.84765625 Z0.5 E0.058359375
G1 F1500.0 X30.29296875 Y53.49609375 Z0.5 E0.058359375
G1 F1500.0 X30.29296875 Y53.14453125 Z0.5 E0.058359375
G1 F1500.0 X29.94140625 Y53.14453125 Z0.5 E0.058359375
G1 F1500.0 X29.94140625 Y53.49609375 Z0.5 E0.058359375
G1 F1500.0 X29.58984375 Y53.49609375 Z0.5 E0.058359375
G1 F1500.0 X29.58984375 Y53.14453125 Z0.5 E0.058359375
G1 F1500.0 X29.23828125 Y53.14453125 Z0.5 E0.058359375
G1 F1500.0 X29.23828125 Y53.49609375 Z0.5 E0.058359375
G1 F1500.0 X29.23828125 Y53.84765625 Z0.5 E0.058359375
G1 F1500.0 X29.58984375 Y53.84765625 Z0.5 E0.058359375
G1 F1500.0 X29.58984375 Y54.19921875 Z0.5 E0.058359375
G1 F1500.0 X29.23828125 Y54.19921875 Z0.5 E0.058359375
G1 F1500.0 X28.7109375 Y54.0234375 Z0.5 E0.0922742739119
G1 F1500.0 X28.0078125 Y54.0234375 Z0.5 E0.11671875
G1 F1500.0 X28.0078125 Y53.3203125 Z0.5 E0.11671875
G1 F1500.0 X28.7109375 Y53.3203125 Z0.5 E0.11671875
G1 F1500.0 X28.7109375 Y52.6171875 Z0.5 E0.11671875
G1 F1500.0 X28.7109375 Y51.9140625 Z0.5 E0.11671875
G1 F1500.0 X28.0078125 Y51.9140625 Z0.5 E0.11671875
G1 F1500.0 X28.0078125 Y52.6171875 Z0.5 E0.11671875
G1 F1500.0 X27.3046875 Y52.6171875 Z0.5 E0.11671875
G1 F1500.0 X27.3046875 Y51.9140625 Z0.5 E0.11671875
G1 F1500.0 X26.6015625 Y51.9140625 Z0.5 E0.11671875
G1 F1500.0 X26.6015625 Y52.6171875 Z0.5 E0.11671875
G1 F1500.0 X26.6015625 Y53.3203125 Z0.5 E0.11671875
G1 F1500.0 X27.3046875 Y53.3203125 Z0.5 E0.11671875
G1 F1500.0 X27.3046875 Y54.0234375 Z0.5 E0.11671875
G1 F1500.0 X26.6015625 Y54.0234375 Z0.5 E0.11671875
G1 F1500.0 X26.953125 Y55.078125 Z0.5 E0.184548547824
G1 F1500.0 X28.359375 Y55.078125 Z0.5 E0.2334375
G1 F1500.0 X28.359375 Y56.484375 Z0.5 E0.2334375
G1 F1500.0 X26.953125 Y56.484375 Z0.5 E0.2334375
G1 F1500.0 X26.953125 Y57.890625 Z0.5 E0.2334375
G1 F1500.0 X26.953125 Y59.296875 Z0.5 E0.2334375
G1 F1500.0 X28.359375 Y59.296875 Z0.5 E0.2334375
G1 F1500.0 X28.359375 Y57.890625 Z0.5 E0.2334375
G1 F1500.0 X29.765625 Y57.890625 Z0.5 E0.2334375
G1 F1500.0 X29.765625 Y59.296875 Z0.5 E0.2334375
G1 F1500.0 X31.171875 Y59.296875 Z0.5 E0.2334375
G1 F1500.0 X31.171875 Y57.890625 Z0.5 E0.2334375
G1 F1500.0 X31.69921875 Y57.01171875 Z0.5 E0.170145354119
G1 F1500.0 X31.34765625 Y57.01171875 Z0.5 E0.058359375
G1 F1500.0 X31.34765625 Y56.66015625 Z0.5 E0.058359375
G1 F1500.0 X31.69921875 Y56.66015625 Z0.5 E0.058359375
G1 F1500.0 X31.69921875 Y56.30859375 Z0.5 E0.058359375
G1 F1500.0 X31.69921875 Y55.95703125 Z0.5 E0.058359375
G1 F1500.0 X31.34765625 Y55.95703125 Z0.5 E0.058359375
G1 F1500.0 X31.34765625 Y56.30859375 Z0.5 E0.058359375
G1 F1500.0 X30.99609375 Y56.30859375 Z0.5 E0.058359375
G1 F1500.0 X30.99609375 Y55.95703125 Z0.5 E0.058359375
G1 F1500.0 X30.64453125 Y55.95703125 Z0.5 E0.058359375
G1 F1500.0 X30.64453125 Y56.30859375 Z0.5 E0.058359375
G1 F1500.0 X30.64453125 Y56.66015625 Z0.5 E0.058359375
G1 F1500.0 X30.99609375 Y56.66015625 Z0.5 E0.058359375
G1 F1500.0 X30.99609375 Y57.01171875 Z0.5 E0.058359375
G1 F1500.0 X30.64453125 Y57.01171875 Z0.5 E0.058359375
G1 F1500.0 X30.1171875 Y56.8359375 Z0.5 E0.0922742739119
G1 F1500.0 X29.4140625 Y56.8359375 Z0.5 E0.11671875
G1 F1500.0 X29.4140625 Y56.1328125 Z0.5 E0.11671875
G1 F1500.0 X30.1171875 Y56.1328125 Z0.5 E0.11671875
G1 F1500.0 X30.29296875 Y55.60546875 Z0.5 E0.0922742739119
G1 F1500.0 X30.29296875 Y55.25390625 Z0.5 E0.058359375
G1 F1500.0 X29.94140625 Y55.25390625 Z0.5 E0.058359375
G1 F1500.0 X29.94140625 Y55.60546875 Z0.5 E0.058359375
G1 F1500.0 X29.58984375 Y55.60546875 Z0.5 E0.058359375
G1 F1500.0 X29.23828125 Y55.60546875 Z0.5 E0.058359375
G1 F1500.0 X29.23828125 Y55.25390625 Z0.5 E0.058359375
G1 F1500.0 X29.58984375 Y55.25390625 Z0.5 E0.058359375
G1 F1500.0 X29.58984375 Y54.90234375 Z0.5 E0.058359375
G1 F1500.0 X29.23828125 Y54.90234375 Z0.5 E0.058359375
G1 F1500.0 X29.23828125 Y54.55078125 Z0.5 E0.058359375
G1 F1500.0 X29.58984375 Y54.55078125 Z0.5 E0.058359375
G1 F1500.0 X29.94140625 Y54.55078125 Z0.5 E0.058359375
G1 F1500.0 X29.94140625 Y54.90234375 Z0.5 E0.058359375
G1 F1500.0 X30.29296875 Y54.90234375 Z0.5 E0.058359375
G1 F1500.0 X30.29296875 Y54.55078125 Z0.5 E0.058359375
G1 F1500.0 X30.64453125 Y54.55078125 Z0.5 E0.058359375
G1 F1500.0 X30.99609375 Y54.55078125 Z0.5 E0.058359375
G1 F1500.0 X30.99609375 Y54.90234375 Z0.5 E0.058359375
G1 F1500.0 X30.64453125 Y54.90234375 Z0.5 E0.058359375
G1 F1500.0 X30.64453125 Y55.25390625 Z0.5 E0.058359375
G1 F1500.0 X30.64453125 Y55.60546875 Z0.5 E0.058359375
G1 F1500.0 X30.99609375 Y55.60546875 Z0.5 E0.058359375
G1 F1500.0 X30.99609375 Y55.25390625 Z0.5 E0.058359375
G1 F1500.0 X31.34765625 Y55.25390625 Z0.5 E0.058359375
G1 F1500.0 X31.34765625 Y55.60546875 Z0.5 E0.058359375
G1 F1500.0 X31.69921875 Y55.60546875 Z0.5 E0.058359375
