;_project: : hilbert_TPMS
;_project_by: : WenqianYang, JonasWard
;_project_gcode_generator_by: : JonasWard
;library_path : /Users/jonas/Documents/HilbertAndCo/src/spacemapping_curve
;path_length : 114963.299011
;pattern_edge_easing : True
;pattern_edge_easing_end : 10.0
;pattern_edge_easing_zero : 0.0
;pattern_periodic : False
;pattern_random_dots : True
;pattern_random_seed : 100
;pattern_split : True
;pattern_type : ellipsoid_bump_map
;pattern_type_ellipsoid_bump_map_direction : False
;pattern_type_ellipsoid_bump_map_radius : 6.5
;pattern_type_ellipsoid_bump_map_spacing : 30.0
;pattern_type_ellipsoid_bump_map_val : 1.0
;pattern_y_scale_factor : 0.5
;shell_count : 1
;shell_direction : outside
;shell_spacing : 1.6
;shell_split_distance : 1.6
;shell_split_type : detached
/Users/jonas/Documents/HilbertAndCo/src/spacemapping_curve/gcode/GCodeDefinitions/startGcode.txt
/Users/jonas/Documents/HilbertAndCo/src/spacemapping_curve/gcode/GCodeDefinitions/endGcode.txt
;Sliced by ideaMaker 3.3.0.2343, 2020-02-08 22:55:15 UTC+0100
;Dimension: 250.000 210.000 210.000 0.400
;Plate Shape: 0
;Extruder Offset #1: 25.000 0.000
;Filament Diameter #1: 1.750
;Filament Diameter #2: 1.750
;Filament Compensation #1: 94.00
;Filament Compensation #2: 94.00
;Filament Density #1: 1240.00
;Filament Density #2: 1240.00
;Model Gap: 0.200
M221 T0 S94.00
M140 S60.00
M104 T0 S205.00
M109 T0 S205.00
T0
M190 S60.00
M115 U3.1.0 ; tell printer latest fw version
M83  ; extruder relative mode
M104 S205 ; set extruder temp
M140 S60 ; set bed temp
M190 S60 ; wait for bed temp
M109 S205 ; wait for extruder temp
G28 W ; home all without mesh bed level
G80 ; mesh bed leveling
G1 Y-3.0 F1000.0 ; go outside print area
G92 E0.0
G1 X60.0 E9.0  F1000.0 ; intro line
G1 X100.0 E12.5  F1000.0 ; intro line
G92 E0.0
M83
M1001
M106 S0
;LAYER:-2
;Z:0.500
;HEIGHT:0.500
G0 F6000 X93.481 Y70.719
G0 F1500 Z0.500
;TYPE:RAFT
;WIDTH:0.800
G1 F1500.0 X-87.1875 Y-87.1875 Z0.5
G1 X-87.1875 Y-81.5625 Z0.5 E0.675
G1 F1500.0 X-81.5625 Y-81.5625 Z0.5 E0.675
G1 F1500.0 X-81.5625 Y-87.1875 Z0.5 E0.675
G1 F1500.0 X-75.9375 Y-87.1875 Z0.5 E0.675
G1 F1500.0 X-70.3125 Y-87.1875 Z0.5 E0.675
G1 F1500.0 X-70.3125 Y-81.5625 Z0.5 E0.675
G1 F1500.0 X-75.9375 Y-81.5625 Z0.5 E0.675
G1 F1500.0 X-75.9375 Y-75.9375 Z0.5 E0.675
G1 F1500.0 X-70.3125 Y-75.9375 Z0.5 E0.675
G1 F1500.0 X-70.3125 Y-70.3125 Z0.5 E0.675
G1 F1500.0 X-75.9375 Y-70.3125 Z0.5 E0.675
G1 F1500.0 X-81.5625 Y-70.3125 Z0.5 E0.675
G1 F1500.0 X-81.5625 Y-75.9375 Z0.5 E0.675
G1 F1500.0 X-87.1875 Y-75.9375 Z0.5 E0.675
G1 F1500.0 X-87.1875 Y-70.3125 Z0.5 E0.675
G1 F1500.0 X-88.59375 Y-66.09375 Z0.5 E0.533634355153
G1 F1500.0 X-88.59375 Y-63.28125 Z0.5 E0.3375
G1 F1500.0 X-85.78125 Y-63.28125 Z0.5 E0.3375
G1 F1500.0 X-85.78125 Y-66.09375 Z0.5 E0.3375
G1 F1500.0 X-82.96875 Y-66.09375 Z0.5 E0.3375
G1 F1500.0 X-80.15625 Y-66.09375 Z0.5 E0.3375
G1 F1500.0 X-80.15625 Y-63.28125 Z0.5 E0.3375
G1 F1500.0 X-82.96875 Y-63.28125 Z0.5 E0.3375
G1 F1500.0 X-82.96875 Y-60.46875 Z0.5 E0.3375
G1 F1500.0 X-80.15625 Y-60.46875 Z0.5 E0.3375
G1 F1500.0 X-80.15625 Y-57.65625 Z0.5 E0.3375
G1 F1500.0 X-82.96875 Y-57.65625 Z0.5 E0.3375
G1 F1500.0 X-85.78125 Y-57.65625 Z0.5 E0.3375
G1 F1500.0 X-85.78125 Y-60.46875 Z0.5 E0.3375
G1 F1500.0 X-88.59375 Y-60.46875 Z0.5 E0.3375
G1 F1500.0 X-88.59375 Y-57.65625 Z0.5 E0.3375
G1 F1500.0 X-88.59375 Y-54.84375 Z0.5 E0.3375
G1 F1500.0 X-85.78125 Y-54.84375 Z0.5 E0.3375
G1 F1500.0 X-85.78125 Y-52.03125 Z0.5 E0.3375
G1 F1500.0 X-88.59375 Y-52.03125 Z0.5 E0.3375
G1 F1500.0 X-88.59375 Y-49.21875 Z0.5 E0.3375
G1 F1500.0 X-88.59375 Y-46.40625 Z0.5 E0.3375
G1 F1500.0 X-85.78125 Y-46.40625 Z0.5 E0.3375
G1 F1500.0 X-85.78125 Y-49.21875 Z0.5 E0.3375
G1 F1500.0 X-82.96875 Y-49.21875 Z0.5 E0.3375
G1 F1500.0 X-82.96875 Y-46.40625 Z0.5 E0.3375
G1 F1500.0 X-80.15625 Y-46.40625 Z0.5 E0.3375
G1 F1500.0 X-80.15625 Y-49.21875 Z0.5 E0.3375
G1 F1500.0 X-79.453125 Y-51.328125 Z0.5 E0.266817177577
G1 F1500.0 X-79.453125 Y-52.734375 Z0.5 E0.16875
G1 F1500.0 X-80.859375 Y-52.734375 Z0.5 E0.16875
G1 F1500.0 X-80.859375 Y-51.328125 Z0.5 E0.16875
G1 F1500.0 X-82.265625 Y-51.328125 Z0.5 E0.16875
G1 F1500.0 X-83.671875 Y-51.328125 Z0.5 E0.16875
G1 F1500.0 X-83.671875 Y-52.734375 Z0.5 E0.16875
G1 F1500.0 X-82.265625 Y-52.734375 Z0.5 E0.16875
G1 F1500.0 X-82.265625 Y-54.140625 Z0.5 E0.16875
G1 F1500.0 X-83.671875 Y-54.140625 Z0.5 E0.16875
G1 F1500.0 X-83.671875 Y-55.546875 Z0.5 E0.16875
G1 F1500.0 X-82.265625 Y-55.546875 Z0.5 E0.16875
G1 F1500.0 X-80.859375 Y-55.546875 Z0.5 E0.16875
G1 F1500.0 X-80.859375 Y-54.140625 Z0.5 E0.16875
G1 F1500.0 X-79.453125 Y-54.140625 Z0.5 E0.16875
G1 F1500.0 X-79.453125 Y-55.546875 Z0.5 E0.16875
G1 F1500.0 X-78.3984375 Y-55.8984375 Z0.5 E0.133408588788
G1 F1500.0 X-77.6953125 Y-55.8984375 Z0.5 E0.084375
G1 F1500.0 X-77.6953125 Y-55.1953125 Z0.5 E0.084375
G1 F1500.0 X-78.3984375 Y-55.1953125 Z0.5 E0.084375
G1 F1500.0 X-78.3984375 Y-54.4921875 Z0.5 E0.084375
G1 F1500.0 X-78.3984375 Y-53.7890625 Z0.5 E0.084375
G1 F1500.0 X-77.6953125 Y-53.7890625 Z0.5 E0.084375
G1 F1500.0 X-77.6953125 Y-54.4921875 Z0.5 E0.084375
G1 F1500.0 X-76.9921875 Y-54.4921875 Z0.5 E0.084375
G1 F1500.0 X-76.9921875 Y-53.7890625 Z0.5 E0.084375
G1 F1500.0 X-76.2890625 Y-53.7890625 Z0.5 E0.084375
G1 F1500.0 X-76.2890625 Y-54.4921875 Z0.5 E0.084375
G1 F1500.0 X-76.2890625 Y-55.1953125 Z0.5 E0.084375
G1 F1500.0 X-76.9921875 Y-55.1953125 Z0.5 E0.084375
G1 F1500.0 X-76.9921875 Y-55.8984375 Z0.5 E0.084375
G1 F1500.0 X-76.2890625 Y-55.8984375 Z0.5 E0.084375
G1 F1500.0 X-75.5859375 Y-55.8984375 Z0.5 E0.084375
G1 F1500.0 X-75.5859375 Y-55.1953125 Z0.5 E0.084375
G1 F1500.0 X-74.8828125 Y-55.1953125 Z0.5 E0.084375
G1 F1500.0 X-74.8828125 Y-55.8984375 Z0.5 E0.084375
G1 F1500.0 X-74.1796875 Y-55.8984375 Z0.5 E0.084375
G1 F1500.0 X-73.4765625 Y-55.8984375 Z0.5 E0.084375
G1 F1500.0 X-73.4765625 Y-55.1953125 Z0.5 E0.084375
G1 F1500.0 X-74.1796875 Y-55.1953125 Z0.5 E0.084375
G1 F1500.0 X-74.1796875 Y-54.4921875 Z0.5 E0.084375
G1 F1500.0 X-73.4765625 Y-54.4921875 Z0.5 E0.084375
G1 F1500.0 X-73.4765625 Y-53.7890625 Z0.5 E0.084375
G1 F1500.0 X-74.1796875 Y-53.7890625 Z0.5 E0.084375
G1 F1500.0 X-74.8828125 Y-53.7890625 Z0.5 E0.084375
G1 F1500.0 X-74.8828125 Y-54.4921875 Z0.5 E0.084375
G1 F1500.0 X-75.5859375 Y-54.4921875 Z0.5 E0.084375
G1 F1500.0 X-75.5859375 Y-53.7890625 Z0.5 E0.084375
G1 F1500.0 X-75.5859375 Y-53.0859375 Z0.5 E0.084375
G1 F1500.0 X-75.5859375 Y-52.3828125 Z0.5 E0.084375
G1 F1500.0 X-74.8828125 Y-52.3828125 Z0.5 E0.084375
G1 F1500.0 X-74.8828125 Y-53.0859375 Z0.5 E0.084375
G1 F1500.0 X-74.1796875 Y-53.0859375 Z0.5 E0.084375
G1 F1500.0 X-73.4765625 Y-53.0859375 Z0.5 E0.084375
G1 F1500.0 X-73.4765625 Y-52.3828125 Z0.5 E0.084375
G1 F1500.0 X-74.1796875 Y-52.3828125 Z0.5 E0.084375
G1 F1500.0 X-74.1796875 Y-51.6796875 Z0.5 E0.084375
G1 F1500.0 X-73.4765625 Y-51.6796875 Z0.5 E0.084375
G1 F1500.0 X-73.4765625 Y-50.9765625 Z0.5 E0.084375
G1 F1500.0 X-74.1796875 Y-50.9765625 Z0.5 E0.084375
G1 F1500.0 X-74.8828125 Y-50.9765625 Z0.5 E0.084375
G1 F1500.0 X-74.8828125 Y-51.6796875 Z0.5 E0.084375
G1 F1500.0 X-75.5859375 Y-51.6796875 Z0.5 E0.084375
G1 F1500.0 X-75.5859375 Y-50.9765625 Z0.5 E0.084375
G1 F1500.0 X-76.2890625 Y-50.9765625 Z0.5 E0.084375
G1 F1500.0 X-76.9921875 Y-50.9765625 Z0.5 E0.084375
G1 F1500.0 X-76.9921875 Y-51.6796875 Z0.5 E0.084375
G1 F1500.0 X-76.2890625 Y-51.6796875 Z0.5 E0.084375
G1 F1500.0 X-76.2890625 Y-52.3828125 Z0.5 E0.084375
G1 F1500.0 X-76.2890625 Y-53.0859375 Z0.5 E0.084375
G1 F1500.0 X-76.9921875 Y-53.0859375 Z0.5 E0.084375
G1 F1500.0 X-76.9921875 Y-52.3828125 Z0.5 E0.084375
G1 F1500.0 X-77.6953125 Y-52.3828125 Z0.5 E0.084375
G1 F1500.0 X-77.6953125 Y-53.0859375 Z0.5 E0.084375
G1 F1500.0 X-78.3984375 Y-53.0859375 Z0.5 E0.084375
G1 F1500.0 X-78.3984375 Y-52.3828125 Z0.5 E0.084375
G1 F1500.0 X-78.3984375 Y-51.6796875 Z0.5 E0.084375
G1 F1500.0 X-77.6953125 Y-51.6796875 Z0.5 E0.084375
G1 F1500.0 X-77.6953125 Y-50.9765625 Z0.5 E0.084375
G1 F1500.0 X-78.3984375 Y-50.9765625 Z0.5 E0.084375
G1 F1500.0 X-78.046875 Y-49.921875 Z0.5 E0.133408588788
G1 F1500.0 X-76.640625 Y-49.921875 Z0.5 E0.16875
G1 F1500.0 X-76.640625 Y-48.515625 Z0.5 E0.16875
G1 F1500.0 X-78.046875 Y-48.515625 Z0.5 E0.16875
G1 F1500.0 X-78.046875 Y-47.109375 Z0.5 E0.16875
G1 F1500.0 X-78.046875 Y-45.703125 Z0.5 E0.16875
G1 F1500.0 X-76.640625 Y-45.703125 Z0.5 E0.16875
G1 F1500.0 X-76.640625 Y-47.109375 Z0.5 E0.16875
G1 F1500.0 X-75.234375 Y-47.109375 Z0.5 E0.16875
G1 F1500.0 X-75.234375 Y-45.703125 Z0.5 E0.16875
G1 F1500.0 X-73.828125 Y-45.703125 Z0.5 E0.16875
G1 F1500.0 X-73.828125 Y-47.109375 Z0.5 E0.16875
G1 F1500.0 X-73.4765625 Y-48.1640625 Z0.5 E0.133408588788
G1 F1500.0 X-73.4765625 Y-48.8671875 Z0.5 E0.084375
G1 F1500.0 X-74.1796875 Y-48.8671875 Z0.5 E0.084375
G1 F1500.0 X-74.1796875 Y-48.1640625 Z0.5 E0.084375
G1 F1500.0 X-74.8828125 Y-48.1640625 Z0.5 E0.084375
G1 F1500.0 X-75.5859375 Y-48.1640625 Z0.5 E0.084375
G1 F1500.0 X-75.5859375 Y-48.8671875 Z0.5 E0.084375
G1 F1500.0 X-74.8828125 Y-48.8671875 Z0.5 E0.084375
G1 F1500.0 X-74.8828125 Y-49.5703125 Z0.5 E0.084375
G1 F1500.0 X-75.5859375 Y-49.5703125 Z0.5 E0.084375
G1 F1500.0 X-75.5859375 Y-50.2734375 Z0.5 E0.084375
G1 F1500.0 X-74.8828125 Y-50.2734375 Z0.5 E0.084375
G1 F1500.0 X-74.1796875 Y-50.2734375 Z0.5 E0.084375
G1 F1500.0 X-74.1796875 Y-49.5703125 Z0.5 E0.084375
G1 F1500.0 X-73.4765625 Y-49.5703125 Z0.5 E0.084375
G1 F1500.0 X-73.4765625 Y-50.2734375 Z0.5 E0.084375
G1 F1500.0 X-72.7734375 Y-50.2734375 Z0.5 E0.084375
G1 F1500.0 X-72.7734375 Y-49.5703125 Z0.5 E0.084375
G1 F1500.0 X-72.0703125 Y-49.5703125 Z0.5 E0.084375
G1 F1500.0 X-72.0703125 Y-50.2734375 Z0.5 E0.084375
G1 F1500.0 X-71.3671875 Y-50.2734375 Z0.5 E0.084375
G1 F1500.0 X-70.6640625 Y-50.2734375 Z0.5 E0.084375
G1 F1500.0 X-70.6640625 Y-49.5703125 Z0.5 E0.084375
G1 F1500.0 X-71.3671875 Y-49.5703125 Z0.5 E0.084375
G1 F1500.0 X-71.3671875 Y-48.8671875 Z0.5 E0.084375
G1 F1500.0 X-70.6640625 Y-48.8671875 Z0.5 E0.084375
G1 F1500.0 X-70.6640625 Y-48.1640625 Z0.5 E0.084375
G1 F1500.0 X-71.3671875 Y-48.1640625 Z0.5 E0.084375
G1 F1500.0 X-72.0703125 Y-48.1640625 Z0.5 E0.084375
G1 F1500.0 X-72.0703125 Y-48.8671875 Z0.5 E0.084375
G1 F1500.0 X-72.7734375 Y-48.8671875 Z0.5 E0.084375
G1 F1500.0 X-72.7734375 Y-48.1640625 Z0.5 E0.084375
G1 F1500.0 X-72.7734375 Y-47.4609375 Z0.5 E0.084375
G1 F1500.0 X-72.0703125 Y-47.4609375 Z0.5 E0.084375
G1 F1500.0 X-72.0703125 Y-46.7578125 Z0.5 E0.084375
G1 F1500.0 X-72.7734375 Y-46.7578125 Z0.5 E0.084375
G1 F1500.0 X-72.7734375 Y-46.0546875 Z0.5 E0.084375
G1 F1500.0 X-72.7734375 Y-45.3515625 Z0.5 E0.084375
G1 F1500.0 X-72.0703125 Y-45.3515625 Z0.5 E0.084375
G1 F1500.0 X-72.0703125 Y-46.0546875 Z0.5 E0.084375
G1 F1500.0 X-71.3671875 Y-46.0546875 Z0.5 E0.084375
G1 F1500.0 X-71.3671875 Y-45.3515625 Z0.5 E0.084375
G1 F1500.0 X-70.6640625 Y-45.3515625 Z0.5 E0.084375
G1 F1500.0 X-70.6640625 Y-46.0546875 Z0.5 E0.084375
G1 F1500.0 X-70.6640625 Y-46.7578125 Z0.5 E0.084375
G1 F1500.0 X-71.3671875 Y-46.7578125 Z0.5 E0.084375
G1 F1500.0 X-71.3671875 Y-47.4609375 Z0.5 E0.084375
G1 F1500.0 X-70.6640625 Y-47.4609375 Z0.5 E0.084375
G1 F1500.0 X-69.9609375 Y-47.4609375 Z0.5 E0.084375
G1 F1500.0 X-69.2578125 Y-47.4609375 Z0.5 E0.084375
G1 F1500.0 X-69.2578125 Y-46.7578125 Z0.5 E0.084375
G1 F1500.0 X-69.9609375 Y-46.7578125 Z0.5 E0.084375
G1 F1500.0 X-69.9609375 Y-46.0546875 Z0.5 E0.084375
G1 F1500.0 X-69.9609375 Y-45.3515625 Z0.5 E0.084375
G1 F1500.0 X-69.2578125 Y-45.3515625 Z0.5 E0.084375
G1 F1500.0 X-69.2578125 Y-46.0546875 Z0.5 E0.084375
G1 F1500.0 X-68.5546875 Y-46.0546875 Z0.5 E0.084375
G1 F1500.0 X-68.5546875 Y-45.3515625 Z0.5 E0.084375
G1 F1500.0 X-67.8515625 Y-45.3515625 Z0.5 E0.084375
G1 F1500.0 X-67.8515625 Y-46.0546875 Z0.5 E0.084375
G1 F1500.0 X-67.8515625 Y-46.7578125 Z0.5 E0.084375
G1 F1500.0 X-68.5546875 Y-46.7578125 Z0.5 E0.084375
G1 F1500.0 X-68.5546875 Y-47.4609375 Z0.5 E0.084375
G1 F1500.0 X-67.8515625 Y-47.4609375 Z0.5 E0.084375
G1 F1500.0 X-68.203125 Y-48.515625 Z0.5 E0.133408588788
G1 F1500.0 X-69.609375 Y-48.515625 Z0.5 E0.16875
G1 F1500.0 X-69.609375 Y-49.921875 Z0.5 E0.16875
G1 F1500.0 X-68.203125 Y-49.921875 Z0.5 E0.16875
G1 F1500.0 X-68.203125 Y-51.328125 Z0.5 E0.16875
G1 F1500.0 X-68.203125 Y-52.734375 Z0.5 E0.16875
G1 F1500.0 X-69.609375 Y-52.734375 Z0.5 E0.16875
G1 F1500.0 X-69.609375 Y-51.328125 Z0.5 E0.16875
G1 F1500.0 X-70.6640625 Y-50.9765625 Z0.5 E0.133408588788
G1 F1500.0 X-70.6640625 Y-51.6796875 Z0.5 E0.084375
G1 F1500.0 X-71.3671875 Y-51.6796875 Z0.5 E0.084375
G1 F1500.0 X-71.3671875 Y-50.9765625 Z0.5 E0.084375
G1 F1500.0 X-72.0703125 Y-50.9765625 Z0.5 E0.084375
G1 F1500.0 X-72.7734375 Y-50.9765625 Z0.5 E0.084375
G1 F1500.0 X-72.7734375 Y-51.6796875 Z0.5 E0.084375
G1 F1500.0 X-72.0703125 Y-51.6796875 Z0.5 E0.084375
G1 F1500.0 X-72.0703125 Y-52.3828125 Z0.5 E0.084375
G1 F1500.0 X-72.7734375 Y-52.3828125 Z0.5 E0.084375
G1 F1500.0 X-72.7734375 Y-53.0859375 Z0.5 E0.084375
G1 F1500.0 X-72.0703125 Y-53.0859375 Z0.5 E0.084375
G1 F1500.0 X-71.3671875 Y-53.0859375 Z0.5 E0.084375
G1 F1500.0 X-71.3671875 Y-52.3828125 Z0.5 E0.084375
G1 F1500.0 X-70.6640625 Y-52.3828125 Z0.5 E0.084375
G1 F1500.0 X-70.6640625 Y-53.0859375 Z0.5 E0.084375
G1 F1500.0 X-70.6640625 Y-53.7890625 Z0.5 E0.084375
G1 F1500.0 X-70.6640625 Y-54.4921875 Z0.5 E0.084375
G1 F1500.0 X-71.3671875 Y-54.4921875 Z0.5 E0.084375
G1 F1500.0 X-71.3671875 Y-53.7890625 Z0.5 E0.084375
G1 F1500.0 X-72.0703125 Y-53.7890625 Z0.5 E0.084375
G1 F1500.0 X-72.7734375 Y-53.7890625 Z0.5 E0.084375
G1 F1500.0 X-72.7734375 Y-54.4921875 Z0.5 E0.084375
G1 F1500.0 X-72.0703125 Y-54.4921875 Z0.5 E0.084375
G1 F1500.0 X-72.0703125 Y-55.1953125 Z0.5 E0.084375
G1 F1500.0 X-72.7734375 Y-55.1953125 Z0.5 E0.084375
G1 F1500.0 X-72.7734375 Y-55.8984375 Z0.5 E0.084375
G1 F1500.0 X-72.0703125 Y-55.8984375 Z0.5 E0.084375
G1 F1500.0 X-71.3671875 Y-55.8984375 Z0.5 E0.084375
G1 F1500.0 X-71.3671875 Y-55.1953125 Z0.5 E0.084375
G1 F1500.0 X-70.6640625 Y-55.1953125 Z0.5 E0.084375
G1 F1500.0 X-70.6640625 Y-55.8984375 Z0.5 E0.084375
G1 F1500.0 X-69.609375 Y-55.546875 Z0.5 E0.133408588788
G1 F1500.0 X-69.609375 Y-54.140625 Z0.5 E0.16875
G1 F1500.0 X-68.203125 Y-54.140625 Z0.5 E0.16875
G1 F1500.0 X-68.203125 Y-55.546875 Z0.5 E0.16875
G1 F1500.0 X-68.203125 Y-56.953125 Z0.5 E0.16875
G1 F1500.0 X-69.609375 Y-56.953125 Z0.5 E0.16875
G1 F1500.0 X-69.609375 Y-58.359375 Z0.5 E0.16875
G1 F1500.0 X-68.203125 Y-58.359375 Z0.5 E0.16875
G1 F1500.0 X-67.8515625 Y-59.4140625 Z0.5 E0.133408588788
G1 F1500.0 X-68.5546875 Y-59.4140625 Z0.5 E0.084375
G1 F1500.0 X-68.5546875 Y-60.1171875 Z0.5 E0.084375
G1 F1500.0 X-67.8515625 Y-60.1171875 Z0.5 E0.084375
G1 F1500.0 X-67.8515625 Y-60.8203125 Z0.5 E0.084375
G1 F1500.0 X-67.8515625 Y-61.5234375 Z0.5 E0.084375
G1 F1500.0 X-68.5546875 Y-61.5234375 Z0.5 E0.084375
G1 F1500.0 X-68.5546875 Y-60.8203125 Z0.5 E0.084375
G1 F1500.0 X-69.2578125 Y-60.8203125 Z0.5 E0.084375
G1 F1500.0 X-69.2578125 Y-61.5234375 Z0.5 E0.084375
G1 F1500.0 X-69.9609375 Y-61.5234375 Z0.5 E0.084375
G1 F1500.0 X-69.9609375 Y-60.8203125 Z0.5 E0.084375
G1 F1500.0 X-69.9609375 Y-60.1171875 Z0.5 E0.084375
G1 F1500.0 X-69.2578125 Y-60.1171875 Z0.5 E0.084375
G1 F1500.0 X-69.2578125 Y-59.4140625 Z0.5 E0.084375
G1 F1500.0 X-69.9609375 Y-59.4140625 Z0.5 E0.084375
G1 F1500.0 X-70.6640625 Y-59.4140625 Z0.5 E0.084375
G1 F1500.0 X-71.3671875 Y-59.4140625 Z0.5 E0.084375
G1 F1500.0 X-71.3671875 Y-60.1171875 Z0.5 E0.084375
G1 F1500.0 X-70.6640625 Y-60.1171875 Z0.5 E0.084375
G1 F1500.0 X-70.6640625 Y-60.8203125 Z0.5 E0.084375
G1 F1500.0 X-70.6640625 Y-61.5234375 Z0.5 E0.084375
G1 F1500.0 X-71.3671875 Y-61.5234375 Z0.5 E0.084375
G1 F1500.0 X-71.3671875 Y-60.8203125 Z0.5 E0.084375
G1 F1500.0 X-72.0703125 Y-60.8203125 Z0.5 E0.084375
G1 F1500.0 X-72.0703125 Y-61.5234375 Z0.5 E0.084375
G1 F1500.0 X-72.7734375 Y-61.5234375 Z0.5 E0.084375
G1 F1500.0 X-72.7734375 Y-60.8203125 Z0.5 E0.084375
G1 F1500.0 X-72.7734375 Y-60.1171875 Z0.5 E0.084375
G1 F1500.0 X-72.0703125 Y-60.1171875 Z0.5 E0.084375
