;_project: : hilbert_TPMS
;_project_by: : WenqianYang, JonasWard
;_project_gcode_generator_by: : JonasWard
;library_path : /Users/jonas/Documents/HilbertAndCo/src/spacemapping_curve
;path_length : 114963.299011
;pattern_edge_easing : True
;pattern_edge_easing_end : 10.0
;pattern_edge_easing_zero : 0.0
;pattern_periodic : False
;pattern_random_dots : True
;pattern_random_seed : 100
;pattern_split : True
;pattern_type : ellipsoid_bump_map
;pattern_type_ellipsoid_bump_map_direction : False
;pattern_type_ellipsoid_bump_map_radius : 6.5
;pattern_type_ellipsoid_bump_map_spacing : 30.0
;pattern_type_ellipsoid_bump_map_val : 1.0
;pattern_y_scale_factor : 0.5
;shell_count : 1
;shell_direction : outside
;shell_spacing : 1.6
;shell_split_distance : 1.6
;shell_split_type : detached
/Users/jonas/Documents/HilbertAndCo/src/spacemapping_curve/gcode/GCodeDefinitions/startGcode.txt
/Users/jonas/Documents/HilbertAndCo/src/spacemapping_curve/gcode/GCodeDefinitions/endGcode.txt
;Sliced by ideaMaker 3.3.0.2343, 2020-02-08 22:55:15 UTC+0100
;Dimension: 250.000 210.000 210.000 0.400
;Plate Shape: 0
;Extruder Offset #1: 25.000 0.000
;Filament Diameter #1: 1.750
;Filament Diameter #2: 1.750
;Filament Compensation #1: 94.00
;Filament Compensation #2: 94.00
;Filament Density #1: 1240.00
;Filament Density #2: 1240.00
;Model Gap: 0.200
M221 T0 S94.00
M140 S60.00
M104 T0 S205.00
M109 T0 S205.00
T0
M190 S60.00
M115 U3.1.0 ; tell printer latest fw version
M83  ; extruder relative mode
M104 S205 ; set extruder temp
M140 S60 ; set bed temp
M190 S60 ; wait for bed temp
M109 S205 ; wait for extruder temp
G28 W ; home all without mesh bed level
G80 ; mesh bed leveling
G1 Y-3.0 F1000.0 ; go outside print area
G92 E0.0
G1 X60.0 E9.0  F1000.0 ; intro line
G1 X100.0 E12.5  F1000.0 ; intro line
G92 E0.0
M83
M1001
M106 S0
;LAYER:-2
;Z:0.500
;HEIGHT:0.500
G0 F6000 X93.481 Y70.719
G0 F1500 Z0.500
;TYPE:RAFT
;WIDTH:0.800
G1 F1500.0 X12.8125 Y12.8125 Z0.5
G1 X12.8125 Y18.4375 Z0.5 E0.675
G1 F1500.0 X18.4375 Y18.4375 Z0.5 E0.675
G1 F1500.0 X18.4375 Y12.8125 Z0.5 E0.675
G1 F1500.0 X24.0625 Y12.8125 Z0.5 E0.675
G1 F1500.0 X29.6875 Y12.8125 Z0.5 E0.675
G1 F1500.0 X29.6875 Y18.4375 Z0.5 E0.675
G1 F1500.0 X24.0625 Y18.4375 Z0.5 E0.675
G1 F1500.0 X24.0625 Y24.0625 Z0.5 E0.675
G1 F1500.0 X29.6875 Y24.0625 Z0.5 E0.675
G1 F1500.0 X29.6875 Y29.6875 Z0.5 E0.675
G1 F1500.0 X24.0625 Y29.6875 Z0.5 E0.675
G1 F1500.0 X18.4375 Y29.6875 Z0.5 E0.675
G1 F1500.0 X18.4375 Y24.0625 Z0.5 E0.675
G1 F1500.0 X12.8125 Y24.0625 Z0.5 E0.675
G1 F1500.0 X12.8125 Y29.6875 Z0.5 E0.675
G1 F1500.0 X11.40625 Y33.90625 Z0.5 E0.533634355153
G1 F1500.0 X11.40625 Y36.71875 Z0.5 E0.3375
G1 F1500.0 X14.21875 Y36.71875 Z0.5 E0.3375
G1 F1500.0 X14.21875 Y33.90625 Z0.5 E0.3375
G1 F1500.0 X17.03125 Y33.90625 Z0.5 E0.3375
G1 F1500.0 X19.84375 Y33.90625 Z0.5 E0.3375
G1 F1500.0 X19.84375 Y36.71875 Z0.5 E0.3375
G1 F1500.0 X17.03125 Y36.71875 Z0.5 E0.3375
G1 F1500.0 X17.03125 Y39.53125 Z0.5 E0.3375
G1 F1500.0 X19.84375 Y39.53125 Z0.5 E0.3375
G1 F1500.0 X19.84375 Y42.34375 Z0.5 E0.3375
G1 F1500.0 X17.03125 Y42.34375 Z0.5 E0.3375
G1 F1500.0 X14.21875 Y42.34375 Z0.5 E0.3375
G1 F1500.0 X14.21875 Y39.53125 Z0.5 E0.3375
G1 F1500.0 X11.40625 Y39.53125 Z0.5 E0.3375
G1 F1500.0 X11.40625 Y42.34375 Z0.5 E0.3375
G1 F1500.0 X11.40625 Y45.15625 Z0.5 E0.3375
G1 F1500.0 X14.21875 Y45.15625 Z0.5 E0.3375
G1 F1500.0 X14.21875 Y47.96875 Z0.5 E0.3375
G1 F1500.0 X11.40625 Y47.96875 Z0.5 E0.3375
G1 F1500.0 X11.40625 Y50.78125 Z0.5 E0.3375
G1 F1500.0 X11.40625 Y53.59375 Z0.5 E0.3375
G1 F1500.0 X14.21875 Y53.59375 Z0.5 E0.3375
G1 F1500.0 X14.21875 Y50.78125 Z0.5 E0.3375
G1 F1500.0 X17.03125 Y50.78125 Z0.5 E0.3375
G1 F1500.0 X17.03125 Y53.59375 Z0.5 E0.3375
G1 F1500.0 X19.84375 Y53.59375 Z0.5 E0.3375
G1 F1500.0 X19.84375 Y50.78125 Z0.5 E0.3375
G1 F1500.0 X20.546875 Y48.671875 Z0.5 E0.266817177577
G1 F1500.0 X20.546875 Y47.265625 Z0.5 E0.16875
G1 F1500.0 X19.140625 Y47.265625 Z0.5 E0.16875
G1 F1500.0 X19.140625 Y48.671875 Z0.5 E0.16875
G1 F1500.0 X17.734375 Y48.671875 Z0.5 E0.16875
G1 F1500.0 X16.328125 Y48.671875 Z0.5 E0.16875
G1 F1500.0 X16.328125 Y47.265625 Z0.5 E0.16875
G1 F1500.0 X17.734375 Y47.265625 Z0.5 E0.16875
G1 F1500.0 X17.734375 Y45.859375 Z0.5 E0.16875
G1 F1500.0 X16.328125 Y45.859375 Z0.5 E0.16875
G1 F1500.0 X16.328125 Y44.453125 Z0.5 E0.16875
G1 F1500.0 X17.734375 Y44.453125 Z0.5 E0.16875
G1 F1500.0 X19.140625 Y44.453125 Z0.5 E0.16875
G1 F1500.0 X19.140625 Y45.859375 Z0.5 E0.16875
G1 F1500.0 X20.546875 Y45.859375 Z0.5 E0.16875
G1 F1500.0 X20.546875 Y44.453125 Z0.5 E0.16875
G1 F1500.0 X21.6015625 Y44.1015625 Z0.5 E0.133408588788
G1 F1500.0 X22.3046875 Y44.1015625 Z0.5 E0.084375
G1 F1500.0 X22.3046875 Y44.8046875 Z0.5 E0.084375
G1 F1500.0 X21.6015625 Y44.8046875 Z0.5 E0.084375
G1 F1500.0 X21.6015625 Y45.5078125 Z0.5 E0.084375
G1 F1500.0 X21.6015625 Y46.2109375 Z0.5 E0.084375
G1 F1500.0 X22.3046875 Y46.2109375 Z0.5 E0.084375
G1 F1500.0 X22.3046875 Y45.5078125 Z0.5 E0.084375
G1 F1500.0 X23.0078125 Y45.5078125 Z0.5 E0.084375
G1 F1500.0 X23.0078125 Y46.2109375 Z0.5 E0.084375
G1 F1500.0 X23.7109375 Y46.2109375 Z0.5 E0.084375
G1 F1500.0 X23.7109375 Y45.5078125 Z0.5 E0.084375
G1 F1500.0 X23.7109375 Y44.8046875 Z0.5 E0.084375
G1 F1500.0 X23.0078125 Y44.8046875 Z0.5 E0.084375
G1 F1500.0 X23.0078125 Y44.1015625 Z0.5 E0.084375
G1 F1500.0 X23.7109375 Y44.1015625 Z0.5 E0.084375
G1 F1500.0 X24.4140625 Y44.1015625 Z0.5 E0.084375
G1 F1500.0 X24.4140625 Y44.8046875 Z0.5 E0.084375
G1 F1500.0 X25.1171875 Y44.8046875 Z0.5 E0.084375
G1 F1500.0 X25.1171875 Y44.1015625 Z0.5 E0.084375
G1 F1500.0 X25.8203125 Y44.1015625 Z0.5 E0.084375
G1 F1500.0 X26.5234375 Y44.1015625 Z0.5 E0.084375
G1 F1500.0 X26.5234375 Y44.8046875 Z0.5 E0.084375
G1 F1500.0 X25.8203125 Y44.8046875 Z0.5 E0.084375
G1 F1500.0 X25.8203125 Y45.5078125 Z0.5 E0.084375
G1 F1500.0 X26.5234375 Y45.5078125 Z0.5 E0.084375
G1 F1500.0 X26.5234375 Y46.2109375 Z0.5 E0.084375
G1 F1500.0 X25.8203125 Y46.2109375 Z0.5 E0.084375
G1 F1500.0 X25.1171875 Y46.2109375 Z0.5 E0.084375
G1 F1500.0 X25.1171875 Y45.5078125 Z0.5 E0.084375
G1 F1500.0 X24.4140625 Y45.5078125 Z0.5 E0.084375
G1 F1500.0 X24.4140625 Y46.2109375 Z0.5 E0.084375
G1 F1500.0 X24.4140625 Y46.9140625 Z0.5 E0.084375
G1 F1500.0 X24.4140625 Y47.6171875 Z0.5 E0.084375
G1 F1500.0 X25.1171875 Y47.6171875 Z0.5 E0.084375
G1 F1500.0 X25.1171875 Y46.9140625 Z0.5 E0.084375
G1 F1500.0 X25.8203125 Y46.9140625 Z0.5 E0.084375
G1 F1500.0 X26.5234375 Y46.9140625 Z0.5 E0.084375
G1 F1500.0 X26.5234375 Y47.6171875 Z0.5 E0.084375
G1 F1500.0 X25.8203125 Y47.6171875 Z0.5 E0.084375
G1 F1500.0 X25.8203125 Y48.3203125 Z0.5 E0.084375
G1 F1500.0 X26.5234375 Y48.3203125 Z0.5 E0.084375
G1 F1500.0 X26.5234375 Y49.0234375 Z0.5 E0.084375
G1 F1500.0 X25.8203125 Y49.0234375 Z0.5 E0.084375
G1 F1500.0 X25.1171875 Y49.0234375 Z0.5 E0.084375
G1 F1500.0 X25.1171875 Y48.3203125 Z0.5 E0.084375
G1 F1500.0 X24.4140625 Y48.3203125 Z0.5 E0.084375
G1 F1500.0 X24.4140625 Y49.0234375 Z0.5 E0.084375
G1 F1500.0 X23.7109375 Y49.0234375 Z0.5 E0.084375
G1 F1500.0 X23.0078125 Y49.0234375 Z0.5 E0.084375
G1 F1500.0 X23.0078125 Y48.3203125 Z0.5 E0.084375
G1 F1500.0 X23.7109375 Y48.3203125 Z0.5 E0.084375
G1 F1500.0 X23.7109375 Y47.6171875 Z0.5 E0.084375
G1 F1500.0 X23.7109375 Y46.9140625 Z0.5 E0.084375
G1 F1500.0 X23.0078125 Y46.9140625 Z0.5 E0.084375
G1 F1500.0 X23.0078125 Y47.6171875 Z0.5 E0.084375
G1 F1500.0 X22.3046875 Y47.6171875 Z0.5 E0.084375
G1 F1500.0 X22.3046875 Y46.9140625 Z0.5 E0.084375
G1 F1500.0 X21.6015625 Y46.9140625 Z0.5 E0.084375
G1 F1500.0 X21.6015625 Y47.6171875 Z0.5 E0.084375
G1 F1500.0 X21.6015625 Y48.3203125 Z0.5 E0.084375
G1 F1500.0 X22.3046875 Y48.3203125 Z0.5 E0.084375
G1 F1500.0 X22.3046875 Y49.0234375 Z0.5 E0.084375
G1 F1500.0 X21.6015625 Y49.0234375 Z0.5 E0.084375
G1 F1500.0 X21.953125 Y50.078125 Z0.5 E0.133408588788
G1 F1500.0 X23.359375 Y50.078125 Z0.5 E0.16875
G1 F1500.0 X23.359375 Y51.484375 Z0.5 E0.16875
G1 F1500.0 X21.953125 Y51.484375 Z0.5 E0.16875
G1 F1500.0 X21.953125 Y52.890625 Z0.5 E0.16875
G1 F1500.0 X21.953125 Y54.296875 Z0.5 E0.16875
G1 F1500.0 X23.359375 Y54.296875 Z0.5 E0.16875
G1 F1500.0 X23.359375 Y52.890625 Z0.5 E0.16875
G1 F1500.0 X24.765625 Y52.890625 Z0.5 E0.16875
G1 F1500.0 X24.765625 Y54.296875 Z0.5 E0.16875
G1 F1500.0 X26.171875 Y54.296875 Z0.5 E0.16875
G1 F1500.0 X26.171875 Y52.890625 Z0.5 E0.16875
G1 F1500.0 X26.5234375 Y51.8359375 Z0.5 E0.133408588788
G1 F1500.0 X26.5234375 Y51.1328125 Z0.5 E0.084375
G1 F1500.0 X25.8203125 Y51.1328125 Z0.5 E0.084375
G1 F1500.0 X25.8203125 Y51.8359375 Z0.5 E0.084375
G1 F1500.0 X25.1171875 Y51.8359375 Z0.5 E0.084375
G1 F1500.0 X24.4140625 Y51.8359375 Z0.5 E0.084375
G1 F1500.0 X24.4140625 Y51.1328125 Z0.5 E0.084375
G1 F1500.0 X25.1171875 Y51.1328125 Z0.5 E0.084375
G1 F1500.0 X25.1171875 Y50.4296875 Z0.5 E0.084375
G1 F1500.0 X24.4140625 Y50.4296875 Z0.5 E0.084375
G1 F1500.0 X24.4140625 Y49.7265625 Z0.5 E0.084375
G1 F1500.0 X25.1171875 Y49.7265625 Z0.5 E0.084375
G1 F1500.0 X25.8203125 Y49.7265625 Z0.5 E0.084375
G1 F1500.0 X25.8203125 Y50.4296875 Z0.5 E0.084375
G1 F1500.0 X26.5234375 Y50.4296875 Z0.5 E0.084375
G1 F1500.0 X26.5234375 Y49.7265625 Z0.5 E0.084375
G1 F1500.0 X27.2265625 Y49.7265625 Z0.5 E0.084375
G1 F1500.0 X27.2265625 Y50.4296875 Z0.5 E0.084375
G1 F1500.0 X27.9296875 Y50.4296875 Z0.5 E0.084375
G1 F1500.0 X27.9296875 Y49.7265625 Z0.5 E0.084375
G1 F1500.0 X28.6328125 Y49.7265625 Z0.5 E0.084375
G1 F1500.0 X29.3359375 Y49.7265625 Z0.5 E0.084375
G1 F1500.0 X29.3359375 Y50.4296875 Z0.5 E0.084375
G1 F1500.0 X28.6328125 Y50.4296875 Z0.5 E0.084375
G1 F1500.0 X28.6328125 Y51.1328125 Z0.5 E0.084375
G1 F1500.0 X29.3359375 Y51.1328125 Z0.5 E0.084375
G1 F1500.0 X29.3359375 Y51.8359375 Z0.5 E0.084375
G1 F1500.0 X28.6328125 Y51.8359375 Z0.5 E0.084375
G1 F1500.0 X27.9296875 Y51.8359375 Z0.5 E0.084375
G1 F1500.0 X27.9296875 Y51.1328125 Z0.5 E0.084375
G1 F1500.0 X27.2265625 Y51.1328125 Z0.5 E0.084375
G1 F1500.0 X27.2265625 Y51.8359375 Z0.5 E0.084375
G1 F1500.0 X27.2265625 Y52.5390625 Z0.5 E0.084375
G1 F1500.0 X27.9296875 Y52.5390625 Z0.5 E0.084375
G1 F1500.0 X27.9296875 Y53.2421875 Z0.5 E0.084375
G1 F1500.0 X27.2265625 Y53.2421875 Z0.5 E0.084375
G1 F1500.0 X27.2265625 Y53.9453125 Z0.5 E0.084375
G1 F1500.0 X27.2265625 Y54.6484375 Z0.5 E0.084375
G1 F1500.0 X27.9296875 Y54.6484375 Z0.5 E0.084375
G1 F1500.0 X27.9296875 Y53.9453125 Z0.5 E0.084375
G1 F1500.0 X28.6328125 Y53.9453125 Z0.5 E0.084375
G1 F1500.0 X28.6328125 Y54.6484375 Z0.5 E0.084375
G1 F1500.0 X29.3359375 Y54.6484375 Z0.5 E0.084375
G1 F1500.0 X29.3359375 Y53.9453125 Z0.5 E0.084375
G1 F1500.0 X29.3359375 Y53.2421875 Z0.5 E0.084375
G1 F1500.0 X28.6328125 Y53.2421875 Z0.5 E0.084375
G1 F1500.0 X28.6328125 Y52.5390625 Z0.5 E0.084375
G1 F1500.0 X29.3359375 Y52.5390625 Z0.5 E0.084375
G1 F1500.0 X30.0390625 Y52.5390625 Z0.5 E0.084375
G1 F1500.0 X30.7421875 Y52.5390625 Z0.5 E0.084375
G1 F1500.0 X30.7421875 Y53.2421875 Z0.5 E0.084375
G1 F1500.0 X30.0390625 Y53.2421875 Z0.5 E0.084375
G1 F1500.0 X30.0390625 Y53.9453125 Z0.5 E0.084375
G1 F1500.0 X30.0390625 Y54.6484375 Z0.5 E0.084375
G1 F1500.0 X30.7421875 Y54.6484375 Z0.5 E0.084375
G1 F1500.0 X30.7421875 Y53.9453125 Z0.5 E0.084375
G1 F1500.0 X31.4453125 Y53.9453125 Z0.5 E0.084375
G1 F1500.0 X31.4453125 Y54.6484375 Z0.5 E0.084375
G1 F1500.0 X32.1484375 Y54.6484375 Z0.5 E0.084375
G1 F1500.0 X32.1484375 Y53.9453125 Z0.5 E0.084375
G1 F1500.0 X32.1484375 Y53.2421875 Z0.5 E0.084375
G1 F1500.0 X31.4453125 Y53.2421875 Z0.5 E0.084375
G1 F1500.0 X31.4453125 Y52.5390625 Z0.5 E0.084375
G1 F1500.0 X32.1484375 Y52.5390625 Z0.5 E0.084375
G1 F1500.0 X31.796875 Y51.484375 Z0.5 E0.133408588788
G1 F1500.0 X30.390625 Y51.484375 Z0.5 E0.16875
G1 F1500.0 X30.390625 Y50.078125 Z0.5 E0.16875
G1 F1500.0 X31.796875 Y50.078125 Z0.5 E0.16875
G1 F1500.0 X31.796875 Y48.671875 Z0.5 E0.16875
G1 F1500.0 X31.796875 Y47.265625 Z0.5 E0.16875
G1 F1500.0 X30.390625 Y47.265625 Z0.5 E0.16875
G1 F1500.0 X30.390625 Y48.671875 Z0.5 E0.16875
G1 F1500.0 X29.3359375 Y49.0234375 Z0.5 E0.133408588788
G1 F1500.0 X29.3359375 Y48.3203125 Z0.5 E0.084375
G1 F1500.0 X28.6328125 Y48.3203125 Z0.5 E0.084375
G1 F1500.0 X28.6328125 Y49.0234375 Z0.5 E0.084375
G1 F1500.0 X27.9296875 Y49.0234375 Z0.5 E0.084375
G1 F1500.0 X27.2265625 Y49.0234375 Z0.5 E0.084375
G1 F1500.0 X27.2265625 Y48.3203125 Z0.5 E0.084375
G1 F1500.0 X27.9296875 Y48.3203125 Z0.5 E0.084375
G1 F1500.0 X27.9296875 Y47.6171875 Z0.5 E0.084375
G1 F1500.0 X27.2265625 Y47.6171875 Z0.5 E0.084375
G1 F1500.0 X27.2265625 Y46.9140625 Z0.5 E0.084375
G1 F1500.0 X27.9296875 Y46.9140625 Z0.5 E0.084375
G1 F1500.0 X28.6328125 Y46.9140625 Z0.5 E0.084375
G1 F1500.0 X28.6328125 Y47.6171875 Z0.5 E0.084375
G1 F1500.0 X29.3359375 Y47.6171875 Z0.5 E0.084375
G1 F1500.0 X29.3359375 Y46.9140625 Z0.5 E0.084375
G1 F1500.0 X29.3359375 Y46.2109375 Z0.5 E0.084375
G1 F1500.0 X29.3359375 Y45.5078125 Z0.5 E0.084375
G1 F1500.0 X28.6328125 Y45.5078125 Z0.5 E0.084375
G1 F1500.0 X28.6328125 Y46.2109375 Z0.5 E0.084375
G1 F1500.0 X27.9296875 Y46.2109375 Z0.5 E0.084375
G1 F1500.0 X27.2265625 Y46.2109375 Z0.5 E0.084375
G1 F1500.0 X27.2265625 Y45.5078125 Z0.5 E0.084375
G1 F1500.0 X27.9296875 Y45.5078125 Z0.5 E0.084375
G1 F1500.0 X27.9296875 Y44.8046875 Z0.5 E0.084375
G1 F1500.0 X27.2265625 Y44.8046875 Z0.5 E0.084375
G1 F1500.0 X27.2265625 Y44.1015625 Z0.5 E0.084375
G1 F1500.0 X27.9296875 Y44.1015625 Z0.5 E0.084375
G1 F1500.0 X28.6328125 Y44.1015625 Z0.5 E0.084375
G1 F1500.0 X28.6328125 Y44.8046875 Z0.5 E0.084375
G1 F1500.0 X29.3359375 Y44.8046875 Z0.5 E0.084375
G1 F1500.0 X29.3359375 Y44.1015625 Z0.5 E0.084375
G1 F1500.0 X30.390625 Y44.453125 Z0.5 E0.133408588788
G1 F1500.0 X30.390625 Y45.859375 Z0.5 E0.16875
G1 F1500.0 X31.796875 Y45.859375 Z0.5 E0.16875
G1 F1500.0 X31.796875 Y44.453125 Z0.5 E0.16875
G1 F1500.0 X31.796875 Y43.046875 Z0.5 E0.16875
G1 F1500.0 X30.390625 Y43.046875 Z0.5 E0.16875
G1 F1500.0 X30.390625 Y41.640625 Z0.5 E0.16875
G1 F1500.0 X31.796875 Y41.640625 Z0.5 E0.16875
G1 F1500.0 X32.1484375 Y40.5859375 Z0.5 E0.133408588788
G1 F1500.0 X31.4453125 Y40.5859375 Z0.5 E0.084375
G1 F1500.0 X31.4453125 Y39.8828125 Z0.5 E0.084375
G1 F1500.0 X32.1484375 Y39.8828125 Z0.5 E0.084375
G1 F1500.0 X32.1484375 Y39.1796875 Z0.5 E0.084375
G1 F1500.0 X32.1484375 Y38.4765625 Z0.5 E0.084375
G1 F1500.0 X31.4453125 Y38.4765625 Z0.5 E0.084375
G1 F1500.0 X31.4453125 Y39.1796875 Z0.5 E0.084375
G1 F1500.0 X30.7421875 Y39.1796875 Z0.5 E0.084375
G1 F1500.0 X30.7421875 Y38.4765625 Z0.5 E0.084375
G1 F1500.0 X30.0390625 Y38.4765625 Z0.5 E0.084375
G1 F1500.0 X30.0390625 Y39.1796875 Z0.5 E0.084375
G1 F1500.0 X30.0390625 Y39.8828125 Z0.5 E0.084375
G1 F1500.0 X30.7421875 Y39.8828125 Z0.5 E0.084375
G1 F1500.0 X30.7421875 Y40.5859375 Z0.5 E0.084375
G1 F1500.0 X30.0390625 Y40.5859375 Z0.5 E0.084375
G1 F1500.0 X29.3359375 Y40.5859375 Z0.5 E0.084375
G1 F1500.0 X28.6328125 Y40.5859375 Z0.5 E0.084375
G1 F1500.0 X28.6328125 Y39.8828125 Z0.5 E0.084375
G1 F1500.0 X29.3359375 Y39.8828125 Z0.5 E0.084375
G1 F1500.0 X29.3359375 Y39.1796875 Z0.5 E0.084375
G1 F1500.0 X29.3359375 Y38.4765625 Z0.5 E0.084375
G1 F1500.0 X28.6328125 Y38.4765625 Z0.5 E0.084375
G1 F1500.0 X28.6328125 Y39.1796875 Z0.5 E0.084375
G1 F1500.0 X27.9296875 Y39.1796875 Z0.5 E0.084375
G1 F1500.0 X27.9296875 Y38.4765625 Z0.5 E0.084375
G1 F1500.0 X27.2265625 Y38.4765625 Z0.5 E0.084375
G1 F1500.0 X27.2265625 Y39.1796875 Z0.5 E0.084375
G1 F1500.0 X27.2265625 Y39.8828125 Z0.5 E0.084375
G1 F1500.0 X27.9296875 Y39.8828125 Z0.5 E0.084375
G1 F1500.0 X27.9296875 Y40.5859375 Z0.5 E0.084375
G1 F1500.0 X27.2265625 Y40.5859375 Z0.5 E0.084375
G1 F1500.0 X27.2265625 Y41.2890625 Z0.5 E0.084375
G1 F1500.0 X27.2265625 Y41.9921875 Z0.5 E0.084375
G1 F1500.0 X27.9296875 Y41.9921875 Z0.5 E0.084375
G1 F1500.0 X27.9296875 Y41.2890625 Z0.5 E0.084375
G1 F1500.0 X28.6328125 Y41.2890625 Z0.5 E0.084375
G1 F1500.0 X29.3359375 Y41.2890625 Z0.5 E0.084375
G1 F1500.0 X29.3359375 Y41.9921875 Z0.5 E0.084375
G1 F1500.0 X28.6328125 Y41.9921875 Z0.5 E0.084375
G1 F1500.0 X28.6328125 Y42.6953125 Z0.5 E0.084375
