;_project: : hilbert_TPMS
;_project_by: : WenqianYang, JonasWard
;_project_gcode_generator_by: : JonasWard
;library_path : /Users/jonas/Documents/HilbertAndCo/src/spacemapping_curve
;path_length : 114963.299011
;pattern_edge_easing : True
;pattern_edge_easing_end : 10.0
;pattern_edge_easing_zero : 0.0
;pattern_periodic : False
;pattern_random_dots : True
;pattern_random_seed : 100
;pattern_split : True
;pattern_type : ellipsoid_bump_map
;pattern_type_ellipsoid_bump_map_direction : False
;pattern_type_ellipsoid_bump_map_radius : 6.5
;pattern_type_ellipsoid_bump_map_spacing : 30.0
;pattern_type_ellipsoid_bump_map_val : 1.0
;pattern_y_scale_factor : 0.5
;shell_count : 1
;shell_direction : outside
;shell_spacing : 1.6
;shell_split_distance : 1.6
;shell_split_type : detached
/Users/jonas/Documents/HilbertAndCo/src/spacemapping_curve/gcode/GCodeDefinitions/startGcode.txt
/Users/jonas/Documents/HilbertAndCo/src/spacemapping_curve/gcode/GCodeDefinitions/endGcode.txt
;Sliced by ideaMaker 3.3.0.2343, 2020-02-08 22:55:15 UTC+0100
;Dimension: 250.000 210.000 210.000 0.400
;Plate Shape: 0
;Extruder Offset #1: 25.000 0.000
;Filament Diameter #1: 1.750
;Filament Diameter #2: 1.750
;Filament Compensation #1: 94.00
;Filament Compensation #2: 94.00
;Filament Density #1: 1240.00
;Filament Density #2: 1240.00
;Model Gap: 0.200
M221 T0 S94.00
M140 S60.00
M104 T0 S205.00
M109 T0 S205.00
T0
M190 S60.00
M115 U3.1.0 ; tell printer latest fw version
M83  ; extruder relative mode
M104 S205 ; set extruder temp
M140 S60 ; set bed temp
M190 S60 ; wait for bed temp
M109 S205 ; wait for extruder temp
G28 W ; home all without mesh bed level
G80 ; mesh bed leveling
G1 Y-3.0 F1000.0 ; go outside print area
G92 E0.0
G1 X60.0 E9.0  F1000.0 ; intro line
G1 X100.0 E12.5  F1000.0 ; intro line
G92 E0.0
M83
M1001
M106 S0
;LAYER:-2
;Z:0.500
;HEIGHT:0.500
G0 F6000 X93.481 Y70.719
G0 F1500 Z0.500
;TYPE:RAFT
;WIDTH:0.800
G1 F1500.0 X21.25 Y21.25 Z1.4
G1 X21.25 Y43.75 Z1.4 E14.4
G1 F1500.0 X43.75 Y43.75 Z1.4 E14.4
G1 F1500.0 X43.75 Y21.25 Z1.4 E14.4
G1 F1500.0 X57.8125 Y12.8125 Z1.4 E10.4957134107
G1 F1500.0 X63.4375 Y12.8125 Z1.4 E3.6
G1 F1500.0 X63.4375 Y18.4375 Z1.4 E3.6
G1 F1500.0 X57.8125 Y18.4375 Z1.4 E3.6
G1 F1500.0 X57.8125 Y24.0625 Z1.4 E3.6
G1 F1500.0 X57.8125 Y29.6875 Z1.4 E3.6
G1 F1500.0 X63.4375 Y29.6875 Z1.4 E3.6
G1 F1500.0 X63.4375 Y24.0625 Z1.4 E3.6
G1 F1500.0 X69.0625 Y24.0625 Z1.4 E3.6
G1 F1500.0 X69.0625 Y29.6875 Z1.4 E3.6
G1 F1500.0 X74.6875 Y29.6875 Z1.4 E3.6
G1 F1500.0 X74.6875 Y24.0625 Z1.4 E3.6
G1 F1500.0 X74.6875 Y18.4375 Z1.4 E3.6
G1 F1500.0 X69.0625 Y18.4375 Z1.4 E3.6
G1 F1500.0 X69.0625 Y12.8125 Z1.4 E3.6
G1 F1500.0 X74.6875 Y12.8125 Z1.4 E3.6
G1 F1500.0 X83.125 Y15.625 Z1.4 E5.69209978830
G1 F1500.0 X94.375 Y15.625 Z1.4 E7.2
G1 F1500.0 X94.375 Y26.875 Z1.4 E7.2
G1 F1500.0 X83.125 Y26.875 Z1.4 E7.2
G1 F1500.0 X83.125 Y38.125 Z1.4 E7.2
G1 F1500.0 X94.375 Y38.125 Z1.4 E7.2
G1 F1500.0 X94.375 Y49.375 Z1.4 E7.2
G1 F1500.0 X83.125 Y49.375 Z1.4 E7.2
G1 F1500.0 X74.6875 Y52.1875 Z1.4 E5.69209978830
G1 F1500.0 X69.0625 Y52.1875 Z1.4 E3.6
G1 F1500.0 X69.0625 Y46.5625 Z1.4 E3.6
G1 F1500.0 X74.6875 Y46.5625 Z1.4 E3.6
G1 F1500.0 X74.6875 Y40.9375 Z1.4 E3.6
G1 F1500.0 X74.6875 Y35.3125 Z1.4 E3.6
G1 F1500.0 X69.0625 Y35.3125 Z1.4 E3.6
G1 F1500.0 X69.0625 Y40.9375 Z1.4 E3.6
G1 F1500.0 X63.4375 Y40.9375 Z1.4 E3.6
G1 F1500.0 X63.4375 Y35.3125 Z1.4 E3.6
G1 F1500.0 X57.8125 Y35.3125 Z1.4 E3.6
G1 F1500.0 X57.8125 Y40.9375 Z1.4 E3.6
G1 F1500.0 X57.8125 Y46.5625 Z1.4 E3.6
G1 F1500.0 X63.4375 Y46.5625 Z1.4 E3.6
G1 F1500.0 X63.4375 Y52.1875 Z1.4 E3.6
G1 F1500.0 X57.8125 Y52.1875 Z1.4 E3.6
G1 F1500.0 X57.8125 Y57.8125 Z1.4 E3.6
G1 F1500.0 X63.4375 Y57.8125 Z1.4 E3.6
G1 F1500.0 X63.4375 Y63.4375 Z1.4 E3.6
G1 F1500.0 X57.8125 Y63.4375 Z1.4 E3.6
G1 F1500.0 X57.8125 Y69.0625 Z1.4 E3.6
G1 F1500.0 X57.8125 Y74.6875 Z1.4 E3.6
G1 F1500.0 X63.4375 Y74.6875 Z1.4 E3.6
G1 F1500.0 X63.4375 Y69.0625 Z1.4 E3.6
G1 F1500.0 X69.0625 Y69.0625 Z1.4 E3.6
G1 F1500.0 X69.0625 Y74.6875 Z1.4 E3.6
G1 F1500.0 X74.6875 Y74.6875 Z1.4 E3.6
G1 F1500.0 X74.6875 Y69.0625 Z1.4 E3.6
G1 F1500.0 X74.6875 Y63.4375 Z1.4 E3.6
G1 F1500.0 X69.0625 Y63.4375 Z1.4 E3.6
G1 F1500.0 X69.0625 Y57.8125 Z1.4 E3.6
G1 F1500.0 X74.6875 Y57.8125 Z1.4 E3.6
G1 F1500.0 X83.125 Y60.625 Z1.4 E5.69209978830
G1 F1500.0 X94.375 Y60.625 Z1.4 E7.2
G1 F1500.0 X94.375 Y71.875 Z1.4 E7.2
G1 F1500.0 X83.125 Y71.875 Z1.4 E7.2
G1 F1500.0 X83.125 Y83.125 Z1.4 E7.2
G1 F1500.0 X94.375 Y83.125 Z1.4 E7.2
G1 F1500.0 X94.375 Y94.375 Z1.4 E7.2
G1 F1500.0 X83.125 Y94.375 Z1.4 E7.2
G1 F1500.0 X71.875 Y94.375 Z1.4 E7.2
G1 F1500.0 X71.875 Y83.125 Z1.4 E7.2
G1 F1500.0 X60.625 Y83.125 Z1.4 E7.2
G1 F1500.0 X60.625 Y94.375 Z1.4 E7.2
G1 F1500.0 X49.375 Y94.375 Z1.4 E7.2
G1 F1500.0 X38.125 Y94.375 Z1.4 E7.2
G1 F1500.0 X38.125 Y83.125 Z1.4 E7.2
G1 F1500.0 X49.375 Y83.125 Z1.4 E7.2
G1 F1500.0 X52.1875 Y74.6875 Z1.4 E5.69209978830
G1 F1500.0 X46.5625 Y74.6875 Z1.4 E3.6
G1 F1500.0 X46.5625 Y69.0625 Z1.4 E3.6
G1 F1500.0 X52.1875 Y69.0625 Z1.4 E3.6
G1 F1500.0 X52.1875 Y63.4375 Z1.4 E3.6
G1 F1500.0 X52.1875 Y57.8125 Z1.4 E3.6
G1 F1500.0 X46.5625 Y57.8125 Z1.4 E3.6
G1 F1500.0 X46.5625 Y63.4375 Z1.4 E3.6
G1 F1500.0 X40.9375 Y63.4375 Z1.4 E3.6
G1 F1500.0 X40.9375 Y57.8125 Z1.4 E3.6
G1 F1500.0 X35.3125 Y57.8125 Z1.4 E3.6
G1 F1500.0 X35.3125 Y63.4375 Z1.4 E3.6
G1 F1500.0 X35.3125 Y69.0625 Z1.4 E3.6
G1 F1500.0 X40.9375 Y69.0625 Z1.4 E3.6
G1 F1500.0 X40.9375 Y74.6875 Z1.4 E3.6
G1 F1500.0 X35.3125 Y74.6875 Z1.4 E3.6
G1 F1500.0 X29.6875 Y74.6875 Z1.4 E3.6
G1 F1500.0 X24.0625 Y74.6875 Z1.4 E3.6
G1 F1500.0 X24.0625 Y69.0625 Z1.4 E3.6
G1 F1500.0 X29.6875 Y69.0625 Z1.4 E3.6
G1 F1500.0 X29.6875 Y63.4375 Z1.4 E3.6
G1 F1500.0 X29.6875 Y57.8125 Z1.4 E3.6
G1 F1500.0 X24.0625 Y57.8125 Z1.4 E3.6
G1 F1500.0 X24.0625 Y63.4375 Z1.4 E3.6
G1 F1500.0 X18.4375 Y63.4375 Z1.4 E3.6
G1 F1500.0 X18.4375 Y57.8125 Z1.4 E3.6
G1 F1500.0 X12.8125 Y57.8125 Z1.4 E3.6
G1 F1500.0 X12.8125 Y63.4375 Z1.4 E3.6
G1 F1500.0 X12.8125 Y69.0625 Z1.4 E3.6
G1 F1500.0 X18.4375 Y69.0625 Z1.4 E3.6
G1 F1500.0 X18.4375 Y74.6875 Z1.4 E3.6
G1 F1500.0 X12.8125 Y74.6875 Z1.4 E3.6
G1 F1500.0 X15.625 Y83.125 Z1.4 E5.69209978830
G1 F1500.0 X26.875 Y83.125 Z1.4 E7.2
G1 F1500.0 X26.875 Y94.375 Z1.4 E7.2
G1 F1500.0 X15.625 Y94.375 Z1.4 E7.2
G1 F1500.0 X15.625 Y105.625 Z1.4 E7.2
G1 F1500.0 X15.625 Y116.875 Z1.4 E7.2
G1 F1500.0 X26.875 Y116.875 Z1.4 E7.2
G1 F1500.0 X26.875 Y105.625 Z1.4 E7.2
G1 F1500.0 X38.125 Y105.625 Z1.4 E7.2
G1 F1500.0 X49.375 Y105.625 Z1.4 E7.2
G1 F1500.0 X49.375 Y116.875 Z1.4 E7.2
G1 F1500.0 X38.125 Y116.875 Z1.4 E7.2
G1 F1500.0 X35.3125 Y125.3125 Z1.4 E5.69209978830
G1 F1500.0 X35.3125 Y130.9375 Z1.4 E3.6
G1 F1500.0 X40.9375 Y130.9375 Z1.4 E3.6
G1 F1500.0 X40.9375 Y125.3125 Z1.4 E3.6
G1 F1500.0 X46.5625 Y125.3125 Z1.4 E3.6
G1 F1500.0 X52.1875 Y125.3125 Z1.4 E3.6
G1 F1500.0 X52.1875 Y130.9375 Z1.4 E3.6
G1 F1500.0 X46.5625 Y130.9375 Z1.4 E3.6
G1 F1500.0 X46.5625 Y136.5625 Z1.4 E3.6
G1 F1500.0 X52.1875 Y136.5625 Z1.4 E3.6
G1 F1500.0 X52.1875 Y142.1875 Z1.4 E3.6
G1 F1500.0 X46.5625 Y142.1875 Z1.4 E3.6
G1 F1500.0 X40.9375 Y142.1875 Z1.4 E3.6
G1 F1500.0 X40.9375 Y136.5625 Z1.4 E3.6
G1 F1500.0 X35.3125 Y136.5625 Z1.4 E3.6
G1 F1500.0 X35.3125 Y142.1875 Z1.4 E3.6
G1 F1500.0 X29.6875 Y142.1875 Z1.4 E3.6
G1 F1500.0 X24.0625 Y142.1875 Z1.4 E3.6
G1 F1500.0 X24.0625 Y136.5625 Z1.4 E3.6
G1 F1500.0 X29.6875 Y136.5625 Z1.4 E3.6
G1 F1500.0 X29.6875 Y130.9375 Z1.4 E3.6
G1 F1500.0 X29.6875 Y125.3125 Z1.4 E3.6
G1 F1500.0 X24.0625 Y125.3125 Z1.4 E3.6
G1 F1500.0 X24.0625 Y130.9375 Z1.4 E3.6
G1 F1500.0 X18.4375 Y130.9375 Z1.4 E3.6
G1 F1500.0 X18.4375 Y125.3125 Z1.4 E3.6
G1 F1500.0 X12.8125 Y125.3125 Z1.4 E3.6
G1 F1500.0 X12.8125 Y130.9375 Z1.4 E3.6
G1 F1500.0 X12.8125 Y136.5625 Z1.4 E3.6
G1 F1500.0 X18.4375 Y136.5625 Z1.4 E3.6
G1 F1500.0 X18.4375 Y142.1875 Z1.4 E3.6
G1 F1500.0 X12.8125 Y142.1875 Z1.4 E3.6
G1 F1500.0 X21.25 Y156.25 Z1.4 E10.4957134107
G1 F1500.0 X21.25 Y178.75 Z1.4 E14.4
G1 F1500.0 X43.75 Y178.75 Z1.4 E14.4
G1 F1500.0 X43.75 Y156.25 Z1.4 E14.4
G1 F1500.0 X57.8125 Y147.8125 Z1.4 E10.4957134107
G1 F1500.0 X57.8125 Y153.4375 Z1.4 E3.6
G1 F1500.0 X63.4375 Y153.4375 Z1.4 E3.6
G1 F1500.0 X63.4375 Y147.8125 Z1.4 E3.6
G1 F1500.0 X69.0625 Y147.8125 Z1.4 E3.6
G1 F1500.0 X74.6875 Y147.8125 Z1.4 E3.6
G1 F1500.0 X74.6875 Y153.4375 Z1.4 E3.6
G1 F1500.0 X69.0625 Y153.4375 Z1.4 E3.6
G1 F1500.0 X69.0625 Y159.0625 Z1.4 E3.6
G1 F1500.0 X74.6875 Y159.0625 Z1.4 E3.6
G1 F1500.0 X74.6875 Y164.6875 Z1.4 E3.6
G1 F1500.0 X69.0625 Y164.6875 Z1.4 E3.6
G1 F1500.0 X63.4375 Y164.6875 Z1.4 E3.6
G1 F1500.0 X63.4375 Y159.0625 Z1.4 E3.6
G1 F1500.0 X57.8125 Y159.0625 Z1.4 E3.6
G1 F1500.0 X57.8125 Y164.6875 Z1.4 E3.6
G1 F1500.0 X57.8125 Y170.3125 Z1.4 E3.6
G1 F1500.0 X63.4375 Y170.3125 Z1.4 E3.6
G1 F1500.0 X63.4375 Y175.9375 Z1.4 E3.6
G1 F1500.0 X57.8125 Y175.9375 Z1.4 E3.6
G1 F1500.0 X57.8125 Y181.5625 Z1.4 E3.6
G1 F1500.0 X57.8125 Y187.1875 Z1.4 E3.6
G1 F1500.0 X63.4375 Y187.1875 Z1.4 E3.6
G1 F1500.0 X63.4375 Y181.5625 Z1.4 E3.6
G1 F1500.0 X69.0625 Y181.5625 Z1.4 E3.6
G1 F1500.0 X69.0625 Y187.1875 Z1.4 E3.6
G1 F1500.0 X74.6875 Y187.1875 Z1.4 E3.6
G1 F1500.0 X74.6875 Y181.5625 Z1.4 E3.6
G1 F1500.0 X74.6875 Y175.9375 Z1.4 E3.6
G1 F1500.0 X69.0625 Y175.9375 Z1.4 E3.6
G1 F1500.0 X69.0625 Y170.3125 Z1.4 E3.6
G1 F1500.0 X74.6875 Y170.3125 Z1.4 E3.6
G1 F1500.0 X83.125 Y173.125 Z1.4 E5.69209978830
G1 F1500.0 X83.125 Y184.375 Z1.4 E7.2
G1 F1500.0 X94.375 Y184.375 Z1.4 E7.2
G1 F1500.0 X94.375 Y173.125 Z1.4 E7.2
G1 F1500.0 X94.375 Y161.875 Z1.4 E7.2
G1 F1500.0 X83.125 Y161.875 Z1.4 E7.2
G1 F1500.0 X83.125 Y150.625 Z1.4 E7.2
G1 F1500.0 X94.375 Y150.625 Z1.4 E7.2
G1 F1500.0 X88.75 Y133.75 Z1.4 E11.3841995766
G1 F1500.0 X66.25 Y133.75 Z1.4 E14.4
G1 F1500.0 X66.25 Y111.25 Z1.4 E14.4
G1 F1500.0 X88.75 Y111.25 Z1.4 E14.4
G1 F1500.0 X105.625 Y105.625 Z1.4 E11.3841995766
G1 F1500.0 X105.625 Y116.875 Z1.4 E7.2
G1 F1500.0 X116.875 Y116.875 Z1.4 E7.2
G1 F1500.0 X116.875 Y105.625 Z1.4 E7.2
G1 F1500.0 X128.125 Y105.625 Z1.4 E7.2
G1 F1500.0 X139.375 Y105.625 Z1.4 E7.2
G1 F1500.0 X139.375 Y116.875 Z1.4 E7.2
G1 F1500.0 X128.125 Y116.875 Z1.4 E7.2
G1 F1500.0 X125.3125 Y125.3125 Z1.4 E5.69209978830
G1 F1500.0 X125.3125 Y130.9375 Z1.4 E3.6
G1 F1500.0 X130.9375 Y130.9375 Z1.4 E3.6
G1 F1500.0 X130.9375 Y125.3125 Z1.4 E3.6
G1 F1500.0 X136.5625 Y125.3125 Z1.4 E3.6
G1 F1500.0 X142.1875 Y125.3125 Z1.4 E3.6
G1 F1500.0 X142.1875 Y130.9375 Z1.4 E3.6
G1 F1500.0 X136.5625 Y130.9375 Z1.4 E3.6
G1 F1500.0 X136.5625 Y136.5625 Z1.4 E3.6
G1 F1500.0 X142.1875 Y136.5625 Z1.4 E3.6
G1 F1500.0 X142.1875 Y142.1875 Z1.4 E3.6
G1 F1500.0 X136.5625 Y142.1875 Z1.4 E3.6
G1 F1500.0 X130.9375 Y142.1875 Z1.4 E3.6
G1 F1500.0 X130.9375 Y136.5625 Z1.4 E3.6
G1 F1500.0 X125.3125 Y136.5625 Z1.4 E3.6
G1 F1500.0 X125.3125 Y142.1875 Z1.4 E3.6
G1 F1500.0 X116.875 Y139.375 Z1.4 E5.69209978830
G1 F1500.0 X116.875 Y128.125 Z1.4 E7.2
G1 F1500.0 X105.625 Y128.125 Z1.4 E7.2
G1 F1500.0 X105.625 Y139.375 Z1.4 E7.2
G1 F1500.0 X105.625 Y150.625 Z1.4 E7.2
G1 F1500.0 X116.875 Y150.625 Z1.4 E7.2
G1 F1500.0 X116.875 Y161.875 Z1.4 E7.2
G1 F1500.0 X105.625 Y161.875 Z1.4 E7.2
G1 F1500.0 X105.625 Y173.125 Z1.4 E7.2
G1 F1500.0 X105.625 Y184.375 Z1.4 E7.2
G1 F1500.0 X116.875 Y184.375 Z1.4 E7.2
G1 F1500.0 X116.875 Y173.125 Z1.4 E7.2
G1 F1500.0 X125.3125 Y170.3125 Z1.4 E5.69209978830
G1 F1500.0 X130.9375 Y170.3125 Z1.4 E3.6
G1 F1500.0 X130.9375 Y175.9375 Z1.4 E3.6
G1 F1500.0 X125.3125 Y175.9375 Z1.4 E3.6
G1 F1500.0 X125.3125 Y181.5625 Z1.4 E3.6
G1 F1500.0 X125.3125 Y187.1875 Z1.4 E3.6
G1 F1500.0 X130.9375 Y187.1875 Z1.4 E3.6
G1 F1500.0 X130.9375 Y181.5625 Z1.4 E3.6
G1 F1500.0 X136.5625 Y181.5625 Z1.4 E3.6
G1 F1500.0 X136.5625 Y187.1875 Z1.4 E3.6
G1 F1500.0 X142.1875 Y187.1875 Z1.4 E3.6
G1 F1500.0 X142.1875 Y181.5625 Z1.4 E3.6
G1 F1500.0 X142.1875 Y175.9375 Z1.4 E3.6
G1 F1500.0 X136.5625 Y175.9375 Z1.4 E3.6
G1 F1500.0 X136.5625 Y170.3125 Z1.4 E3.6
G1 F1500.0 X142.1875 Y170.3125 Z1.4 E3.6
G1 F1500.0 X142.1875 Y164.6875 Z1.4 E3.6
G1 F1500.0 X142.1875 Y159.0625 Z1.4 E3.6
G1 F1500.0 X136.5625 Y159.0625 Z1.4 E3.6
G1 F1500.0 X136.5625 Y164.6875 Z1.4 E3.6
G1 F1500.0 X130.9375 Y164.6875 Z1.4 E3.6
G1 F1500.0 X125.3125 Y164.6875 Z1.4 E3.6
G1 F1500.0 X125.3125 Y159.0625 Z1.4 E3.6
G1 F1500.0 X130.9375 Y159.0625 Z1.4 E3.6
G1 F1500.0 X130.9375 Y153.4375 Z1.4 E3.6
G1 F1500.0 X125.3125 Y153.4375 Z1.4 E3.6
G1 F1500.0 X125.3125 Y147.8125 Z1.4 E3.6
G1 F1500.0 X130.9375 Y147.8125 Z1.4 E3.6
G1 F1500.0 X136.5625 Y147.8125 Z1.4 E3.6
G1 F1500.0 X136.5625 Y153.4375 Z1.4 E3.6
G1 F1500.0 X142.1875 Y153.4375 Z1.4 E3.6
G1 F1500.0 X142.1875 Y147.8125 Z1.4 E3.6
G1 F1500.0 X156.25 Y156.25 Z1.4 E10.4957134107
G1 F1500.0 X156.25 Y178.75 Z1.4 E14.4
G1 F1500.0 X178.75 Y178.75 Z1.4 E14.4
G1 F1500.0 X178.75 Y156.25 Z1.4 E14.4
G1 F1500.0 X187.1875 Y142.1875 Z1.4 E10.4957134107
G1 F1500.0 X181.5625 Y142.1875 Z1.4 E3.6
G1 F1500.0 X181.5625 Y136.5625 Z1.4 E3.6
G1 F1500.0 X187.1875 Y136.5625 Z1.4 E3.6
G1 F1500.0 X187.1875 Y130.9375 Z1.4 E3.6
G1 F1500.0 X187.1875 Y125.3125 Z1.4 E3.6
G1 F1500.0 X181.5625 Y125.3125 Z1.4 E3.6
G1 F1500.0 X181.5625 Y130.9375 Z1.4 E3.6
G1 F1500.0 X175.9375 Y130.9375 Z1.4 E3.6
G1 F1500.0 X175.9375 Y125.3125 Z1.4 E3.6
G1 F1500.0 X170.3125 Y125.3125 Z1.4 E3.6
G1 F1500.0 X170.3125 Y130.9375 Z1.4 E3.6
G1 F1500.0 X170.3125 Y136.5625 Z1.4 E3.6
G1 F1500.0 X175.9375 Y136.5625 Z1.4 E3.6
G1 F1500.0 X175.9375 Y142.1875 Z1.4 E3.6
G1 F1500.0 X170.3125 Y142.1875 Z1.4 E3.6
G1 F1500.0 X164.6875 Y142.1875 Z1.4 E3.6
G1 F1500.0 X164.6875 Y136.5625 Z1.4 E3.6
G1 F1500.0 X159.0625 Y136.5625 Z1.4 E3.6
G1 F1500.0 X159.0625 Y142.1875 Z1.4 E3.6
G1 F1500.0 X153.4375 Y142.1875 Z1.4 E3.6
G1 F1500.0 X147.8125 Y142.1875 Z1.4 E3.6
G1 F1500.0 X147.8125 Y136.5625 Z1.4 E3.6
G1 F1500.0 X153.4375 Y136.5625 Z1.4 E3.6
G1 F1500.0 X153.4375 Y130.9375 Z1.4 E3.6
G1 F1500.0 X147.8125 Y130.9375 Z1.4 E3.6
G1 F1500.0 X147.8125 Y125.3125 Z1.4 E3.6
G1 F1500.0 X153.4375 Y125.3125 Z1.4 E3.6
G1 F1500.0 X159.0625 Y125.3125 Z1.4 E3.6
G1 F1500.0 X159.0625 Y130.9375 Z1.4 E3.6
G1 F1500.0 X164.6875 Y130.9375 Z1.4 E3.6
G1 F1500.0 X164.6875 Y125.3125 Z1.4 E3.6
G1 F1500.0 X161.875 Y116.875 Z1.4 E5.69209978830
G1 F1500.0 X150.625 Y116.875 Z1.4 E7.2
G1 F1500.0 X150.625 Y105.625 Z1.4 E7.2
G1 F1500.0 X161.875 Y105.625 Z1.4 E7.2
G1 F1500.0 X173.125 Y105.625 Z1.4 E7.2
G1 F1500.0 X173.125 Y116.875 Z1.4 E7.2
G1 F1500.0 X184.375 Y116.875 Z1.4 E7.2
G1 F1500.0 X184.375 Y105.625 Z1.4 E7.2
G1 F1500.0 X184.375 Y94.375 Z1.4 E7.2
G1 F1500.0 X173.125 Y94.375 Z1.4 E7.2
G1 F1500.0 X173.125 Y83.125 Z1.4 E7.2
G1 F1500.0 X184.375 Y83.125 Z1.4 E7.2
G1 F1500.0 X187.1875 Y74.6875 Z1.4 E5.69209978830
G1 F1500.0 X181.5625 Y74.6875 Z1.4 E3.6
G1 F1500.0 X181.5625 Y69.0625 Z1.4 E3.6
G1 F1500.0 X187.1875 Y69.0625 Z1.4 E3.6
G1 F1500.0 X187.1875 Y63.4375 Z1.4 E3.6
G1 F1500.0 X187.1875 Y57.8125 Z1.4 E3.6
G1 F1500.0 X181.5625 Y57.8125 Z1.4 E3.6
G1 F1500.0 X181.5625 Y63.4375 Z1.4 E3.6
G1 F1500.0 X175.9375 Y63.4375 Z1.4 E3.6
G1 F1500.0 X175.9375 Y57.8125 Z1.4 E3.6
G1 F1500.0 X170.3125 Y57.8125 Z1.4 E3.6
G1 F1500.0 X170.3125 Y63.4375 Z1.4 E3.6
G1 F1500.0 X170.3125 Y69.0625 Z1.4 E3.6
G1 F1500.0 X175.9375 Y69.0625 Z1.4 E3.6
G1 F1500.0 X175.9375 Y74.6875 Z1.4 E3.6
G1 F1500.0 X170.3125 Y74.6875 Z1.4 E3.6
G1 F1500.0 X164.6875 Y74.6875 Z1.4 E3.6
G1 F1500.0 X159.0625 Y74.6875 Z1.4 E3.6
G1 F1500.0 X159.0625 Y69.0625 Z1.4 E3.6
G1 F1500.0 X164.6875 Y69.0625 Z1.4 E3.6
G1 F1500.0 X164.6875 Y63.4375 Z1.4 E3.6
G1 F1500.0 X164.6875 Y57.8125 Z1.4 E3.6
G1 F1500.0 X159.0625 Y57.8125 Z1.4 E3.6
G1 F1500.0 X159.0625 Y63.4375 Z1.4 E3.6
G1 F1500.0 X153.4375 Y63.4375 Z1.4 E3.6
G1 F1500.0 X153.4375 Y57.8125 Z1.4 E3.6
G1 F1500.0 X147.8125 Y57.8125 Z1.4 E3.6
G1 F1500.0 X147.8125 Y63.4375 Z1.4 E3.6
G1 F1500.0 X147.8125 Y69.0625 Z1.4 E3.6
G1 F1500.0 X153.4375 Y69.0625 Z1.4 E3.6
G1 F1500.0 X153.4375 Y74.6875 Z1.4 E3.6
G1 F1500.0 X147.8125 Y74.6875 Z1.4 E3.6
G1 F1500.0 X150.625 Y83.125 Z1.4 E5.69209978830
G1 F1500.0 X161.875 Y83.125 Z1.4 E7.2
G1 F1500.0 X161.875 Y94.375 Z1.4 E7.2
G1 F1500.0 X150.625 Y94.375 Z1.4 E7.2
